(G-CODE GENERATED BY FLATCAM v8.96 - www.flatcam.org - Version Date: 2019/08/23)

(Name: jebaoDosingAdapter-Edge_Cuts.gbr_cutout_cnc)
(Type: G-code from Geometry)
(Units: MM)

(Created on Sunday, 08 September 2019 at 11:28)

(TOOL DIAMETER: 3.0 mm)
(Feedrate: 250.0 mm/min)
(Feedrate_Z: 79.9998 mm/min)
(Feedrate rapids 79.9998 mm/min)

(Z_Cut: -1.7 mm)
(DepthPerCut: 0.5 mm <=>4 passes)
(Z_Move: 1.999 mm)
(Z Toolchange: 12.7 mm)
(X,Y Toolchange: 0.0000, 0.0000 mm)
(Z Start: None mm)
(Z End: 12.7 mm)
(Steps per circle: 128)
(Postprocessor Geometry: default)

(X range:    2.0859 ...   39.1941  mm)
(Y range:    0.0959 ...   28.6741  mm)

(Spindle Speed: 1000 RPM)

G21
G90
G94

G01 F250.00
G00 Z1.9990

M03 S1000
G00 X18.2391 Y0.0959
G01 F80.00
G01 Z-0.5000
G01 F250.00
G01 X3.6850 Y0.0959
G01 X3.5282 Y0.1036
G01 X3.3730 Y0.1266
G01 X3.2208 Y0.1647
G01 X3.0730 Y0.2176
G01 X2.9312 Y0.2847
G01 X2.7966 Y0.3654
G01 X2.6705 Y0.4588
G01 X2.5542 Y0.5642
G01 X2.4488 Y0.6805
G01 X2.3554 Y0.8066
G01 X2.2747 Y0.9412
G01 X2.2076 Y1.0830
G01 X2.1547 Y1.2308
G01 X2.1166 Y1.3830
G01 X2.0936 Y1.5382
G01 X2.0859 Y1.6950
G01 X2.0859 Y27.0750
G01 X2.0936 Y27.2318
G01 X2.1166 Y27.3870
G01 X2.1547 Y27.5392
G01 X2.2076 Y27.6870
G01 X2.2747 Y27.8288
G01 X2.3554 Y27.9634
G01 X2.4488 Y28.0895
G01 X2.5542 Y28.2058
G01 X2.6705 Y28.3112
G01 X2.7966 Y28.4046
G01 X2.9312 Y28.4853
G01 X3.0730 Y28.5524
G01 X3.2208 Y28.6053
G01 X3.3730 Y28.6434
G01 X3.5282 Y28.6664
G01 X3.6850 Y28.6741
G01 X18.2391 Y28.6741
G00 X18.2391 Y28.6741
G01 F80.00
G01 Z-1.0000
G01 F250.00
G01 X3.6850 Y28.6741
G01 X3.5282 Y28.6664
G01 X3.3730 Y28.6434
G01 X3.2208 Y28.6053
G01 X3.0730 Y28.5524
G01 X2.9312 Y28.4853
G01 X2.7966 Y28.4046
G01 X2.6705 Y28.3112
G01 X2.5542 Y28.2058
G01 X2.4488 Y28.0895
G01 X2.3554 Y27.9634
G01 X2.2747 Y27.8288
G01 X2.2076 Y27.6870
G01 X2.1547 Y27.5392
G01 X2.1166 Y27.3870
G01 X2.0936 Y27.2318
G01 X2.0859 Y27.0750
G01 X2.0859 Y1.6950
G01 X2.0936 Y1.5382
G01 X2.1166 Y1.3830
G01 X2.1547 Y1.2308
G01 X2.2076 Y1.0830
G01 X2.2747 Y0.9412
G01 X2.3554 Y0.8066
G01 X2.4488 Y0.6805
G01 X2.5542 Y0.5642
G01 X2.6705 Y0.4588
G01 X2.7966 Y0.3654
G01 X2.9312 Y0.2847
G01 X3.0730 Y0.2176
G01 X3.2208 Y0.1647
G01 X3.3730 Y0.1266
G01 X3.5282 Y0.1036
G01 X3.6850 Y0.0959
G01 X18.2391 Y0.0959
G00 X18.2391 Y0.0959
G01 F80.00
G01 Z-1.5000
G01 F250.00
G01 X3.6850 Y0.0959
G01 X3.5282 Y0.1036
G01 X3.3730 Y0.1266
G01 X3.2208 Y0.1647
G01 X3.0730 Y0.2176
G01 X2.9312 Y0.2847
G01 X2.7966 Y0.3654
G01 X2.6705 Y0.4588
G01 X2.5542 Y0.5642
G01 X2.4488 Y0.6805
G01 X2.3554 Y0.8066
G01 X2.2747 Y0.9412
G01 X2.2076 Y1.0830
G01 X2.1547 Y1.2308
G01 X2.1166 Y1.3830
G01 X2.0936 Y1.5382
G01 X2.0859 Y1.6950
G01 X2.0859 Y27.0750
G01 X2.0936 Y27.2318
G01 X2.1166 Y27.3870
G01 X2.1547 Y27.5392
G01 X2.2076 Y27.6870
G01 X2.2747 Y27.8288
G01 X2.3554 Y27.9634
G01 X2.4488 Y28.0895
G01 X2.5542 Y28.2058
G01 X2.6705 Y28.3112
G01 X2.7966 Y28.4046
G01 X2.9312 Y28.4853
G01 X3.0730 Y28.5524
G01 X3.2208 Y28.6053
G01 X3.3730 Y28.6434
G01 X3.5282 Y28.6664
G01 X3.6850 Y28.6741
G01 X18.2391 Y28.6741
G00 X18.2391 Y28.6741
G01 F80.00
G01 Z-1.7000
G01 F250.00
G01 X3.6850 Y28.6741
G01 X3.5282 Y28.6664
G01 X3.3730 Y28.6434
G01 X3.2208 Y28.6053
G01 X3.0730 Y28.5524
G01 X2.9312 Y28.4853
G01 X2.7966 Y28.4046
G01 X2.6705 Y28.3112
G01 X2.5542 Y28.2058
G01 X2.4488 Y28.0895
G01 X2.3554 Y27.9634
G01 X2.2747 Y27.8288
G01 X2.2076 Y27.6870
G01 X2.1547 Y27.5392
G01 X2.1166 Y27.3870
G01 X2.0936 Y27.2318
G01 X2.0859 Y27.0750
G01 X2.0859 Y1.6950
G01 X2.0936 Y1.5382
G01 X2.1166 Y1.3830
G01 X2.1547 Y1.2308
G01 X2.2076 Y1.0830
G01 X2.2747 Y0.9412
G01 X2.3554 Y0.8066
G01 X2.4488 Y0.6805
G01 X2.5542 Y0.5642
G01 X2.6705 Y0.4588
G01 X2.7966 Y0.3654
G01 X2.9312 Y0.2847
G01 X3.0730 Y0.2176
G01 X3.2208 Y0.1647
G01 X3.3730 Y0.1266
G01 X3.5282 Y0.1036
G01 X3.6850 Y0.0959
G01 X18.2391 Y0.0959
G00 Z1.9990
G00 X23.2391 Y0.0959
G01 F80.00
G01 Z-0.5000
G01 F250.00
G01 X37.5950 Y0.0959
G00 X37.5950 Y0.0959
G01 F80.00
G01 Z-1.0000
G01 F250.00
G01 X23.2391 Y0.0959
G00 X23.2391 Y0.0959
G01 F80.00
G01 Z-1.5000
G01 F250.00
G01 X37.5950 Y0.0959
G00 X37.5950 Y0.0959
G01 F80.00
G01 Z-1.7000
G01 F250.00
G01 X23.2391 Y0.0959
G00 Z1.9990
G00 X37.5950 Y0.0959
G01 F80.00
G01 Z-0.5000
G01 F250.00
G01 X37.7518 Y0.1036
G01 X37.9070 Y0.1266
G01 X38.0592 Y0.1647
G01 X38.2070 Y0.2176
G01 X38.3488 Y0.2847
G01 X38.4834 Y0.3654
G01 X38.6095 Y0.4588
G01 X38.7258 Y0.5642
G01 X38.8312 Y0.6805
G01 X38.9246 Y0.8066
G01 X39.0053 Y0.9412
G01 X39.0724 Y1.0830
G01 X39.1253 Y1.2308
G01 X39.1634 Y1.3830
G01 X39.1864 Y1.5382
G01 X39.1941 Y1.6950
G01 X39.1941 Y27.0750
G01 X39.1864 Y27.2318
G01 X39.1634 Y27.3870
G01 X39.1253 Y27.5392
G01 X39.0724 Y27.6870
G01 X39.0053 Y27.8288
G01 X38.9246 Y27.9634
G01 X38.8312 Y28.0895
G01 X38.7258 Y28.2058
G01 X38.6095 Y28.3112
G01 X38.4834 Y28.4046
G01 X38.3488 Y28.4853
G01 X38.2070 Y28.5524
G01 X38.0592 Y28.6053
G01 X37.9070 Y28.6434
G01 X37.7518 Y28.6664
G01 X37.5950 Y28.6741
G01 X23.2391 Y28.6741
G00 X23.2391 Y28.6741
G01 F80.00
G01 Z-1.0000
G01 F250.00
G01 X37.5950 Y28.6741
G01 X37.7518 Y28.6664
G01 X37.9070 Y28.6434
G01 X38.0592 Y28.6053
G01 X38.2070 Y28.5524
G01 X38.3488 Y28.4853
G01 X38.4834 Y28.4046
G01 X38.6095 Y28.3112
G01 X38.7258 Y28.2058
G01 X38.8312 Y28.0895
G01 X38.9246 Y27.9634
G01 X39.0053 Y27.8288
G01 X39.0724 Y27.6870
G01 X39.1253 Y27.5392
G01 X39.1634 Y27.3870
G01 X39.1864 Y27.2318
G01 X39.1941 Y27.0750
G01 X39.1941 Y1.6950
G01 X39.1864 Y1.5382
G01 X39.1634 Y1.3830
G01 X39.1253 Y1.2308
G01 X39.0724 Y1.0830
G01 X39.0053 Y0.9412
G01 X38.9246 Y0.8066
G01 X38.8312 Y0.6805
G01 X38.7258 Y0.5642
G01 X38.6095 Y0.4588
G01 X38.4834 Y0.3654
G01 X38.3488 Y0.2847
G01 X38.2070 Y0.2176
G01 X38.0592 Y0.1647
G01 X37.9070 Y0.1266
G01 X37.7518 Y0.1036
G01 X37.5950 Y0.0959
G00 X37.5950 Y0.0959
G01 F80.00
G01 Z-1.5000
G01 F250.00
G01 X37.7518 Y0.1036
G01 X37.9070 Y0.1266
G01 X38.0592 Y0.1647
G01 X38.2070 Y0.2176
G01 X38.3488 Y0.2847
G01 X38.4834 Y0.3654
G01 X38.6095 Y0.4588
G01 X38.7258 Y0.5642
G01 X38.8312 Y0.6805
G01 X38.9246 Y0.8066
G01 X39.0053 Y0.9412
G01 X39.0724 Y1.0830
G01 X39.1253 Y1.2308
G01 X39.1634 Y1.3830
G01 X39.1864 Y1.5382
G01 X39.1941 Y1.6950
G01 X39.1941 Y27.0750
G01 X39.1864 Y27.2318
G01 X39.1634 Y27.3870
G01 X39.1253 Y27.5392
G01 X39.0724 Y27.6870
G01 X39.0053 Y27.8288
G01 X38.9246 Y27.9634
G01 X38.8312 Y28.0895
G01 X38.7258 Y28.2058
G01 X38.6095 Y28.3112
G01 X38.4834 Y28.4046
G01 X38.3488 Y28.4853
G01 X38.2070 Y28.5524
G01 X38.0592 Y28.6053
G01 X37.9070 Y28.6434
G01 X37.7518 Y28.6664
G01 X37.5950 Y28.6741
G01 X23.2391 Y28.6741
G00 X23.2391 Y28.6741
G01 F80.00
G01 Z-1.7000
G01 F250.00
G01 X37.5950 Y28.6741
G01 X37.7518 Y28.6664
G01 X37.9070 Y28.6434
G01 X38.0592 Y28.6053
G01 X38.2070 Y28.5524
G01 X38.3488 Y28.4853
G01 X38.4834 Y28.4046
G01 X38.6095 Y28.3112
G01 X38.7258 Y28.2058
G01 X38.8312 Y28.0895
G01 X38.9246 Y27.9634
G01 X39.0053 Y27.8288
G01 X39.0724 Y27.6870
G01 X39.1253 Y27.5392
G01 X39.1634 Y27.3870
G01 X39.1864 Y27.2318
G01 X39.1941 Y27.0750
G01 X39.1941 Y1.6950
G01 X39.1864 Y1.5382
G01 X39.1634 Y1.3830
G01 X39.1253 Y1.2308
G01 X39.0724 Y1.0830
G01 X39.0053 Y0.9412
G01 X38.9246 Y0.8066
G01 X38.8312 Y0.6805
G01 X38.7258 Y0.5642
G01 X38.6095 Y0.4588
G01 X38.4834 Y0.3654
G01 X38.3488 Y0.2847
G01 X38.2070 Y0.2176
G01 X38.0592 Y0.1647
G01 X37.9070 Y0.1266
G01 X37.7518 Y0.1036
G01 X37.5950 Y0.0959
G00 Z1.9990
M05
G00 Z1.9990
G00 Z12.70
G00 X0.0 Y0.0

M02