(G-CODE GENERATED BY FLATCAM v8.96 - www.flatcam.org - Version Date: 2019/08/23)

(Name: jebaoDosingAdapter-F.Cu.gbr_iso_cnc)
(Type: G-code from Geometry)
(Units: MM)

(Created on Friday, 06 September 2019 at 22:21)

(TOOL DIAMETER: 0.1 mm)
(Feedrate: 79.9998 mm/min)
(Feedrate_Z: 79.9998 mm/min)
(Feedrate rapids 79.9998 mm/min)

(Z_Cut: -2.4003 mm)
(Z_Move: 1.999 mm)
(Z Toolchange: 12.7 mm)
(X,Y Toolchange: 0.0000, 0.0000 mm)
(Z Start: None mm)
(Z End: 12.7 mm)
(Steps per circle: 128)
(Postprocessor Geometry: default)

(X range:    0.3936 ...   36.2267  mm)
(Y range:    0.3833 ...   24.7467  mm)

(Spindle Speed: None RPM)

G21
G90
G94

G01 F80.00
G00 Z1.9990

M03
G00 X1.4367 Y8.7445
G01 F80.00
G01 Z-2.4003
G01 F80.00
G01 X1.4367 Y7.9555
G01 X1.7386 Y7.2265
G01 X2.2965 Y6.6686
G01 X3.0255 Y6.3667
G01 X3.8145 Y6.3667
G01 X4.5435 Y6.6686
G01 X5.1014 Y7.2265
G01 X5.4033 Y7.9555
G01 X5.4033 Y8.7445
G01 X5.1014 Y9.4735
G01 X4.5435 Y10.0314
G01 X3.8145 Y10.3333
G01 X3.0255 Y10.3333
G01 X2.2965 Y10.0314
G01 X1.7386 Y9.4735
G01 X1.4367 Y8.7445
G00 Z1.9990
G00 X1.3371 Y8.7643
G01 F80.00
G01 Z-2.4003
G01 F80.00
G01 X1.3371 Y7.9357
G01 X1.6542 Y7.1701
G01 X2.2401 Y6.5842
G01 X3.0057 Y6.2671
G01 X3.8343 Y6.2671
G01 X4.5999 Y6.5842
G01 X5.1858 Y7.1701
G01 X5.5029 Y7.9357
G01 X5.5029 Y8.7643
G01 X5.1858 Y9.5299
G01 X4.5999 Y10.1158
G01 X3.8343 Y10.4329
G01 X3.0057 Y10.4329
G01 X2.2401 Y10.1158
G01 X1.6542 Y9.5299
G01 X1.3371 Y8.7643
G00 Z1.9990
G00 X4.8684 Y17.0127
G01 F80.00
G01 Z-2.4003
G01 F80.00
G01 X5.1858 Y17.3301
G01 X5.5029 Y18.0957
G01 X5.5029 Y18.9243
G01 X5.1858 Y19.6899
G01 X4.5999 Y20.2758
G01 X3.8343 Y20.5929
G01 X3.0057 Y20.5929
G01 X2.2401 Y20.2758
G01 X1.6542 Y19.6899
G01 X1.3371 Y18.9243
G01 X1.3371 Y18.0957
G01 X1.6542 Y17.3301
G01 X2.2401 Y16.7442
G01 X3.0057 Y16.4271
G01 X3.8343 Y16.4271
G01 X4.5999 Y16.7442
G01 X4.8684 Y17.0127
G00 Z1.9990
G00 X4.7980 Y17.0831
G01 F80.00
G01 Z-2.4003
G01 F80.00
G01 X5.1014 Y17.3865
G01 X5.4033 Y18.1155
G01 X5.4033 Y18.9045
G01 X5.1014 Y19.6335
G01 X4.5435 Y20.1914
G01 X3.8145 Y20.4933
G01 X3.0255 Y20.4933
G01 X2.2965 Y20.1914
G01 X1.7386 Y19.6335
G01 X1.4367 Y18.9045
G01 X1.4367 Y18.1155
G01 X1.7386 Y17.3865
G01 X2.2965 Y16.8286
G01 X3.0255 Y16.5267
G01 X3.8145 Y16.5267
G01 X4.5435 Y16.8286
G01 X4.7980 Y17.0831
G00 Z1.9990
G00 X9.3872 Y17.4350
G01 F80.00
G01 Z-2.4003
G01 F80.00
G01 X9.3380 Y17.4104
G01 X9.3024 Y17.3902
G01 X9.2646 Y17.3663
G01 X9.2281 Y17.3406
G01 X9.1958 Y17.3154
G01 X9.1565 Y17.2815
G01 X9.1268 Y17.2532
G01 X9.0960 Y17.2209
G01 X9.0669 Y17.1871
G01 X9.0416 Y17.1548
G01 X9.0117 Y17.1123
G01 X8.9898 Y17.0776
G01 X8.9661 Y17.0355
G01 X8.9477 Y16.9989
G01 X8.9296 Y16.9581
G01 X8.9136 Y16.9164
G01 X8.9007 Y16.8775
G01 X8.8868 Y16.8274
G01 X8.8779 Y16.7875
G01 X8.8702 Y16.7435
G01 X8.8648 Y16.6992
G01 X8.8615 Y16.6546
G01 X8.8604 Y16.6100
G01 X8.8614 Y16.5690
G01 X8.8652 Y16.5172
G01 X8.8702 Y16.4765
G01 X8.8786 Y16.4290
G01 X8.8876 Y16.3890
G01 X8.8996 Y16.3460
G01 X8.9136 Y16.3036
G01 X8.9283 Y16.2653
G01 X8.9493 Y16.2178
G01 X8.9678 Y16.1812
G01 X8.9898 Y16.1424
G01 X9.0137 Y16.1046
G01 X9.0394 Y16.0681
G01 X9.0669 Y16.0329
G01 X9.0936 Y16.0019
G01 X9.1294 Y15.9642
G01 X9.1591 Y15.9360
G01 X9.1929 Y15.9069
G01 X9.2281 Y15.8794
G01 X9.2646 Y15.8537
G01 X9.3024 Y15.8298
G01 X9.3380 Y15.8096
G01 X9.3844 Y15.7862
G01 X9.4219 Y15.7696
G01 X9.4636 Y15.7536
G01 X9.5060 Y15.7396
G01 X9.5490 Y15.7276
G01 X9.5925 Y15.7179
G01 X9.6329 Y15.7108
G01 X9.6845 Y15.7045
G01 X9.7254 Y15.7015
G01 X9.7700 Y15.7004
G01 X9.8183 Y15.7017
G01 X9.8592 Y15.7048
G01 X9.9035 Y15.7102
G01 X9.9510 Y15.7186
G01 X9.9910 Y15.7276
G01 X10.0340 Y15.7396
G01 X10.0799 Y15.7548
G01 X10.1181 Y15.7696
G01 X10.1589 Y15.7877
G01 X10.1988 Y15.8078
G01 X10.2345 Y15.8280
G01 X10.2784 Y15.8558
G01 X10.3119 Y15.8794
G01 X10.3471 Y15.9069
G01 X10.3809 Y15.9360
G01 X10.4106 Y15.9642
G01 X10.4464 Y16.0019
G01 X10.4731 Y16.0329
G01 X10.4984 Y16.0652
G01 X10.5283 Y16.1077
G01 X10.5502 Y16.1424
G01 X10.5722 Y16.1812
G01 X10.5938 Y16.2244
G01 X10.6104 Y16.2619
G01 X10.6264 Y16.3036
G01 X10.6415 Y16.3495
G01 X10.6524 Y16.3890
G01 X10.6621 Y16.4325
G01 X10.6698 Y16.4765
G01 X10.6748 Y16.5172
G01 X10.6786 Y16.5690
G01 X10.6796 Y16.6118
G01 X10.6785 Y16.6546
G01 X10.6752 Y16.6992
G01 X10.6703 Y16.7398
G01 X10.6614 Y16.7910
G01 X10.6524 Y16.8310
G01 X10.6415 Y16.8705
G01 X10.6252 Y16.9199
G01 X10.6104 Y16.9581
G01 X10.5923 Y16.9989
G01 X10.5722 Y17.0388
G01 X10.5520 Y17.0745
G01 X10.5263 Y17.1154
G01 X10.4984 Y17.1548
G01 X10.4731 Y17.1871
G01 X10.4440 Y17.2209
G01 X10.4132 Y17.2532
G01 X10.3835 Y17.2815
G01 X10.3499 Y17.3108
G01 X10.3366 Y17.3213
G01 X12.0056 Y18.9903
G01 X16.2985 Y18.9903
G01 X16.3095 Y18.9791
G01 X16.3209 Y18.9698
G01 X16.3331 Y18.9617
G01 X16.3460 Y18.9548
G01 X16.3666 Y18.9468
G01 X16.3808 Y18.9433
G01 X16.3953 Y18.9411
G01 X16.4100 Y18.9404
G01 X18.4100 Y18.9404
G01 X18.4247 Y18.9411
G01 X18.4392 Y18.9433
G01 X18.4534 Y18.9468
G01 X18.4740 Y18.9548
G01 X18.4869 Y18.9617
G01 X18.4991 Y18.9698
G01 X18.5105 Y18.9791
G01 X18.5215 Y18.9903
G01 X19.8544 Y18.9903
G01 X21.5303 Y17.3144
G01 X21.5303 Y4.5896
G01 X21.0800 Y4.5896
G01 X21.0653 Y4.5889
G01 X21.0508 Y4.5867
G01 X21.0366 Y4.5832
G01 X21.0160 Y4.5752
G01 X21.0031 Y4.5683
G01 X20.9909 Y4.5602
G01 X20.9742 Y4.5458
G01 X20.9598 Y4.5291
G01 X20.9517 Y4.5169
G01 X20.9448 Y4.5040
G01 X20.9391 Y4.4904
G01 X20.9349 Y4.4764
G01 X20.9311 Y4.4547
G01 X20.9304 Y4.4400
G01 X20.9304 Y3.9897
G01 X14.9856 Y3.9897
G01 X12.7097 Y6.2656
G01 X12.7097 Y9.3504
G01 X13.0700 Y9.3504
G01 X13.0847 Y9.3511
G01 X13.0992 Y9.3533
G01 X13.1204 Y9.3591
G01 X13.1405 Y9.3681
G01 X13.1591 Y9.3798
G01 X13.1705 Y9.3891
G01 X13.1857 Y9.4051
G01 X13.1983 Y9.4231
G01 X13.2082 Y9.4427
G01 X13.2151 Y9.4636
G01 X13.2189 Y9.4853
G01 X13.2196 Y9.5000
G01 X13.2196 Y11.0200
G01 X13.2180 Y11.0420
G01 X13.2151 Y11.0564
G01 X13.2109 Y11.0704
G01 X13.2052 Y11.0840
G01 X13.1983 Y11.0969
G01 X13.1902 Y11.1091
G01 X13.1809 Y11.1205
G01 X13.1705 Y11.1309
G01 X13.1591 Y11.1402
G01 X13.1405 Y11.1519
G01 X13.1273 Y11.1582
G01 X13.1134 Y11.1632
G01 X13.0992 Y11.1667
G01 X13.0847 Y11.1689
G01 X13.0700 Y11.1696
G01 X11.5500 Y11.1696
G01 X11.5280 Y11.1680
G01 X11.5136 Y11.1651
G01 X11.4996 Y11.1609
G01 X11.4860 Y11.1552
G01 X11.4731 Y11.1483
G01 X11.4609 Y11.1402
G01 X11.4495 Y11.1309
G01 X11.4391 Y11.1205
G01 X11.4298 Y11.1091
G01 X11.4217 Y11.0969
G01 X11.4148 Y11.0840
G01 X11.4091 Y11.0704
G01 X11.4049 Y11.0564
G01 X11.4020 Y11.0420
G01 X11.4006 Y11.0273
G01 X11.4004 Y9.5000
G01 X11.4011 Y9.4853
G01 X11.4033 Y9.4708
G01 X11.4068 Y9.4566
G01 X11.4148 Y9.4360
G01 X11.4256 Y9.4169
G01 X11.4391 Y9.3995
G01 X11.4551 Y9.3843
G01 X11.4731 Y9.3717
G01 X11.4927 Y9.3618
G01 X11.5136 Y9.3549
G01 X11.5353 Y9.3511
G01 X11.5500 Y9.3504
G01 X11.9103 Y9.3504
G01 X11.9103 Y6.0982
G01 X11.9110 Y6.0767
G01 X11.9141 Y6.0450
G01 X11.9179 Y6.0220
G01 X11.9222 Y6.0029
G01 X11.9275 Y5.9840
G01 X11.9349 Y5.9619
G01 X11.9471 Y5.9324
G01 X11.9558 Y5.9148
G01 X11.9691 Y5.8914
G01 X11.9889 Y5.8619
G01 X12.0034 Y5.8436
G01 X12.0273 Y5.8173
G01 X14.5373 Y3.3073
G01 X14.5543 Y3.2914
G01 X14.5790 Y3.2712
G01 X14.5979 Y3.2576
G01 X14.6145 Y3.2471
G01 X14.6348 Y3.2358
G01 X14.6637 Y3.2221
G01 X14.6853 Y3.2136
G01 X14.7075 Y3.2065
G01 X14.7384 Y3.1987
G01 X14.7613 Y3.1946
G01 X14.7845 Y3.1919
G01 X14.8182 Y3.1903
G01 X20.9304 Y3.1903
G01 X20.9304 Y2.7400
G01 X20.9311 Y2.7253
G01 X20.9333 Y2.7108
G01 X20.9391 Y2.6896
G01 X20.9448 Y2.6760
G01 X20.9556 Y2.6569
G01 X20.9691 Y2.6395
G01 X20.9851 Y2.6243
G01 X21.0031 Y2.6117
G01 X21.0160 Y2.6048
G01 X21.0366 Y2.5968
G01 X21.0580 Y2.5920
G01 X21.0800 Y2.5904
G01 X22.7800 Y2.5904
G01 X22.7947 Y2.5911
G01 X22.8092 Y2.5933
G01 X22.8234 Y2.5968
G01 X22.8373 Y2.6018
G01 X22.8569 Y2.6117
G01 X22.8691 Y2.6198
G01 X22.8805 Y2.6291
G01 X22.8909 Y2.6395
G01 X22.9002 Y2.6509
G01 X22.9119 Y2.6695
G01 X22.9182 Y2.6827
G01 X22.9232 Y2.6966
G01 X22.9267 Y2.7108
G01 X22.9289 Y2.7253
G01 X22.9296 Y2.7400
G01 X22.9296 Y4.4400
G01 X22.9280 Y4.4620
G01 X22.9232 Y4.4834
G01 X22.9152 Y4.5040
G01 X22.9044 Y4.5231
G01 X22.8956 Y4.5349
G01 X22.8805 Y4.5509
G01 X22.8631 Y4.5644
G01 X22.8440 Y4.5752
G01 X22.8234 Y4.5832
G01 X22.8092 Y4.5867
G01 X22.7947 Y4.5889
G01 X22.7800 Y4.5896
G01 X22.3297 Y4.5896
G01 X22.3297 Y17.4818
G01 X22.3278 Y17.5192
G01 X22.3221 Y17.5580
G01 X22.3125 Y17.5960
G01 X22.3007 Y17.6296
G01 X22.2842 Y17.6652
G01 X22.2709 Y17.6886
G01 X22.2511 Y17.7181
G01 X22.2262 Y17.7484
G01 X20.3000 Y19.6752
G01 X20.2764 Y19.6966
G01 X20.2581 Y19.7111
G01 X20.2390 Y19.7244
G01 X20.2084 Y19.7425
G01 X20.1876 Y19.7529
G01 X20.1547 Y19.7664
G01 X20.1325 Y19.7735
G01 X20.0980 Y19.7821
G01 X20.0592 Y19.7878
G01 X20.0200 Y19.7897
G01 X18.5215 Y19.7897
G01 X18.5105 Y19.8009
G01 X18.4991 Y19.8102
G01 X18.4869 Y19.8183
G01 X18.4740 Y19.8252
G01 X18.4534 Y19.8332
G01 X18.4392 Y19.8367
G01 X18.4247 Y19.8389
G01 X18.4100 Y19.8396
G01 X16.4100 Y19.8396
G01 X16.3953 Y19.8389
G01 X16.3808 Y19.8367
G01 X16.3666 Y19.8332
G01 X16.3460 Y19.8252
G01 X16.3331 Y19.8183
G01 X16.3209 Y19.8102
G01 X16.3095 Y19.8009
G01 X16.2985 Y19.7897
G01 X11.8363 Y19.7897
G01 X11.8008 Y19.7878
G01 X11.7620 Y19.7821
G01 X11.7240 Y19.7725
G01 X11.6870 Y19.7593
G01 X11.6516 Y19.7425
G01 X11.6179 Y19.7224
G01 X11.5864 Y19.6990
G01 X11.5600 Y19.6752
G01 X9.4861 Y17.6013
G01 X9.4714 Y17.5857
G01 X9.4512 Y17.5610
G01 X9.4376 Y17.5421
G01 X9.4271 Y17.5255
G01 X9.4158 Y17.5052
G01 X9.4021 Y17.4763
G01 X9.3936 Y17.4547
G01 X9.3872 Y17.4350
G00 Z1.9990
G00 X9.4730 Y17.3634
G01 F80.00
G01 Z-2.4003
G01 F80.00
G01 X9.4589 Y17.3579
G01 X9.4226 Y17.3417
G01 X9.3882 Y17.3244
G01 X9.3525 Y17.3041
G01 X9.3200 Y17.2835
G01 X9.2875 Y17.2606
G01 X9.2561 Y17.2361
G01 X9.2260 Y17.2102
G01 X9.1972 Y17.1828
G01 X9.1698 Y17.1540
G01 X9.1439 Y17.1239
G01 X9.1201 Y17.0935
G01 X9.0958 Y17.0590
G01 X9.0752 Y17.0264
G01 X9.0551 Y16.9907
G01 X9.0378 Y16.9563
G01 X9.0217 Y16.9200
G01 X9.0073 Y16.8829
G01 X8.9949 Y16.8451
G01 X8.9843 Y16.8068
G01 X8.9756 Y16.7680
G01 X8.9688 Y16.7289
G01 X8.9640 Y16.6906
G01 X8.9609 Y16.6485
G01 X8.9600 Y16.6100
G01 X8.9611 Y16.5690
G01 X8.9639 Y16.5306
G01 X8.9688 Y16.4911
G01 X8.9756 Y16.4520
G01 X8.9846 Y16.4120
G01 X8.9949 Y16.3749
G01 X9.0073 Y16.3371
G01 X9.0217 Y16.3000
G01 X9.0378 Y16.2637
G01 X9.0556 Y16.2282
G01 X9.0752 Y16.1936
G01 X9.0965 Y16.1600
G01 X9.1187 Y16.1285
G01 X9.1439 Y16.0961
G01 X9.1690 Y16.0670
G01 X9.1981 Y16.0364
G01 X9.2260 Y16.0098
G01 X9.2561 Y15.9839
G01 X9.2875 Y15.9594
G01 X9.3200 Y15.9365
G01 X9.3536 Y15.9152
G01 X9.3882 Y15.8956
G01 X9.4237 Y15.8778
G01 X9.4600 Y15.8617
G01 X9.4971 Y15.8473
G01 X9.5349 Y15.8349
G01 X9.5732 Y15.8243
G01 X9.6108 Y15.8158
G01 X9.6511 Y15.8088
G01 X9.6906 Y15.8039
G01 X9.7303 Y15.8010
G01 X9.7688 Y15.8000
G01 X9.8110 Y15.8011
G01 X9.8494 Y15.8039
G01 X9.8901 Y15.8090
G01 X9.9280 Y15.8156
G01 X9.9668 Y15.8243
G01 X10.0051 Y15.8349
G01 X10.0417 Y15.8470
G01 X10.0811 Y15.8621
G01 X10.1163 Y15.8778
G01 X10.1507 Y15.8951
G01 X10.1875 Y15.9159
G01 X10.2200 Y15.9365
G01 X10.2525 Y15.9594
G01 X10.2848 Y15.9847
G01 X10.3140 Y16.0098
G01 X10.3419 Y16.0364
G01 X10.3710 Y16.0670
G01 X10.3961 Y16.0961
G01 X10.4206 Y16.1275
G01 X10.4442 Y16.1610
G01 X10.4648 Y16.1936
G01 X10.4844 Y16.2282
G01 X10.5027 Y16.2648
G01 X10.5183 Y16.3000
G01 X10.5327 Y16.3371
G01 X10.5455 Y16.3760
G01 X10.5557 Y16.4132
G01 X10.5644 Y16.4520
G01 X10.5712 Y16.4911
G01 X10.5760 Y16.5294
G01 X10.5790 Y16.5703
G01 X10.5800 Y16.6094
G01 X10.5791 Y16.6485
G01 X10.5760 Y16.6906
G01 X10.5712 Y16.7289
G01 X10.5647 Y16.7668
G01 X10.5554 Y16.8080
G01 X10.5451 Y16.8451
G01 X10.5327 Y16.8829
G01 X10.5183 Y16.9200
G01 X10.5027 Y16.9552
G01 X10.4838 Y16.9929
G01 X10.4648 Y17.0264
G01 X10.4435 Y17.0600
G01 X10.4199 Y17.0935
G01 X10.3961 Y17.1239
G01 X10.3702 Y17.1540
G01 X10.3419 Y17.1836
G01 X10.3140 Y17.2102
G01 X10.2839 Y17.2361
G01 X10.2525 Y17.2606
G01 X10.2210 Y17.2828
G01 X10.1818 Y17.3074
G01 X11.9643 Y19.0899
G01 X16.3600 Y19.0899
G01 X16.3610 Y19.0802
G01 X16.3638 Y19.0709
G01 X16.3684 Y19.0622
G01 X16.3746 Y19.0546
G01 X16.3822 Y19.0484
G01 X16.3909 Y19.0438
G01 X16.4002 Y19.0410
G01 X16.4100 Y19.0400
G01 X18.4100 Y19.0400
G01 X18.4198 Y19.0410
G01 X18.4291 Y19.0438
G01 X18.4378 Y19.0484
G01 X18.4454 Y19.0546
G01 X18.4516 Y19.0622
G01 X18.4562 Y19.0709
G01 X18.4590 Y19.0802
G01 X18.4600 Y19.0899
G01 X19.8957 Y19.0899
G01 X21.6299 Y17.3557
G01 X21.6299 Y4.4900
G01 X21.0775 Y4.4899
G01 X21.0679 Y4.4885
G01 X21.0609 Y4.4862
G01 X21.0522 Y4.4816
G01 X21.0446 Y4.4754
G01 X21.0384 Y4.4678
G01 X21.0338 Y4.4591
G01 X21.0310 Y4.4498
G01 X21.0301 Y4.4425
G01 X21.0300 Y3.8901
G01 X14.9443 Y3.8901
G01 X12.6101 Y6.2243
G01 X12.6101 Y9.4500
G01 X13.0725 Y9.4501
G01 X13.0798 Y9.4510
G01 X13.0868 Y9.4529
G01 X13.0936 Y9.4559
G01 X13.0998 Y9.4598
G01 X13.1070 Y9.4664
G01 X13.1116 Y9.4722
G01 X13.1152 Y9.4786
G01 X13.1178 Y9.4855
G01 X13.1195 Y9.4927
G01 X13.1200 Y9.5000
G01 X13.1200 Y11.0200
G01 X13.1190 Y11.0298
G01 X13.1162 Y11.0391
G01 X13.1116 Y11.0478
G01 X13.1054 Y11.0554
G01 X13.0978 Y11.0616
G01 X13.0891 Y11.0662
G01 X13.0798 Y11.0690
G01 X13.0700 Y11.0700
G01 X11.5500 Y11.0700
G01 X11.5402 Y11.0690
G01 X11.5309 Y11.0662
G01 X11.5222 Y11.0616
G01 X11.5146 Y11.0554
G01 X11.5084 Y11.0478
G01 X11.5038 Y11.0391
G01 X11.5010 Y11.0298
G01 X11.5000 Y11.0200
G01 X11.5002 Y9.4951
G01 X11.5015 Y9.4879
G01 X11.5048 Y9.4786
G01 X11.5084 Y9.4722
G01 X11.5146 Y9.4646
G01 X11.5222 Y9.4584
G01 X11.5286 Y9.4548
G01 X11.5379 Y9.4515
G01 X11.5451 Y9.4502
G01 X12.0099 Y9.4500
G01 X12.0099 Y6.0994
G01 X12.0103 Y6.0840
G01 X12.0130 Y6.0572
G01 X12.0189 Y6.0271
G01 X12.0278 Y5.9977
G01 X12.0382 Y5.9728
G01 X12.0447 Y5.9596
G01 X12.0532 Y5.9447
G01 X12.0689 Y5.9212
G01 X12.0788 Y5.9087
G01 X12.0978 Y5.8878
G01 X14.6078 Y3.3778
G01 X14.6194 Y3.3668
G01 X14.6402 Y3.3497
G01 X14.6657 Y3.3326
G01 X14.6796 Y3.3247
G01 X14.7040 Y3.3132
G01 X14.7341 Y3.3025
G01 X14.7602 Y3.2959
G01 X14.7760 Y3.2931
G01 X14.7918 Y3.2912
G01 X14.8194 Y3.2899
G01 X21.0300 Y3.2899
G01 X21.0301 Y2.7375
G01 X21.0310 Y2.7302
G01 X21.0338 Y2.7209
G01 X21.0371 Y2.7143
G01 X21.0413 Y2.7083
G01 X21.0464 Y2.7030
G01 X21.0522 Y2.6984
G01 X21.0586 Y2.6948
G01 X21.0655 Y2.6922
G01 X21.0727 Y2.6905
G01 X21.0800 Y2.6900
G01 X22.7800 Y2.6900
G01 X22.7898 Y2.6910
G01 X22.7991 Y2.6938
G01 X22.8057 Y2.6971
G01 X22.8136 Y2.7030
G01 X22.8216 Y2.7122
G01 X22.8262 Y2.7209
G01 X22.8290 Y2.7302
G01 X22.8300 Y2.7400
G01 X22.8300 Y4.4400
G01 X22.8295 Y4.4473
G01 X22.8278 Y4.4545
G01 X22.8241 Y4.4636
G01 X22.8202 Y4.4698
G01 X22.8154 Y4.4754
G01 X22.8098 Y4.4802
G01 X22.8036 Y4.4841
G01 X22.7968 Y4.4871
G01 X22.7898 Y4.4890
G01 X22.7825 Y4.4899
G01 X22.2301 Y4.4900
G01 X22.2301 Y17.4800
G01 X22.2287 Y17.5094
G01 X22.2246 Y17.5373
G01 X22.2175 Y17.5659
G01 X22.2122 Y17.5823
G01 X22.2013 Y17.6083
G01 X22.1874 Y17.6343
G01 X22.1711 Y17.6588
G01 X22.1524 Y17.6816
G01 X20.2318 Y19.6027
G01 X20.2113 Y19.6212
G01 X20.1988 Y19.6311
G01 X20.1857 Y19.6402
G01 X20.1615 Y19.6547
G01 X20.1472 Y19.6618
G01 X20.1211 Y19.6726
G01 X20.1059 Y19.6775
G01 X20.0786 Y19.6844
G01 X20.0494 Y19.6887
G01 X20.0200 Y19.6901
G01 X18.4600 Y19.6901
G01 X18.4590 Y19.6998
G01 X18.4562 Y19.7091
G01 X18.4516 Y19.7178
G01 X18.4454 Y19.7254
G01 X18.4378 Y19.7316
G01 X18.4291 Y19.7362
G01 X18.4198 Y19.7390
G01 X18.4100 Y19.7400
G01 X16.4100 Y19.7400
G01 X16.4002 Y19.7390
G01 X16.3909 Y19.7362
G01 X16.3822 Y19.7316
G01 X16.3746 Y19.7254
G01 X16.3684 Y19.7178
G01 X16.3638 Y19.7091
G01 X16.3610 Y19.6998
G01 X16.3600 Y19.6901
G01 X11.8265 Y19.6898
G01 X11.7972 Y19.6870
G01 X11.7802 Y19.6841
G01 X11.7529 Y19.6772
G01 X11.7240 Y19.6668
G01 X11.6985 Y19.6547
G01 X11.6733 Y19.6395
G01 X11.6496 Y19.6220
G01 X11.6278 Y19.6022
G01 X9.5569 Y17.5313
G01 X9.5388 Y17.5113
G01 X9.5282 Y17.4978
G01 X9.5126 Y17.4743
G01 X9.4992 Y17.4494
G01 X9.4923 Y17.4337
G01 X9.4828 Y17.4071
G01 X9.4759 Y17.3798
G01 X9.4730 Y17.3634
G00 Z1.9990
G00 X11.4296 Y19.8474
G01 F80.00
G01 Z-2.4003
G01 F80.00
G01 X11.4014 Y19.8286
G01 X11.3748 Y19.7893
G01 X11.3641 Y19.7758
G01 X11.3482 Y19.7585
G01 X9.4015 Y17.8118
G01 X9.3889 Y17.8000
G01 X9.3707 Y17.7852
G01 X9.3314 Y17.7586
G01 X9.2617 Y17.6546
G01 X9.2489 Y17.6381
G01 X9.2330 Y17.6208
G01 X9.2129 Y17.6026
G01 X9.1880 Y17.5844
G01 X9.1645 Y17.5708
G01 X9.1365 Y17.5581
G01 X8.8219 Y17.2435
G01 X8.6517 Y16.8324
G01 X8.6517 Y16.3876
G01 X8.8219 Y15.9765
G01 X9.1365 Y15.6619
G01 X9.2966 Y15.5956
G01 X9.3179 Y15.5857
G01 X9.3361 Y15.5754
G01 X9.3556 Y15.5622
G01 X9.3691 Y15.5515
G01 X9.3864 Y15.5356
G01 X9.4046 Y15.5155
G01 X9.4208 Y15.4937
G01 X9.4347 Y15.4704
G01 X9.4464 Y15.4459
G01 X9.4555 Y15.4203
G01 X9.4621 Y15.3940
G01 X9.4661 Y15.3671
G01 X9.4674 Y15.3400
G01 X9.4661 Y15.3129
G01 X9.4621 Y15.2860
G01 X9.4555 Y15.2597
G01 X9.4464 Y15.2341
G01 X9.4347 Y15.2096
G01 X9.4208 Y15.1863
G01 X9.4046 Y15.1645
G01 X9.3864 Y15.1444
G01 X9.3691 Y15.1285
G01 X9.3556 Y15.1178
G01 X9.3361 Y15.1046
G01 X9.3179 Y15.0943
G01 X9.2966 Y15.0844
G01 X9.1365 Y15.0181
G01 X8.8219 Y14.7035
G01 X8.6517 Y14.2924
G01 X8.6517 Y13.8476
G01 X8.8219 Y13.4365
G01 X9.1365 Y13.1219
G01 X9.2966 Y13.0556
G01 X9.3179 Y13.0457
G01 X9.3361 Y13.0354
G01 X9.3556 Y13.0222
G01 X9.3691 Y13.0115
G01 X9.3864 Y12.9956
G01 X9.4046 Y12.9755
G01 X9.4208 Y12.9537
G01 X9.4347 Y12.9304
G01 X9.4464 Y12.9059
G01 X9.4555 Y12.8803
G01 X9.4621 Y12.8540
G01 X9.4661 Y12.8271
G01 X9.4674 Y12.8000
G01 X9.4661 Y12.7729
G01 X9.4621 Y12.7460
G01 X9.4555 Y12.7197
G01 X9.4464 Y12.6941
G01 X9.4347 Y12.6696
G01 X9.4208 Y12.6463
G01 X9.4046 Y12.6245
G01 X9.3864 Y12.6044
G01 X9.3691 Y12.5885
G01 X9.3556 Y12.5778
G01 X9.3361 Y12.5646
G01 X9.3179 Y12.5543
G01 X9.2966 Y12.5444
G01 X9.1365 Y12.4781
G01 X8.8219 Y12.1635
G01 X8.6517 Y11.7524
G01 X8.6517 Y11.3076
G01 X8.8219 Y10.8965
G01 X9.1365 Y10.5819
G01 X9.5476 Y10.4117
G01 X9.9924 Y10.4117
G01 X10.4035 Y10.5819
G01 X10.7069 Y10.8854
G01 X10.7195 Y10.8972
G01 X10.7458 Y10.9177
G01 X10.7721 Y10.9337
G01 X10.7876 Y10.9414
G01 X10.8059 Y10.9490
G01 X10.8353 Y10.9581
G01 X10.8583 Y10.9628
G01 X10.8791 Y10.9654
G01 X10.9026 Y10.9664
G01 X10.9260 Y10.9654
G01 X10.9468 Y10.9628
G01 X10.9698 Y10.9581
G01 X10.9923 Y10.9514
G01 X11.0084 Y10.9453
G01 X11.0297 Y10.9354
G01 X11.0479 Y10.9251
G01 X11.0674 Y10.9120
G01 X11.0856 Y10.8972
G01 X11.1008 Y10.8827
G01 X11.1164 Y10.8653
G01 X11.1305 Y10.8465
G01 X11.1417 Y10.8288
G01 X11.1567 Y10.7990
G01 X11.1673 Y10.7700
G01 X11.1718 Y10.7534
G01 X11.1757 Y10.7340
G01 X11.1789 Y10.7033
G01 X11.1792 Y9.5272
G01 X11.2125 Y9.3602
G01 X11.2917 Y9.2417
G01 X11.4102 Y9.1625
G01 X11.4922 Y9.1458
G01 X11.5088 Y9.1411
G01 X11.5275 Y9.1344
G01 X11.5522 Y9.1231
G01 X11.5704 Y9.1128
G01 X11.5898 Y9.0997
G01 X11.6108 Y9.0824
G01 X11.6275 Y9.0659
G01 X11.6412 Y9.0501
G01 X11.6550 Y9.0311
G01 X11.6690 Y9.0078
G01 X11.6792 Y8.9867
G01 X11.6867 Y8.9672
G01 X11.6934 Y8.9447
G01 X11.6987 Y8.9180
G01 X11.7007 Y8.9009
G01 X11.7017 Y8.8774
G01 X11.7017 Y6.1872
G01 X11.7007 Y6.1637
G01 X11.6987 Y6.1466
G01 X11.6898 Y6.1000
G01 X11.7370 Y5.8626
G01 X11.8714 Y5.6614
G01 X11.9107 Y5.6348
G01 X11.9289 Y5.6200
G01 X11.9415 Y5.6082
G01 X14.3282 Y3.2215
G01 X14.3441 Y3.2042
G01 X14.3548 Y3.1907
G01 X14.3814 Y3.1514
G01 X14.5826 Y3.0170
G01 X14.8200 Y2.9698
G01 X14.8666 Y2.9787
G01 X14.8899 Y2.9811
G01 X14.9072 Y2.9817
G01 X20.4395 Y2.9817
G01 X20.4666 Y2.9803
G01 X20.4935 Y2.9764
G01 X20.5233 Y2.9687
G01 X20.5545 Y2.9566
G01 X20.5786 Y2.9442
G01 X20.6043 Y2.9272
G01 X20.6253 Y2.9100
G01 X20.6445 Y2.8908
G01 X20.6639 Y2.8668
G01 X20.6768 Y2.8472
G01 X20.6880 Y2.8266
G01 X20.6965 Y2.8075
G01 X20.7043 Y2.7853
G01 X20.7105 Y2.7608
G01 X20.7425 Y2.6002
G01 X20.8217 Y2.4817
G01 X20.9402 Y2.4025
G01 X21.1072 Y2.3692
G01 X22.7528 Y2.3692
G01 X22.9198 Y2.4025
G01 X23.0383 Y2.4817
G01 X23.1175 Y2.6002
G01 X23.1313 Y2.6665
G01 X23.1383 Y2.6890
G01 X23.1471 Y2.7107
G01 X23.1596 Y2.7349
G01 X23.1709 Y2.7526
G01 X23.1873 Y2.7742
G01 X23.2059 Y2.7941
G01 X23.2263 Y2.8120
G01 X23.2483 Y2.8279
G01 X23.2719 Y2.8416
G01 X23.3024 Y2.8551
G01 X23.3319 Y2.8642
G01 X23.3586 Y2.8695
G01 X23.3856 Y2.8721
G01 X23.4128 Y2.8720
G01 X23.4300 Y2.8706
G01 X23.4533 Y2.8670
G01 X23.4761 Y2.8613
G01 X23.4925 Y2.8560
G01 X23.5143 Y2.8471
G01 X23.5298 Y2.8394
G01 X23.5447 Y2.8307
G01 X23.5612 Y2.8197
G01 X23.5851 Y2.8002
G01 X23.8537 Y2.5554
G01 X24.0663 Y2.4674
G01 X24.0663 Y2.6758
G01 X24.0426 Y2.6864
G01 X23.9988 Y2.7084
G01 X23.9561 Y2.7326
G01 X23.9177 Y2.7569
G01 X23.8716 Y2.7893
G01 X23.8359 Y2.8173
G01 X23.7987 Y2.8493
G01 X23.7632 Y2.8832
G01 X23.7318 Y2.9160
G01 X23.6950 Y2.9587
G01 X23.6671 Y2.9945
G01 X23.6389 Y3.0346
G01 X23.6126 Y3.0761
G01 X23.5884 Y3.1188
G01 X23.5664 Y3.1626
G01 X23.5451 Y3.2109
G01 X23.5288 Y3.2532
G01 X23.5145 Y3.2963
G01 X23.5003 Y3.3471
G01 X23.4896 Y3.3950
G01 X23.4807 Y3.4470
G01 X23.4752 Y3.4920
G01 X23.4718 Y3.5373
G01 X23.4704 Y3.5900
G01 X23.4718 Y3.6427
G01 X23.4752 Y3.6880
G01 X23.4807 Y3.7330
G01 X23.4896 Y3.7850
G01 X23.5003 Y3.8329
G01 X23.5145 Y3.8837
G01 X23.5288 Y3.9268
G01 X23.5451 Y3.9691
G01 X23.5664 Y4.0174
G01 X23.5884 Y4.0612
G01 X23.6126 Y4.1039
G01 X23.6389 Y4.1454
G01 X23.6671 Y4.1855
G01 X23.6950 Y4.2213
G01 X23.7318 Y4.2640
G01 X23.7632 Y4.2968
G01 X23.7987 Y4.3307
G01 X23.8359 Y4.3627
G01 X23.8716 Y4.3907
G01 X23.9177 Y4.4231
G01 X23.9561 Y4.4474
G01 X23.9988 Y4.4716
G01 X24.0426 Y4.4936
G01 X24.0663 Y4.5042
G01 X24.0663 Y4.7126
G01 X23.8537 Y4.6246
G01 X23.5824 Y4.3774
G01 X23.5561 Y4.3567
G01 X23.5298 Y4.3406
G01 X23.5052 Y4.3289
G01 X23.4831 Y4.3208
G01 X23.4569 Y4.3138
G01 X23.4362 Y4.3102
G01 X23.4128 Y4.3080
G01 X23.3856 Y4.3079
G01 X23.3586 Y4.3105
G01 X23.3355 Y4.3150
G01 X23.3153 Y4.3205
G01 X23.2932 Y4.3285
G01 X23.2686 Y4.3401
G01 X23.2483 Y4.3521
G01 X23.2312 Y4.3641
G01 X23.2131 Y4.3791
G01 X23.1939 Y4.3983
G01 X23.1788 Y4.4164
G01 X23.1688 Y4.4305
G01 X23.1566 Y4.4506
G01 X23.1487 Y4.4659
G01 X23.1395 Y4.4876
G01 X23.1304 Y4.5170
G01 X23.1175 Y4.5798
G01 X23.0383 Y4.6983
G01 X22.9198 Y4.7775
G01 X22.7592 Y4.8095
G01 X22.7347 Y4.8157
G01 X22.7125 Y4.8235
G01 X22.6934 Y4.8320
G01 X22.6728 Y4.8432
G01 X22.6532 Y4.8561
G01 X22.6292 Y4.8755
G01 X22.6100 Y4.8947
G01 X22.5928 Y4.9157
G01 X22.5758 Y4.9414
G01 X22.5634 Y4.9655
G01 X22.5513 Y4.9967
G01 X22.5436 Y5.0265
G01 X22.5397 Y5.0534
G01 X22.5383 Y5.0805
G01 X22.5383 Y17.3928
G01 X22.5393 Y17.4163
G01 X22.5413 Y17.4334
G01 X22.5502 Y17.4800
G01 X22.5030 Y17.7174
G01 X22.3686 Y17.9186
G01 X22.3293 Y17.9452
G01 X22.3158 Y17.9559
G01 X22.2985 Y17.9718
G01 X20.5118 Y19.7585
G01 X20.4959 Y19.7758
G01 X20.4852 Y19.7893
G01 X20.4586 Y19.8286
G01 X20.2574 Y19.9630
G01 X20.0200 Y20.0102
G01 X19.9734 Y20.0013
G01 X19.9563 Y19.9993
G01 X19.9347 Y19.9983
G01 X18.6756 Y19.9983
G01 X18.6503 Y19.9997
G01 X18.6199 Y20.0044
G01 X18.5877 Y20.0133
G01 X18.5716 Y20.0194
G01 X18.5564 Y20.0262
G01 X18.3828 Y20.0608
G01 X16.4372 Y20.0608
G01 X16.2636 Y20.0262
G01 X16.2484 Y20.0194
G01 X16.2323 Y20.0133
G01 X16.2001 Y20.0044
G01 X16.1697 Y19.9997
G01 X16.1444 Y19.9983
G01 X11.9272 Y19.9983
G01 X11.9037 Y19.9993
G01 X11.8866 Y20.0013
G01 X11.8400 Y20.0102
G01 X11.6026 Y19.9630
G01 X11.4296 Y19.8474
G00 Z1.9990
G00 X11.3743 Y19.9302
G01 F80.00
G01 Z-2.4003
G01 F80.00
G01 X11.3296 Y19.9004
G01 X11.2948 Y19.8487
G01 X11.2778 Y19.8290
G01 X9.3310 Y17.8822
G01 X9.3113 Y17.8652
G01 X9.2596 Y17.8304
G01 X9.1839 Y17.7171
G01 X9.1742 Y17.7041
G01 X9.1625 Y17.6913
G01 X9.1438 Y17.6750
G01 X9.1284 Y17.6646
G01 X9.1119 Y17.6559
G01 X9.0801 Y17.6425
G01 X8.7375 Y17.2999
G01 X8.5521 Y16.8523
G01 X8.5521 Y16.3677
G01 X8.7375 Y15.9201
G01 X9.0801 Y15.5775
G01 X9.2664 Y15.5001
G01 X9.2891 Y15.4872
G01 X9.3096 Y15.4712
G01 X9.3219 Y15.4589
G01 X9.3337 Y15.4445
G01 X9.3432 Y15.4300
G01 X9.3538 Y15.4089
G01 X9.3602 Y15.3914
G01 X9.3644 Y15.3745
G01 X9.3670 Y15.3574
G01 X9.3678 Y15.3400
G01 X9.3670 Y15.3226
G01 X9.3644 Y15.3055
G01 X9.3602 Y15.2886
G01 X9.3538 Y15.2711
G01 X9.3432 Y15.2500
G01 X9.3337 Y15.2355
G01 X9.3219 Y15.2211
G01 X9.3096 Y15.2088
G01 X9.2891 Y15.1928
G01 X9.2664 Y15.1799
G01 X9.0801 Y15.1025
G01 X8.7375 Y14.7599
G01 X8.5521 Y14.3123
G01 X8.5521 Y13.8277
G01 X8.7375 Y13.3801
G01 X9.0801 Y13.0375
G01 X9.2664 Y12.9601
G01 X9.2891 Y12.9472
G01 X9.3096 Y12.9312
G01 X9.3219 Y12.9189
G01 X9.3337 Y12.9045
G01 X9.3432 Y12.8900
G01 X9.3538 Y12.8689
G01 X9.3602 Y12.8514
G01 X9.3644 Y12.8345
G01 X9.3670 Y12.8174
G01 X9.3678 Y12.8000
G01 X9.3670 Y12.7826
G01 X9.3644 Y12.7655
G01 X9.3602 Y12.7486
G01 X9.3538 Y12.7311
G01 X9.3432 Y12.7100
G01 X9.3337 Y12.6955
G01 X9.3219 Y12.6811
G01 X9.3096 Y12.6688
G01 X9.2891 Y12.6528
G01 X9.2664 Y12.6399
G01 X9.0801 Y12.5625
G01 X8.7375 Y12.2199
G01 X8.5521 Y11.7723
G01 X8.5521 Y11.2877
G01 X8.7375 Y10.8401
G01 X9.0801 Y10.4975
G01 X9.5277 Y10.3121
G01 X10.0123 Y10.3121
G01 X10.4599 Y10.4975
G01 X10.7782 Y10.8158
G01 X10.7902 Y10.8266
G01 X10.8032 Y10.8363
G01 X10.8126 Y10.8422
G01 X10.8280 Y10.8503
G01 X10.8429 Y10.8564
G01 X10.8595 Y10.8615
G01 X10.8766 Y10.8649
G01 X10.8926 Y10.8665
G01 X10.9038 Y10.8668
G01 X10.9211 Y10.8658
G01 X10.9371 Y10.8634
G01 X10.9540 Y10.8592
G01 X10.9703 Y10.8533
G01 X10.9860 Y10.8459
G01 X11.0009 Y10.8370
G01 X11.0139 Y10.8274
G01 X11.0269 Y10.8158
G01 X11.0346 Y10.8077
G01 X11.0448 Y10.7952
G01 X11.0551 Y10.7797
G01 X11.0661 Y10.7575
G01 X11.0740 Y10.7339
G01 X11.0779 Y10.7145
G01 X11.0796 Y10.6910
G01 X11.0796 Y9.5174
G01 X11.1186 Y9.3213
G01 X11.2198 Y9.1698
G01 X11.3713 Y9.0686
G01 X11.4601 Y9.0510
G01 X11.4764 Y9.0469
G01 X11.5007 Y9.0375
G01 X11.5150 Y9.0299
G01 X11.5244 Y9.0240
G01 X11.5373 Y9.0143
G01 X11.5511 Y9.0017
G01 X11.5665 Y8.9839
G01 X11.5762 Y8.9695
G01 X11.5851 Y8.9531
G01 X11.5917 Y8.9371
G01 X11.5968 Y8.9204
G01 X11.6001 Y8.9034
G01 X11.6021 Y8.8774
G01 X11.6021 Y6.1872
G01 X11.6001 Y6.1612
G01 X11.5882 Y6.1000
G01 X11.6431 Y5.8238
G01 X11.7996 Y5.5896
G01 X11.8513 Y5.5548
G01 X11.8710 Y5.5378
G01 X14.2578 Y3.1510
G01 X14.2748 Y3.1313
G01 X14.3096 Y3.0796
G01 X14.5438 Y2.9231
G01 X14.8200 Y2.8682
G01 X14.8812 Y2.8801
G01 X14.9072 Y2.8821
G01 X20.4395 Y2.8821
G01 X20.4569 Y2.8812
G01 X20.4753 Y2.8784
G01 X20.4980 Y2.8721
G01 X20.5152 Y2.8651
G01 X20.5316 Y2.8562
G01 X20.5509 Y2.8426
G01 X20.5647 Y2.8302
G01 X20.5772 Y2.8164
G01 X20.5908 Y2.7971
G01 X20.5962 Y2.7874
G01 X20.6031 Y2.7728
G01 X20.6113 Y2.7480
G01 X20.6486 Y2.5613
G01 X20.7498 Y2.4098
G01 X20.9013 Y2.3086
G01 X21.0974 Y2.2696
G01 X22.7626 Y2.2696
G01 X22.9587 Y2.3086
G01 X23.1102 Y2.4098
G01 X23.2114 Y2.5613
G01 X23.2267 Y2.6375
G01 X23.2347 Y2.6624
G01 X23.2426 Y2.6792
G01 X23.2516 Y2.6942
G01 X23.2619 Y2.7081
G01 X23.2728 Y2.7201
G01 X23.2865 Y2.7327
G01 X23.3005 Y2.7430
G01 X23.3155 Y2.7520
G01 X23.3323 Y2.7598
G01 X23.3548 Y2.7672
G01 X23.3718 Y2.7707
G01 X23.3904 Y2.7726
G01 X23.4078 Y2.7725
G01 X23.4336 Y2.7693
G01 X23.4588 Y2.7623
G01 X23.4826 Y2.7517
G01 X23.4965 Y2.7434
G01 X23.5056 Y2.7369
G01 X23.5180 Y2.7266
G01 X23.7994 Y2.4701
G01 X24.1040 Y2.3439
G01 X24.1659 Y2.3766
G01 X24.1659 Y2.7429
G01 X24.1256 Y2.7585
G01 X24.0863 Y2.7759
G01 X24.0457 Y2.7963
G01 X24.0073 Y2.8180
G01 X23.9710 Y2.8410
G01 X23.9329 Y2.8679
G01 X23.8990 Y2.8943
G01 X23.8665 Y2.9223
G01 X23.8327 Y2.9545
G01 X23.8031 Y2.9856
G01 X23.7743 Y3.0190
G01 X23.7471 Y3.0539
G01 X23.7224 Y3.0890
G01 X23.6974 Y3.1284
G01 X23.6763 Y3.1657
G01 X23.6564 Y3.2052
G01 X23.6385 Y3.2456
G01 X23.6230 Y3.2856
G01 X23.6088 Y3.3287
G01 X23.5970 Y3.3713
G01 X23.5875 Y3.4132
G01 X23.5797 Y3.4579
G01 X23.5743 Y3.5018
G01 X23.5712 Y3.5446
G01 X23.5700 Y3.5900
G01 X23.5712 Y3.6354
G01 X23.5743 Y3.6782
G01 X23.5797 Y3.7221
G01 X23.5875 Y3.7668
G01 X23.5970 Y3.8087
G01 X23.6088 Y3.8513
G01 X23.6230 Y3.8944
G01 X23.6385 Y3.9344
G01 X23.6564 Y3.9748
G01 X23.6763 Y4.0143
G01 X23.6974 Y4.0516
G01 X23.7224 Y4.0910
G01 X23.7471 Y4.1261
G01 X23.7735 Y4.1600
G01 X23.8040 Y4.1953
G01 X23.8336 Y4.2264
G01 X23.8656 Y4.2569
G01 X23.8990 Y4.2857
G01 X23.9329 Y4.3121
G01 X23.9710 Y4.3390
G01 X24.0073 Y4.3620
G01 X24.0457 Y4.3837
G01 X24.0863 Y4.4041
G01 X24.1256 Y4.4215
G01 X24.1659 Y4.4371
G01 X24.1659 Y4.8034
G01 X24.1040 Y4.8361
G01 X23.7994 Y4.7099
G01 X23.5180 Y4.4534
G01 X23.4985 Y4.4380
G01 X23.4826 Y4.4283
G01 X23.4669 Y4.4209
G01 X23.4505 Y4.4150
G01 X23.4348 Y4.4110
G01 X23.4164 Y4.4081
G01 X23.4003 Y4.4072
G01 X23.3891 Y4.4075
G01 X23.3718 Y4.4093
G01 X23.3560 Y4.4125
G01 X23.3393 Y4.4175
G01 X23.3232 Y4.4241
G01 X23.3079 Y4.4323
G01 X23.2934 Y4.4420
G01 X23.2799 Y4.4530
G01 X23.2676 Y4.4653
G01 X23.2566 Y4.4787
G01 X23.2476 Y4.4921
G01 X23.2420 Y4.5019
G01 X23.2352 Y4.5165
G01 X23.2297 Y4.5317
G01 X23.2252 Y4.5491
G01 X23.2114 Y4.6187
G01 X23.1102 Y4.7702
G01 X22.9587 Y4.8714
G01 X22.7720 Y4.9087
G01 X22.7472 Y4.9169
G01 X22.7326 Y4.9238
G01 X22.7229 Y4.9292
G01 X22.7036 Y4.9428
G01 X22.6898 Y4.9553
G01 X22.6774 Y4.9691
G01 X22.6638 Y4.9884
G01 X22.6549 Y5.0048
G01 X22.6479 Y5.0220
G01 X22.6416 Y5.0447
G01 X22.6388 Y5.0631
G01 X22.6379 Y5.0805
G01 X22.6379 Y17.3928
G01 X22.6399 Y17.4188
G01 X22.6518 Y17.4800
G01 X22.5969 Y17.7562
G01 X22.4404 Y17.9904
G01 X22.3887 Y18.0252
G01 X22.3690 Y18.0422
G01 X20.5822 Y19.8289
G01 X20.5652 Y19.8487
G01 X20.5304 Y19.9004
G01 X20.2962 Y20.0569
G01 X20.0200 Y20.1118
G01 X19.9588 Y20.0999
G01 X19.9335 Y20.0979
G01 X18.6768 Y20.0979
G01 X18.6527 Y20.0997
G01 X18.6332 Y20.1036
G01 X18.6097 Y20.1114
G01 X18.5900 Y20.1211
G01 X18.3926 Y20.1604
G01 X16.4274 Y20.1604
G01 X16.2300 Y20.1211
G01 X16.2103 Y20.1114
G01 X16.1868 Y20.1036
G01 X16.1673 Y20.0997
G01 X16.1432 Y20.0979
G01 X11.9272 Y20.0979
G01 X11.9012 Y20.0999
G01 X11.8400 Y20.1118
G01 X11.5638 Y20.0569
G01 X11.3743 Y19.9302
G00 Z1.9990
G00 X13.1770 Y15.6147
G01 F80.00
G01 Z-2.4003
G01 F80.00
G01 X13.1664 Y15.6464
G01 X13.1504 Y15.6881
G01 X13.1323 Y15.7289
G01 X13.1122 Y15.7688
G01 X13.0902 Y15.8076
G01 X13.0663 Y15.8454
G01 X13.0406 Y15.8819
G01 X13.0131 Y15.9171
G01 X12.9840 Y15.9509
G01 X12.9532 Y15.9832
G01 X12.9209 Y16.0140
G01 X12.8871 Y16.0431
G01 X12.8519 Y16.0706
G01 X12.8154 Y16.0963
G01 X12.7776 Y16.1202
G01 X12.7388 Y16.1422
G01 X12.6989 Y16.1623
G01 X12.6581 Y16.1804
G01 X12.6164 Y16.1964
G01 X12.5740 Y16.2104
G01 X12.5310 Y16.2224
G01 X12.4875 Y16.2321
G01 X12.4435 Y16.2398
G01 X12.3992 Y16.2452
G01 X12.3546 Y16.2485
G01 X12.3100 Y16.2496
G01 X12.2654 Y16.2485
G01 X12.2208 Y16.2452
G01 X12.1765 Y16.2398
G01 X12.1325 Y16.2321
G01 X12.0890 Y16.2224
G01 X12.0460 Y16.2104
G01 X12.0036 Y16.1964
G01 X11.9619 Y16.1804
G01 X11.9211 Y16.1623
G01 X11.8812 Y16.1422
G01 X11.8424 Y16.1202
G01 X11.8046 Y16.0963
G01 X11.7681 Y16.0706
G01 X11.7329 Y16.0431
G01 X11.6991 Y16.0140
G01 X11.6668 Y15.9832
G01 X11.6360 Y15.9509
G01 X11.6069 Y15.9171
G01 X11.5794 Y15.8819
G01 X11.5537 Y15.8454
G01 X11.5298 Y15.8076
G01 X11.5078 Y15.7688
G01 X11.4877 Y15.7289
G01 X11.4696 Y15.6881
G01 X11.4536 Y15.6464
G01 X11.4396 Y15.6040
G01 X11.4276 Y15.5610
G01 X11.4179 Y15.5175
G01 X11.4102 Y15.4735
G01 X11.4048 Y15.4292
G01 X11.4015 Y15.3846
G01 X11.4004 Y15.3400
G01 X11.4015 Y15.2954
G01 X11.4048 Y15.2508
G01 X11.4102 Y15.2065
G01 X11.4179 Y15.1625
G01 X11.4276 Y15.1190
G01 X11.4396 Y15.0760
G01 X11.4536 Y15.0336
G01 X11.4683 Y14.9953
G01 X11.4893 Y14.9478
G01 X11.5078 Y14.9112
G01 X11.5298 Y14.8724
G01 X11.5537 Y14.8346
G01 X11.5772 Y14.8011
G01 X11.6092 Y14.7601
G01 X11.6360 Y14.7291
G01 X11.6668 Y14.6968
G01 X11.6991 Y14.6660
G01 X11.7301 Y14.6392
G01 X11.7681 Y14.6094
G01 X11.8046 Y14.5837
G01 X11.8392 Y14.5617
G01 X11.8845 Y14.5361
G01 X11.9211 Y14.5177
G01 X11.9619 Y14.4996
G01 X12.0036 Y14.4836
G01 X12.0425 Y14.4707
G01 X12.0926 Y14.4568
G01 X12.1325 Y14.4479
G01 X12.1765 Y14.4402
G01 X12.2208 Y14.4348
G01 X12.2617 Y14.4317
G01 X12.3100 Y14.4304
G01 X12.3583 Y14.4317
G01 X12.3992 Y14.4348
G01 X12.4398 Y14.4397
G01 X12.4875 Y14.4479
G01 X12.5346 Y14.4586
G01 X12.5740 Y14.4696
G01 X12.6130 Y14.4824
G01 X12.6581 Y14.4996
G01 X12.7022 Y14.5193
G01 X12.7388 Y14.5378
G01 X12.7745 Y14.5580
G01 X12.8154 Y14.5837
G01 X12.8489 Y14.6072
G01 X12.8899 Y14.6392
G01 X12.9209 Y14.6660
G01 X12.9532 Y14.6968
G01 X12.9840 Y14.7291
G01 X13.0154 Y14.7658
G01 X13.0406 Y14.7981
G01 X13.0663 Y14.8346
G01 X13.0902 Y14.8724
G01 X13.1122 Y14.9112
G01 X13.1323 Y14.9511
G01 X13.1504 Y14.9919
G01 X13.1664 Y15.0336
G01 X13.1770 Y15.0653
G01 X13.4162 Y15.0653
G01 X15.6371 Y12.8445
G01 X15.6586 Y12.8254
G01 X15.6857 Y12.8063
G01 X15.7126 Y12.7917
G01 X15.7409 Y12.7802
G01 X15.7633 Y12.7736
G01 X15.7800 Y12.7699
G01 X15.8031 Y12.7667
G01 X15.8202 Y12.7655
G01 X16.2604 Y12.7653
G01 X16.2611 Y12.7253
G01 X16.2633 Y12.7108
G01 X16.2668 Y12.6966
G01 X16.2718 Y12.6827
G01 X16.2781 Y12.6695
G01 X16.2856 Y12.6569
G01 X16.2944 Y12.6451
G01 X16.3042 Y12.6342
G01 X16.3209 Y12.6198
G01 X16.3331 Y12.6117
G01 X16.3460 Y12.6048
G01 X16.3596 Y12.5991
G01 X16.3736 Y12.5949
G01 X16.3880 Y12.5920
G01 X16.4027 Y12.5906
G01 X18.4173 Y12.5906
G01 X18.4392 Y12.5933
G01 X18.4534 Y12.5968
G01 X18.4673 Y12.6018
G01 X18.4869 Y12.6117
G01 X18.5049 Y12.6243
G01 X18.5209 Y12.6395
G01 X18.5344 Y12.6569
G01 X18.5419 Y12.6695
G01 X18.5482 Y12.6827
G01 X18.5551 Y12.7036
G01 X18.5580 Y12.7180
G01 X18.5594 Y12.7327
G01 X18.5596 Y13.3400
G01 X18.5589 Y13.3547
G01 X18.5551 Y13.3764
G01 X18.5482 Y13.3973
G01 X18.5419 Y13.4105
G01 X18.5344 Y13.4231
G01 X18.5209 Y13.4405
G01 X18.5049 Y13.4557
G01 X18.4869 Y13.4683
G01 X18.4673 Y13.4782
G01 X18.4464 Y13.4851
G01 X18.4320 Y13.4880
G01 X18.4100 Y13.4896
G01 X16.4027 Y13.4894
G01 X16.3880 Y13.4880
G01 X16.3736 Y13.4851
G01 X16.3527 Y13.4782
G01 X16.3395 Y13.4719
G01 X16.3269 Y13.4644
G01 X16.3151 Y13.4557
G01 X16.3042 Y13.4458
G01 X16.2944 Y13.4349
G01 X16.2856 Y13.4231
G01 X16.2781 Y13.4105
G01 X16.2718 Y13.3973
G01 X16.2668 Y13.3834
G01 X16.2633 Y13.3692
G01 X16.2611 Y13.3547
G01 X16.2604 Y13.3147
G01 X15.9438 Y13.3147
G01 X13.7242 Y15.5342
G01 X13.7043 Y15.5523
G01 X13.6856 Y15.5663
G01 X13.6712 Y15.5756
G01 X13.6562 Y15.5839
G01 X13.6351 Y15.5938
G01 X13.6191 Y15.5998
G01 X13.5967 Y15.6064
G01 X13.5800 Y15.6101
G01 X13.5606 Y15.6129
G01 X13.5300 Y15.6147
G01 X13.1770 Y15.6147
G00 Z1.9990
G00 X13.1006 Y15.5151
G01 F80.00
G01 Z-2.4003
G01 F80.00
G01 X13.0957 Y15.5368
G01 X13.0851 Y15.5751
G01 X13.0727 Y15.6129
G01 X13.0583 Y15.6500
G01 X13.0422 Y15.6863
G01 X13.0244 Y15.7218
G01 X13.0048 Y15.7564
G01 X12.9835 Y15.7900
G01 X12.9606 Y15.8225
G01 X12.9361 Y15.8539
G01 X12.9102 Y15.8840
G01 X12.8828 Y15.9128
G01 X12.8540 Y15.9402
G01 X12.8239 Y15.9661
G01 X12.7925 Y15.9906
G01 X12.7600 Y16.0135
G01 X12.7264 Y16.0348
G01 X12.6918 Y16.0544
G01 X12.6563 Y16.0722
G01 X12.6200 Y16.0883
G01 X12.5829 Y16.1027
G01 X12.5451 Y16.1151
G01 X12.5068 Y16.1257
G01 X12.4680 Y16.1344
G01 X12.4289 Y16.1412
G01 X12.3894 Y16.1461
G01 X12.3497 Y16.1490
G01 X12.3100 Y16.1500
G01 X12.2703 Y16.1490
G01 X12.2306 Y16.1461
G01 X12.1911 Y16.1412
G01 X12.1520 Y16.1344
G01 X12.1132 Y16.1257
G01 X12.0749 Y16.1151
G01 X12.0371 Y16.1027
G01 X12.0000 Y16.0883
G01 X11.9637 Y16.0722
G01 X11.9282 Y16.0544
G01 X11.8936 Y16.0348
G01 X11.8600 Y16.0135
G01 X11.8275 Y15.9906
G01 X11.7961 Y15.9661
G01 X11.7660 Y15.9402
G01 X11.7372 Y15.9128
G01 X11.7098 Y15.8840
G01 X11.6839 Y15.8539
G01 X11.6594 Y15.8225
G01 X11.6365 Y15.7900
G01 X11.6152 Y15.7564
G01 X11.5956 Y15.7218
G01 X11.5778 Y15.6863
G01 X11.5617 Y15.6500
G01 X11.5473 Y15.6129
G01 X11.5349 Y15.5751
G01 X11.5243 Y15.5368
G01 X11.5156 Y15.4980
G01 X11.5088 Y15.4589
G01 X11.5039 Y15.4194
G01 X11.5010 Y15.3797
G01 X11.5000 Y15.3400
G01 X11.5010 Y15.3003
G01 X11.5039 Y15.2606
G01 X11.5088 Y15.2211
G01 X11.5156 Y15.1820
G01 X11.5243 Y15.1432
G01 X11.5345 Y15.1060
G01 X11.5478 Y15.0660
G01 X11.5617 Y15.0300
G01 X11.5778 Y14.9937
G01 X11.5956 Y14.9582
G01 X11.6152 Y14.9236
G01 X11.6365 Y14.8900
G01 X11.6587 Y14.8585
G01 X11.6847 Y14.8252
G01 X11.7098 Y14.7960
G01 X11.7372 Y14.7672
G01 X11.7660 Y14.7398
G01 X11.7961 Y14.7139
G01 X11.8275 Y14.6894
G01 X11.8600 Y14.6665
G01 X11.8936 Y14.6452
G01 X11.9271 Y14.6262
G01 X11.9648 Y14.6073
G01 X12.0000 Y14.5917
G01 X12.0371 Y14.5773
G01 X12.0749 Y14.5649
G01 X12.1132 Y14.5543
G01 X12.1520 Y14.5456
G01 X12.1899 Y14.5390
G01 X12.2318 Y14.5338
G01 X12.2703 Y14.5310
G01 X12.3100 Y14.5300
G01 X12.3497 Y14.5310
G01 X12.3882 Y14.5338
G01 X12.4301 Y14.5390
G01 X12.4680 Y14.5456
G01 X12.5068 Y14.5543
G01 X12.5451 Y14.5649
G01 X12.5829 Y14.5773
G01 X12.6200 Y14.5917
G01 X12.6552 Y14.6073
G01 X12.6929 Y14.6262
G01 X12.7264 Y14.6452
G01 X12.7600 Y14.6665
G01 X12.7925 Y14.6894
G01 X12.8239 Y14.7139
G01 X12.8540 Y14.7398
G01 X12.8828 Y14.7672
G01 X12.9102 Y14.7960
G01 X12.9353 Y14.8252
G01 X12.9613 Y14.8585
G01 X12.9835 Y14.8900
G01 X13.0048 Y14.9236
G01 X13.0244 Y14.9582
G01 X13.0417 Y14.9926
G01 X13.0588 Y15.0312
G01 X13.0727 Y15.0671
G01 X13.0851 Y15.1049
G01 X13.0957 Y15.1432
G01 X13.1006 Y15.1649
G01 X13.4575 Y15.1649
G01 X15.7062 Y12.9162
G01 X15.7199 Y12.9039
G01 X15.7390 Y12.8905
G01 X15.7552 Y12.8817
G01 X15.7710 Y12.8752
G01 X15.7971 Y12.8681
G01 X15.8128 Y12.8658
G01 X15.8294 Y12.8649
G01 X16.3600 Y12.8649
G01 X16.3600 Y12.7400
G01 X16.3615 Y12.7279
G01 X16.3638 Y12.7209
G01 X16.3671 Y12.7143
G01 X16.3730 Y12.7064
G01 X16.3783 Y12.7013
G01 X16.3864 Y12.6959
G01 X16.3932 Y12.6929
G01 X16.4002 Y12.6910
G01 X16.4075 Y12.6901
G01 X18.4100 Y12.6900
G01 X18.4173 Y12.6905
G01 X18.4245 Y12.6922
G01 X18.4357 Y12.6971
G01 X18.4454 Y12.7046
G01 X18.4502 Y12.7102
G01 X18.4541 Y12.7164
G01 X18.4585 Y12.7279
G01 X18.4600 Y12.7400
G01 X18.4599 Y13.3425
G01 X18.4585 Y13.3521
G01 X18.4562 Y13.3591
G01 X18.4529 Y13.3657
G01 X18.4470 Y13.3736
G01 X18.4417 Y13.3787
G01 X18.4336 Y13.3841
G01 X18.4268 Y13.3871
G01 X18.4198 Y13.3890
G01 X18.4100 Y13.3900
G01 X16.4075 Y13.3899
G01 X16.4002 Y13.3890
G01 X16.3932 Y13.3871
G01 X16.3864 Y13.3841
G01 X16.3783 Y13.3787
G01 X16.3730 Y13.3736
G01 X16.3671 Y13.3657
G01 X16.3638 Y13.3591
G01 X16.3615 Y13.3521
G01 X16.3600 Y13.3400
G01 X16.3600 Y13.2151
G01 X15.9025 Y13.2151
G01 X13.6538 Y15.4638
G01 X13.6411 Y15.4753
G01 X13.6200 Y15.4902
G01 X13.5959 Y15.5022
G01 X13.5808 Y15.5075
G01 X13.5654 Y15.5114
G01 X13.5398 Y15.5148
G01 X13.1006 Y15.5151
G00 Z1.9990
G00 X13.0982 Y12.6142
G01 F80.00
G01 Z-2.4003
G01 F80.00
G01 X15.3362 Y10.3762
G01 X15.3489 Y10.3647
G01 X15.3617 Y10.3551
G01 X15.3764 Y10.3462
G01 X15.3863 Y10.3412
G01 X15.4080 Y10.3328
G01 X15.4246 Y10.3286
G01 X15.4428 Y10.3258
G01 X15.4594 Y10.3249
G01 X16.3600 Y10.3249
G01 X16.3600 Y10.2000
G01 X16.3615 Y10.1879
G01 X16.3638 Y10.1809
G01 X16.3671 Y10.1743
G01 X16.3730 Y10.1664
G01 X16.3783 Y10.1613
G01 X16.3864 Y10.1559
G01 X16.3932 Y10.1529
G01 X16.4002 Y10.1510
G01 X16.4075 Y10.1501
G01 X18.4100 Y10.1500
G01 X18.4173 Y10.1505
G01 X18.4245 Y10.1522
G01 X18.4314 Y10.1548
G01 X18.4378 Y10.1584
G01 X18.4470 Y10.1664
G01 X18.4516 Y10.1722
G01 X18.4552 Y10.1786
G01 X18.4590 Y10.1902
G01 X18.4600 Y10.2000
G01 X18.4599 Y10.8025
G01 X18.4585 Y10.8121
G01 X18.4562 Y10.8191
G01 X18.4529 Y10.8257
G01 X18.4470 Y10.8336
G01 X18.4417 Y10.8387
G01 X18.4336 Y10.8441
G01 X18.4268 Y10.8471
G01 X18.4173 Y10.8495
G01 X18.4100 Y10.8500
G01 X16.4075 Y10.8499
G01 X16.4002 Y10.8490
G01 X16.3932 Y10.8471
G01 X16.3864 Y10.8441
G01 X16.3783 Y10.8387
G01 X16.3730 Y10.8336
G01 X16.3671 Y10.8257
G01 X16.3638 Y10.8191
G01 X16.3615 Y10.8121
G01 X16.3600 Y10.8000
G01 X16.3600 Y10.6751
G01 X15.5325 Y10.6751
G01 X13.2785 Y12.9289
G01 X13.2633 Y12.9413
G01 X13.2425 Y12.9544
G01 X13.2201 Y12.9644
G01 X13.2025 Y12.9698
G01 X13.1857 Y12.9732
G01 X13.1686 Y12.9749
G01 X13.1006 Y12.9751
G01 X13.0957 Y12.9968
G01 X13.0855 Y13.0340
G01 X13.0730 Y13.0717
G01 X13.0583 Y13.1100
G01 X13.0422 Y13.1463
G01 X13.0244 Y13.1818
G01 X13.0041 Y13.2175
G01 X12.9835 Y13.2500
G01 X12.9613 Y13.2815
G01 X12.9361 Y13.3139
G01 X12.9093 Y13.3449
G01 X12.8828 Y13.3728
G01 X12.8549 Y13.3993
G01 X12.8239 Y13.4261
G01 X12.7925 Y13.4506
G01 X12.7600 Y13.4735
G01 X12.7254 Y13.4954
G01 X12.6918 Y13.5144
G01 X12.6574 Y13.5317
G01 X12.6200 Y13.5483
G01 X12.5829 Y13.5627
G01 X12.5451 Y13.5751
G01 X12.5068 Y13.5857
G01 X12.4668 Y13.5947
G01 X12.4276 Y13.6014
G01 X12.3894 Y13.6061
G01 X12.3510 Y13.6089
G01 X12.3100 Y13.6100
G01 X12.2715 Y13.6091
G01 X12.2306 Y13.6061
G01 X12.1911 Y13.6012
G01 X12.1520 Y13.5944
G01 X12.1132 Y13.5857
G01 X12.0749 Y13.5751
G01 X12.0371 Y13.5627
G01 X12.0000 Y13.5483
G01 X11.9626 Y13.5317
G01 X11.9282 Y13.5144
G01 X11.8925 Y13.4941
G01 X11.8590 Y13.4728
G01 X11.8275 Y13.4506
G01 X11.7971 Y13.4269
G01 X11.7660 Y13.4002
G01 X11.7372 Y13.3728
G01 X11.7098 Y13.3440
G01 X11.6839 Y13.3139
G01 X11.6594 Y13.2825
G01 X11.6358 Y13.2490
G01 X11.6152 Y13.2164
G01 X11.5962 Y13.1829
G01 X11.5783 Y13.1474
G01 X11.5617 Y13.1100
G01 X11.5473 Y13.0729
G01 X11.5349 Y13.0351
G01 X11.5243 Y12.9968
G01 X11.5156 Y12.9580
G01 X11.5088 Y12.9189
G01 X11.5039 Y12.8794
G01 X11.5010 Y12.8397
G01 X11.5000 Y12.8000
G01 X11.5010 Y12.7603
G01 X11.5039 Y12.7206
G01 X11.5088 Y12.6811
G01 X11.5156 Y12.6420
G01 X11.5243 Y12.6032
G01 X11.5349 Y12.5649
G01 X11.5473 Y12.5271
G01 X11.5617 Y12.4900
G01 X11.5778 Y12.4537
G01 X11.5956 Y12.4182
G01 X11.6152 Y12.3836
G01 X11.6365 Y12.3500
G01 X11.6594 Y12.3175
G01 X11.6839 Y12.2861
G01 X11.7098 Y12.2560
G01 X11.7372 Y12.2272
G01 X11.7660 Y12.1998
G01 X11.7961 Y12.1739
G01 X11.8275 Y12.1494
G01 X11.8600 Y12.1265
G01 X11.8936 Y12.1052
G01 X11.9282 Y12.0856
G01 X11.9637 Y12.0678
G01 X12.0000 Y12.0517
G01 X12.0371 Y12.0373
G01 X12.0749 Y12.0249
G01 X12.1132 Y12.0143
G01 X12.1520 Y12.0056
G01 X12.1911 Y11.9988
G01 X12.2306 Y11.9939
G01 X12.2703 Y11.9910
G01 X12.3100 Y11.9900
G01 X12.3497 Y11.9910
G01 X12.3894 Y11.9939
G01 X12.4289 Y11.9988
G01 X12.4680 Y12.0056
G01 X12.5068 Y12.0143
G01 X12.5451 Y12.0249
G01 X12.5829 Y12.0373
G01 X12.6200 Y12.0517
G01 X12.6563 Y12.0678
G01 X12.6918 Y12.0856
G01 X12.7264 Y12.1052
G01 X12.7600 Y12.1265
G01 X12.7925 Y12.1494
G01 X12.8239 Y12.1739
G01 X12.8540 Y12.1998
G01 X12.8828 Y12.2272
G01 X12.9102 Y12.2560
G01 X12.9361 Y12.2861
G01 X12.9606 Y12.3175
G01 X12.9835 Y12.3500
G01 X13.0048 Y12.3836
G01 X13.0244 Y12.4182
G01 X13.0422 Y12.4537
G01 X13.0583 Y12.4900
G01 X13.0727 Y12.5271
G01 X13.0851 Y12.5649
G01 X13.0982 Y12.6142
G00 Z1.9990
G00 X13.1410 Y12.4306
G01 F80.00
G01 Z-2.4003
G01 F80.00
G01 X15.2671 Y10.3045
G01 X15.2857 Y10.2877
G01 X15.3074 Y10.2716
G01 X15.3305 Y10.2578
G01 X15.3549 Y10.2462
G01 X15.3803 Y10.2372
G01 X15.4064 Y10.2306
G01 X15.4331 Y10.2267
G01 X15.4563 Y10.2254
G01 X16.2604 Y10.2253
G01 X16.2611 Y10.1853
G01 X16.2633 Y10.1708
G01 X16.2668 Y10.1566
G01 X16.2718 Y10.1427
G01 X16.2781 Y10.1295
G01 X16.2856 Y10.1169
G01 X16.2944 Y10.1051
G01 X16.3042 Y10.0942
G01 X16.3209 Y10.0798
G01 X16.3331 Y10.0717
G01 X16.3460 Y10.0648
G01 X16.3596 Y10.0591
G01 X16.3736 Y10.0549
G01 X16.3880 Y10.0520
G01 X16.4027 Y10.0506
G01 X18.4173 Y10.0506
G01 X18.4392 Y10.0533
G01 X18.4604 Y10.0591
G01 X18.4805 Y10.0681
G01 X18.4991 Y10.0798
G01 X18.5158 Y10.0942
G01 X18.5256 Y10.1051
G01 X18.5383 Y10.1231
G01 X18.5482 Y10.1427
G01 X18.5532 Y10.1566
G01 X18.5567 Y10.1708
G01 X18.5589 Y10.1853
G01 X18.5596 Y10.2000
G01 X18.5596 Y10.8000
G01 X18.5580 Y10.8220
G01 X18.5532 Y10.8434
G01 X18.5452 Y10.8640
G01 X18.5344 Y10.8831
G01 X18.5209 Y10.9005
G01 X18.5105 Y10.9109
G01 X18.4991 Y10.9202
G01 X18.4805 Y10.9319
G01 X18.4604 Y10.9409
G01 X18.4392 Y10.9467
G01 X18.4247 Y10.9489
G01 X18.4100 Y10.9496
G01 X16.4027 Y10.9494
G01 X16.3880 Y10.9480
G01 X16.3736 Y10.9451
G01 X16.3527 Y10.9382
G01 X16.3395 Y10.9319
G01 X16.3269 Y10.9244
G01 X16.3151 Y10.9157
G01 X16.3042 Y10.9058
G01 X16.2944 Y10.8949
G01 X16.2856 Y10.8831
G01 X16.2781 Y10.8705
G01 X16.2718 Y10.8573
G01 X16.2668 Y10.8434
G01 X16.2633 Y10.8292
G01 X16.2611 Y10.8147
G01 X16.2604 Y10.7747
G01 X15.5738 Y10.7747
G01 X13.3516 Y12.9968
G01 X13.3343 Y13.0123
G01 X13.3126 Y13.0284
G01 X13.2927 Y13.0405
G01 X13.2741 Y13.0498
G01 X13.2525 Y13.0586
G01 X13.2267 Y13.0664
G01 X13.2003 Y13.0717
G01 X13.1772 Y13.0741
G01 X13.1664 Y13.1064
G01 X13.1517 Y13.1447
G01 X13.1338 Y13.1856
G01 X13.1122 Y13.2288
G01 X13.0902 Y13.2676
G01 X13.0663 Y13.3054
G01 X13.0384 Y13.3448
G01 X13.0131 Y13.3771
G01 X12.9864 Y13.4081
G01 X12.9532 Y13.4432
G01 X12.9209 Y13.4740
G01 X12.8871 Y13.5031
G01 X12.8519 Y13.5306
G01 X12.8154 Y13.5563
G01 X12.7776 Y13.5802
G01 X12.7388 Y13.6022
G01 X12.6989 Y13.6223
G01 X12.6615 Y13.6389
G01 X12.6130 Y13.6576
G01 X12.5740 Y13.6704
G01 X12.5274 Y13.6832
G01 X12.4875 Y13.6921
G01 X12.4435 Y13.6998
G01 X12.3992 Y13.7052
G01 X12.3510 Y13.7086
G01 X12.3100 Y13.7096
G01 X12.2654 Y13.7085
G01 X12.2208 Y13.7052
G01 X12.1765 Y13.6998
G01 X12.1325 Y13.6921
G01 X12.0890 Y13.6824
G01 X12.0460 Y13.6704
G01 X12.0001 Y13.6552
G01 X11.9619 Y13.6404
G01 X11.9211 Y13.6223
G01 X11.8812 Y13.6022
G01 X11.8424 Y13.5802
G01 X11.8046 Y13.5563
G01 X11.7681 Y13.5306
G01 X11.7329 Y13.5031
G01 X11.6991 Y13.4740
G01 X11.6668 Y13.4432
G01 X11.6360 Y13.4109
G01 X11.6069 Y13.3771
G01 X11.5794 Y13.3419
G01 X11.5537 Y13.3054
G01 X11.5298 Y13.2676
G01 X11.5078 Y13.2288
G01 X11.4862 Y13.1856
G01 X11.4696 Y13.1481
G01 X11.4536 Y13.1064
G01 X11.4396 Y13.0640
G01 X11.4276 Y13.0210
G01 X11.4179 Y12.9775
G01 X11.4102 Y12.9335
G01 X11.4048 Y12.8892
G01 X11.4015 Y12.8446
G01 X11.4004 Y12.8000
G01 X11.4015 Y12.7554
G01 X11.4048 Y12.7108
G01 X11.4102 Y12.6665
G01 X11.4179 Y12.6225
G01 X11.4276 Y12.5790
G01 X11.4396 Y12.5360
G01 X11.4536 Y12.4936
G01 X11.4696 Y12.4519
G01 X11.4877 Y12.4111
G01 X11.5078 Y12.3712
G01 X11.5298 Y12.3324
G01 X11.5537 Y12.2946
G01 X11.5794 Y12.2581
G01 X11.6069 Y12.2229
G01 X11.6360 Y12.1891
G01 X11.6668 Y12.1568
G01 X11.6991 Y12.1260
G01 X11.7329 Y12.0969
G01 X11.7681 Y12.0694
G01 X11.8046 Y12.0437
G01 X11.8424 Y12.0198
G01 X11.8812 Y11.9978
G01 X11.9244 Y11.9762
G01 X11.9619 Y11.9596
G01 X12.0036 Y11.9436
G01 X12.0460 Y11.9296
G01 X12.0890 Y11.9176
G01 X12.1325 Y11.9079
G01 X12.1765 Y11.9002
G01 X12.2208 Y11.8948
G01 X12.2654 Y11.8915
G01 X12.3100 Y11.8904
G01 X12.3546 Y11.8915
G01 X12.3992 Y11.8948
G01 X12.4435 Y11.9002
G01 X12.4875 Y11.9079
G01 X12.5310 Y11.9176
G01 X12.5740 Y11.9296
G01 X12.6199 Y11.9448
G01 X12.6581 Y11.9596
G01 X12.6989 Y11.9777
G01 X12.7388 Y11.9978
G01 X12.7776 Y12.0198
G01 X12.8154 Y12.0437
G01 X12.8519 Y12.0694
G01 X12.8871 Y12.0969
G01 X12.9235 Y12.1285
G01 X12.9532 Y12.1568
G01 X12.9840 Y12.1891
G01 X13.0131 Y12.2229
G01 X13.0428 Y12.2611
G01 X13.0663 Y12.2946
G01 X13.0920 Y12.3355
G01 X13.1139 Y12.3745
G01 X13.1323 Y12.4111
G01 X13.1410 Y12.4306
G00 Z1.9990
G00 X10.6370 Y11.8047
G01 F80.00
G01 Z-2.4003
G01 F80.00
G01 X10.6264 Y11.8364
G01 X10.6104 Y11.8781
G01 X10.5923 Y11.9189
G01 X10.5722 Y11.9588
G01 X10.5502 Y11.9976
G01 X10.5263 Y12.0354
G01 X10.5006 Y12.0719
G01 X10.4731 Y12.1071
G01 X10.4440 Y12.1409
G01 X10.4132 Y12.1732
G01 X10.3809 Y12.2040
G01 X10.3471 Y12.2331
G01 X10.3119 Y12.2606
G01 X10.2754 Y12.2863
G01 X10.2376 Y12.3102
G01 X10.1988 Y12.3322
G01 X10.1589 Y12.3523
G01 X10.1181 Y12.3704
G01 X10.0764 Y12.3864
G01 X10.0340 Y12.4004
G01 X9.9910 Y12.4124
G01 X9.9475 Y12.4221
G01 X9.9035 Y12.4298
G01 X9.8592 Y12.4352
G01 X9.8146 Y12.4385
G01 X9.7700 Y12.4396
G01 X9.7254 Y12.4385
G01 X9.6808 Y12.4352
G01 X9.6365 Y12.4298
G01 X9.5925 Y12.4221
G01 X9.5490 Y12.4124
G01 X9.5060 Y12.4004
G01 X9.4636 Y12.3864
G01 X9.4219 Y12.3704
G01 X9.3811 Y12.3523
G01 X9.3412 Y12.3322
G01 X9.3024 Y12.3102
G01 X9.2646 Y12.2863
G01 X9.2281 Y12.2606
G01 X9.1929 Y12.2331
G01 X9.1591 Y12.2040
G01 X9.1268 Y12.1732
G01 X9.0960 Y12.1409
G01 X9.0669 Y12.1071
G01 X9.0394 Y12.0719
G01 X9.0137 Y12.0354
G01 X8.9898 Y11.9976
G01 X8.9678 Y11.9588
G01 X8.9477 Y11.9189
G01 X8.9296 Y11.8781
G01 X8.9136 Y11.8364
G01 X8.8996 Y11.7940
G01 X8.8876 Y11.7510
G01 X8.8779 Y11.7075
G01 X8.8702 Y11.6635
G01 X8.8648 Y11.6192
G01 X8.8615 Y11.5746
G01 X8.8604 Y11.5300
G01 X8.8615 Y11.4854
G01 X8.8648 Y11.4408
G01 X8.8702 Y11.3965
G01 X8.8779 Y11.3525
G01 X8.8876 Y11.3090
G01 X8.8996 Y11.2660
G01 X8.9136 Y11.2236
G01 X8.9283 Y11.1853
G01 X8.9493 Y11.1378
G01 X8.9678 Y11.1012
G01 X8.9898 Y11.0624
G01 X9.0137 Y11.0246
G01 X9.0372 Y10.9911
G01 X9.0692 Y10.9501
G01 X9.0960 Y10.9191
G01 X9.1268 Y10.8868
G01 X9.1591 Y10.8560
G01 X9.1901 Y10.8292
G01 X9.2281 Y10.7994
G01 X9.2646 Y10.7737
G01 X9.2992 Y10.7517
G01 X9.3445 Y10.7261
G01 X9.3811 Y10.7077
G01 X9.4219 Y10.6896
G01 X9.4636 Y10.6736
G01 X9.5025 Y10.6607
G01 X9.5526 Y10.6468
G01 X9.5925 Y10.6379
G01 X9.6365 Y10.6302
G01 X9.6808 Y10.6248
G01 X9.7217 Y10.6217
G01 X9.7700 Y10.6204
G01 X9.8183 Y10.6217
G01 X9.8592 Y10.6248
G01 X9.9035 Y10.6302
G01 X9.9475 Y10.6379
G01 X9.9874 Y10.6468
G01 X10.0375 Y10.6607
G01 X10.0764 Y10.6736
G01 X10.1181 Y10.6896
G01 X10.1589 Y10.7077
G01 X10.1955 Y10.7261
G01 X10.2408 Y10.7517
G01 X10.2754 Y10.7737
G01 X10.3119 Y10.7994
G01 X10.3499 Y10.8292
G01 X10.3809 Y10.8560
G01 X10.4132 Y10.8868
G01 X10.4440 Y10.9191
G01 X10.4708 Y10.9501
G01 X10.5028 Y10.9911
G01 X10.5263 Y11.0246
G01 X10.5483 Y11.0592
G01 X10.5739 Y11.1045
G01 X10.5923 Y11.1411
G01 X10.6104 Y11.1819
G01 X10.6264 Y11.2236
G01 X10.6370 Y11.2553
G01 X13.1962 Y11.2553
G01 X15.4158 Y9.0358
G01 X15.4357 Y9.0177
G01 X15.4544 Y9.0037
G01 X15.4773 Y8.9895
G01 X15.4959 Y8.9802
G01 X15.5209 Y8.9702
G01 X15.5468 Y8.9627
G01 X15.5733 Y8.9578
G01 X15.6002 Y8.9555
G01 X16.2604 Y8.9553
G01 X16.2611 Y8.9153
G01 X16.2633 Y8.9008
G01 X16.2668 Y8.8866
G01 X16.2718 Y8.8727
G01 X16.2781 Y8.8595
G01 X16.2856 Y8.8469
G01 X16.2944 Y8.8351
G01 X16.3042 Y8.8242
G01 X16.3209 Y8.8098
G01 X16.3331 Y8.8017
G01 X16.3460 Y8.7948
G01 X16.3596 Y8.7891
G01 X16.3736 Y8.7849
G01 X16.3880 Y8.7820
G01 X16.4027 Y8.7806
G01 X18.4173 Y8.7806
G01 X18.4392 Y8.7833
G01 X18.4604 Y8.7891
G01 X18.4805 Y8.7981
G01 X18.4991 Y8.8098
G01 X18.5158 Y8.8242
G01 X18.5302 Y8.8409
G01 X18.5419 Y8.8595
G01 X18.5509 Y8.8796
G01 X18.5551 Y8.8936
G01 X18.5580 Y8.9080
G01 X18.5596 Y8.9300
G01 X18.5596 Y9.5300
G01 X18.5580 Y9.5520
G01 X18.5532 Y9.5734
G01 X18.5452 Y9.5940
G01 X18.5344 Y9.6131
G01 X18.5209 Y9.6305
G01 X18.5105 Y9.6409
G01 X18.4991 Y9.6502
G01 X18.4805 Y9.6619
G01 X18.4604 Y9.6709
G01 X18.4392 Y9.6767
G01 X18.4247 Y9.6789
G01 X18.4100 Y9.6796
G01 X16.4027 Y9.6794
G01 X16.3880 Y9.6780
G01 X16.3736 Y9.6751
G01 X16.3527 Y9.6682
G01 X16.3395 Y9.6619
G01 X16.3269 Y9.6544
G01 X16.3151 Y9.6457
G01 X16.3042 Y9.6358
G01 X16.2944 Y9.6249
G01 X16.2856 Y9.6131
G01 X16.2781 Y9.6005
G01 X16.2718 Y9.5873
G01 X16.2668 Y9.5734
G01 X16.2633 Y9.5592
G01 X16.2611 Y9.5447
G01 X16.2604 Y9.5047
G01 X15.7238 Y9.5047
G01 X13.5029 Y11.7255
G01 X13.4814 Y11.7446
G01 X13.4543 Y11.7637
G01 X13.4274 Y11.7783
G01 X13.4025 Y11.7886
G01 X13.3767 Y11.7964
G01 X13.3539 Y11.8011
G01 X13.3333 Y11.8037
G01 X13.3100 Y11.8047
G01 X10.6370 Y11.8047
G00 Z1.9990
G00 X10.5606 Y11.7051
G01 F80.00
G01 Z-2.4003
G01 F80.00
G01 X10.5557 Y11.7268
G01 X10.5451 Y11.7651
G01 X10.5327 Y11.8029
G01 X10.5183 Y11.8400
G01 X10.5022 Y11.8763
G01 X10.4844 Y11.9118
G01 X10.4648 Y11.9464
G01 X10.4435 Y11.9800
G01 X10.4206 Y12.0125
G01 X10.3961 Y12.0439
G01 X10.3702 Y12.0740
G01 X10.3428 Y12.1028
G01 X10.3140 Y12.1302
G01 X10.2839 Y12.1561
G01 X10.2525 Y12.1806
G01 X10.2200 Y12.2035
G01 X10.1864 Y12.2248
G01 X10.1518 Y12.2444
G01 X10.1163 Y12.2622
G01 X10.0800 Y12.2783
G01 X10.0429 Y12.2927
G01 X10.0051 Y12.3051
G01 X9.9668 Y12.3157
G01 X9.9280 Y12.3244
G01 X9.8889 Y12.3312
G01 X9.8494 Y12.3361
G01 X9.8097 Y12.3390
G01 X9.7700 Y12.3400
G01 X9.7303 Y12.3390
G01 X9.6906 Y12.3361
G01 X9.6511 Y12.3312
G01 X9.6120 Y12.3244
G01 X9.5732 Y12.3157
G01 X9.5349 Y12.3051
G01 X9.4971 Y12.2927
G01 X9.4600 Y12.2783
G01 X9.4237 Y12.2622
G01 X9.3882 Y12.2444
G01 X9.3536 Y12.2248
G01 X9.3200 Y12.2035
G01 X9.2875 Y12.1806
G01 X9.2561 Y12.1561
G01 X9.2260 Y12.1302
G01 X9.1972 Y12.1028
G01 X9.1698 Y12.0740
G01 X9.1439 Y12.0439
G01 X9.1194 Y12.0125
G01 X9.0965 Y11.9800
G01 X9.0752 Y11.9464
G01 X9.0556 Y11.9118
G01 X9.0378 Y11.8763
G01 X9.0217 Y11.8400
G01 X9.0073 Y11.8029
G01 X8.9949 Y11.7651
G01 X8.9843 Y11.7268
G01 X8.9756 Y11.6880
G01 X8.9688 Y11.6489
G01 X8.9639 Y11.6094
G01 X8.9610 Y11.5697
G01 X8.9600 Y11.5300
G01 X8.9610 Y11.4903
G01 X8.9639 Y11.4506
G01 X8.9688 Y11.4111
G01 X8.9756 Y11.3720
G01 X8.9843 Y11.3332
G01 X8.9945 Y11.2960
G01 X9.0078 Y11.2560
G01 X9.0217 Y11.2200
G01 X9.0378 Y11.1837
G01 X9.0556 Y11.1482
G01 X9.0752 Y11.1136
G01 X9.0965 Y11.0800
G01 X9.1187 Y11.0485
G01 X9.1447 Y11.0152
G01 X9.1698 Y10.9860
G01 X9.1972 Y10.9572
G01 X9.2260 Y10.9298
G01 X9.2561 Y10.9039
G01 X9.2875 Y10.8794
G01 X9.3200 Y10.8565
G01 X9.3536 Y10.8352
G01 X9.3871 Y10.8162
G01 X9.4248 Y10.7973
G01 X9.4600 Y10.7817
G01 X9.4971 Y10.7673
G01 X9.5349 Y10.7549
G01 X9.5732 Y10.7443
G01 X9.6120 Y10.7356
G01 X9.6499 Y10.7290
G01 X9.6918 Y10.7238
G01 X9.7303 Y10.7210
G01 X9.7700 Y10.7200
G01 X9.8097 Y10.7210
G01 X9.8482 Y10.7238
G01 X9.8901 Y10.7290
G01 X9.9280 Y10.7356
G01 X9.9668 Y10.7443
G01 X10.0051 Y10.7549
G01 X10.0429 Y10.7673
G01 X10.0800 Y10.7817
G01 X10.1152 Y10.7973
G01 X10.1529 Y10.8162
G01 X10.1864 Y10.8352
G01 X10.2200 Y10.8565
G01 X10.2525 Y10.8794
G01 X10.2839 Y10.9039
G01 X10.3140 Y10.9298
G01 X10.3428 Y10.9572
G01 X10.3702 Y10.9860
G01 X10.3953 Y11.0152
G01 X10.4213 Y11.0485
G01 X10.4435 Y11.0800
G01 X10.4648 Y11.1136
G01 X10.4844 Y11.1482
G01 X10.5017 Y11.1826
G01 X10.5188 Y11.2212
G01 X10.5327 Y11.2571
G01 X10.5451 Y11.2949
G01 X10.5557 Y11.3332
G01 X10.5606 Y11.3549
G01 X13.2375 Y11.3549
G01 X15.4862 Y9.1062
G01 X15.4989 Y9.0947
G01 X15.5117 Y9.0851
G01 X15.5352 Y9.0717
G01 X15.5510 Y9.0652
G01 X15.5687 Y9.0599
G01 X15.5916 Y9.0559
G01 X15.6088 Y9.0550
G01 X16.3600 Y9.0549
G01 X16.3600 Y8.9300
G01 X16.3615 Y8.9179
G01 X16.3638 Y8.9109
G01 X16.3671 Y8.9043
G01 X16.3730 Y8.8964
G01 X16.3783 Y8.8913
G01 X16.3864 Y8.8859
G01 X16.3932 Y8.8829
G01 X16.4002 Y8.8810
G01 X16.4075 Y8.8801
G01 X18.4100 Y8.8800
G01 X18.4198 Y8.8810
G01 X18.4268 Y8.8829
G01 X18.4336 Y8.8859
G01 X18.4398 Y8.8898
G01 X18.4454 Y8.8946
G01 X18.4502 Y8.9002
G01 X18.4541 Y8.9064
G01 X18.4571 Y8.9132
G01 X18.4595 Y8.9227
G01 X18.4600 Y8.9300
G01 X18.4599 Y9.5325
G01 X18.4585 Y9.5421
G01 X18.4562 Y9.5491
G01 X18.4529 Y9.5557
G01 X18.4470 Y9.5636
G01 X18.4417 Y9.5687
G01 X18.4336 Y9.5741
G01 X18.4268 Y9.5771
G01 X18.4198 Y9.5790
G01 X18.4100 Y9.5800
G01 X16.4075 Y9.5799
G01 X16.4002 Y9.5790
G01 X16.3932 Y9.5771
G01 X16.3864 Y9.5741
G01 X16.3783 Y9.5687
G01 X16.3730 Y9.5636
G01 X16.3671 Y9.5557
G01 X16.3638 Y9.5491
G01 X16.3615 Y9.5421
G01 X16.3600 Y9.5300
G01 X16.3600 Y9.4051
G01 X15.6825 Y9.4051
G01 X13.4338 Y11.6538
G01 X13.4201 Y11.6661
G01 X13.4010 Y11.6795
G01 X13.3848 Y11.6883
G01 X13.3690 Y11.6948
G01 X13.3525 Y11.6998
G01 X13.3369 Y11.7030
G01 X13.3100 Y11.7051
G01 X10.5606 Y11.7051
G00 Z1.9990
G00 X10.6370 Y13.7953
G01 F80.00
G01 Z-2.4003
G01 F80.00
G01 X13.1062 Y13.7953
G01 X15.3271 Y11.5745
G01 X15.3383 Y11.5640
G01 X15.3535 Y11.5516
G01 X15.3788 Y11.5344
G01 X15.3938 Y11.5261
G01 X15.4115 Y11.5177
G01 X15.4403 Y11.5072
G01 X15.4628 Y11.5014
G01 X15.4797 Y11.4983
G01 X15.4967 Y11.4963
G01 X15.5182 Y11.4953
G01 X16.2604 Y11.4953
G01 X16.2611 Y11.4553
G01 X16.2633 Y11.4408
G01 X16.2668 Y11.4266
G01 X16.2718 Y11.4127
G01 X16.2781 Y11.3995
G01 X16.2856 Y11.3869
G01 X16.2944 Y11.3751
G01 X16.3042 Y11.3642
G01 X16.3209 Y11.3498
G01 X16.3331 Y11.3417
G01 X16.3460 Y11.3348
G01 X16.3596 Y11.3291
G01 X16.3736 Y11.3249
G01 X16.3880 Y11.3220
G01 X16.4027 Y11.3206
G01 X18.4173 Y11.3206
G01 X18.4392 Y11.3233
G01 X18.4604 Y11.3291
G01 X18.4805 Y11.3381
G01 X18.4991 Y11.3498
G01 X18.5105 Y11.3591
G01 X18.5209 Y11.3695
G01 X18.5344 Y11.3869
G01 X18.5452 Y11.4060
G01 X18.5532 Y11.4266
G01 X18.5580 Y11.4480
G01 X18.5596 Y11.4700
G01 X18.5596 Y12.0700
G01 X18.5580 Y12.0920
G01 X18.5532 Y12.1134
G01 X18.5452 Y12.1340
G01 X18.5344 Y12.1531
G01 X18.5209 Y12.1705
G01 X18.5105 Y12.1809
G01 X18.4991 Y12.1902
G01 X18.4805 Y12.2019
G01 X18.4604 Y12.2109
G01 X18.4392 Y12.2167
G01 X18.4247 Y12.2189
G01 X18.4100 Y12.2196
G01 X16.4027 Y12.2194
G01 X16.3880 Y12.2180
G01 X16.3736 Y12.2151
G01 X16.3527 Y12.2082
G01 X16.3395 Y12.2019
G01 X16.3269 Y12.1944
G01 X16.3151 Y12.1857
G01 X16.3042 Y12.1758
G01 X16.2944 Y12.1649
G01 X16.2856 Y12.1531
G01 X16.2781 Y12.1405
G01 X16.2718 Y12.1273
G01 X16.2668 Y12.1134
G01 X16.2633 Y12.0992
G01 X16.2611 Y12.0847
G01 X16.2604 Y12.0447
G01 X15.6338 Y12.0447
G01 X13.4129 Y14.2655
G01 X13.4017 Y14.2760
G01 X13.3865 Y14.2884
G01 X13.3612 Y14.3056
G01 X13.3462 Y14.3139
G01 X13.3285 Y14.3223
G01 X13.2997 Y14.3328
G01 X13.2772 Y14.3386
G01 X13.2603 Y14.3417
G01 X13.2371 Y14.3441
G01 X13.2200 Y14.3447
G01 X10.6370 Y14.3447
G01 X10.6264 Y14.3764
G01 X10.6104 Y14.4181
G01 X10.5923 Y14.4589
G01 X10.5739 Y14.4955
G01 X10.5483 Y14.5408
G01 X10.5263 Y14.5754
G01 X10.5028 Y14.6089
G01 X10.4708 Y14.6499
G01 X10.4440 Y14.6809
G01 X10.4132 Y14.7132
G01 X10.3809 Y14.7440
G01 X10.3499 Y14.7708
G01 X10.3119 Y14.8006
G01 X10.2754 Y14.8263
G01 X10.2408 Y14.8483
G01 X10.1955 Y14.8739
G01 X10.1589 Y14.8923
G01 X10.1181 Y14.9104
G01 X10.0764 Y14.9264
G01 X10.0375 Y14.9393
G01 X9.9874 Y14.9532
G01 X9.9475 Y14.9621
G01 X9.9035 Y14.9698
G01 X9.8592 Y14.9752
G01 X9.8183 Y14.9783
G01 X9.7700 Y14.9796
G01 X9.7217 Y14.9783
G01 X9.6808 Y14.9752
G01 X9.6365 Y14.9698
G01 X9.5925 Y14.9621
G01 X9.5526 Y14.9532
G01 X9.5025 Y14.9393
G01 X9.4636 Y14.9264
G01 X9.4219 Y14.9104
G01 X9.3811 Y14.8923
G01 X9.3445 Y14.8739
G01 X9.2992 Y14.8483
G01 X9.2646 Y14.8263
G01 X9.2281 Y14.8006
G01 X9.1901 Y14.7708
G01 X9.1591 Y14.7440
G01 X9.1268 Y14.7132
G01 X9.0960 Y14.6809
G01 X9.0692 Y14.6499
G01 X9.0372 Y14.6089
G01 X9.0137 Y14.5754
G01 X8.9898 Y14.5376
G01 X8.9678 Y14.4988
G01 X8.9493 Y14.4622
G01 X8.9283 Y14.4147
G01 X8.9136 Y14.3764
G01 X8.8996 Y14.3340
G01 X8.8876 Y14.2910
G01 X8.8779 Y14.2475
G01 X8.8702 Y14.2035
G01 X8.8648 Y14.1592
G01 X8.8615 Y14.1146
G01 X8.8604 Y14.0700
G01 X8.8615 Y14.0254
G01 X8.8648 Y13.9808
G01 X8.8702 Y13.9365
G01 X8.8779 Y13.8925
G01 X8.8876 Y13.8490
G01 X8.8996 Y13.8060
G01 X8.9136 Y13.7636
G01 X8.9296 Y13.7219
G01 X8.9477 Y13.6811
G01 X8.9678 Y13.6412
G01 X8.9898 Y13.6024
G01 X9.0137 Y13.5646
G01 X9.0394 Y13.5281
G01 X9.0669 Y13.4929
G01 X9.0960 Y13.4591
G01 X9.1268 Y13.4268
G01 X9.1591 Y13.3960
G01 X9.1929 Y13.3669
G01 X9.2281 Y13.3394
G01 X9.2646 Y13.3137
G01 X9.3024 Y13.2898
G01 X9.3412 Y13.2678
G01 X9.3811 Y13.2477
G01 X9.4219 Y13.2296
G01 X9.4636 Y13.2136
G01 X9.5060 Y13.1996
G01 X9.5490 Y13.1876
G01 X9.5925 Y13.1779
G01 X9.6365 Y13.1702
G01 X9.6808 Y13.1648
G01 X9.7254 Y13.1615
G01 X9.7700 Y13.1604
G01 X9.8146 Y13.1615
G01 X9.8592 Y13.1648
G01 X9.9035 Y13.1702
G01 X9.9475 Y13.1779
G01 X9.9910 Y13.1876
G01 X10.0340 Y13.1996
G01 X10.0764 Y13.2136
G01 X10.1181 Y13.2296
G01 X10.1589 Y13.2477
G01 X10.1988 Y13.2678
G01 X10.2376 Y13.2898
G01 X10.2754 Y13.3137
G01 X10.3119 Y13.3394
G01 X10.3471 Y13.3669
G01 X10.3809 Y13.3960
G01 X10.4132 Y13.4268
G01 X10.4440 Y13.4591
G01 X10.4731 Y13.4929
G01 X10.5006 Y13.5281
G01 X10.5263 Y13.5646
G01 X10.5502 Y13.6024
G01 X10.5722 Y13.6412
G01 X10.5923 Y13.6811
G01 X10.6104 Y13.7219
G01 X10.6264 Y13.7636
G01 X10.6370 Y13.7953
G00 Z1.9990
G00 X10.5606 Y13.8949
G01 F80.00
G01 Z-2.4003
G01 F80.00
G01 X13.1475 Y13.8949
G01 X15.3962 Y11.6462
G01 X15.4089 Y11.6347
G01 X15.4217 Y11.6251
G01 X15.4452 Y11.6117
G01 X15.4610 Y11.6052
G01 X15.4787 Y11.5999
G01 X15.5016 Y11.5959
G01 X15.5194 Y11.5949
G01 X16.3600 Y11.5949
G01 X16.3600 Y11.4700
G01 X16.3615 Y11.4579
G01 X16.3638 Y11.4509
G01 X16.3671 Y11.4443
G01 X16.3730 Y11.4364
G01 X16.3783 Y11.4313
G01 X16.3864 Y11.4259
G01 X16.3932 Y11.4229
G01 X16.4002 Y11.4210
G01 X16.4075 Y11.4201
G01 X18.4100 Y11.4200
G01 X18.4198 Y11.4210
G01 X18.4268 Y11.4229
G01 X18.4336 Y11.4259
G01 X18.4398 Y11.4298
G01 X18.4454 Y11.4346
G01 X18.4516 Y11.4422
G01 X18.4552 Y11.4486
G01 X18.4578 Y11.4555
G01 X18.4595 Y11.4627
G01 X18.4600 Y11.4700
G01 X18.4599 Y12.0725
G01 X18.4585 Y12.0821
G01 X18.4562 Y12.0891
G01 X18.4529 Y12.0957
G01 X18.4470 Y12.1036
G01 X18.4417 Y12.1087
G01 X18.4336 Y12.1141
G01 X18.4268 Y12.1171
G01 X18.4173 Y12.1195
G01 X18.4100 Y12.1200
G01 X16.4075 Y12.1199
G01 X16.4002 Y12.1190
G01 X16.3932 Y12.1171
G01 X16.3864 Y12.1141
G01 X16.3783 Y12.1087
G01 X16.3730 Y12.1036
G01 X16.3671 Y12.0957
G01 X16.3638 Y12.0891
G01 X16.3615 Y12.0821
G01 X16.3600 Y12.0700
G01 X16.3600 Y11.9451
G01 X15.5925 Y11.9451
G01 X13.3434 Y14.1942
G01 X13.3253 Y14.2099
G01 X13.3100 Y14.2202
G01 X13.2881 Y14.2313
G01 X13.2708 Y14.2375
G01 X13.2457 Y14.2432
G01 X13.2200 Y14.2451
G01 X10.5606 Y14.2451
G01 X10.5557 Y14.2668
G01 X10.5451 Y14.3051
G01 X10.5327 Y14.3429
G01 X10.5188 Y14.3788
G01 X10.5017 Y14.4174
G01 X10.4844 Y14.4518
G01 X10.4648 Y14.4864
G01 X10.4435 Y14.5200
G01 X10.4213 Y14.5515
G01 X10.3953 Y14.5848
G01 X10.3702 Y14.6140
G01 X10.3428 Y14.6428
G01 X10.3140 Y14.6702
G01 X10.2839 Y14.6961
G01 X10.2525 Y14.7206
G01 X10.2200 Y14.7435
G01 X10.1864 Y14.7648
G01 X10.1529 Y14.7838
G01 X10.1152 Y14.8027
G01 X10.0800 Y14.8183
G01 X10.0429 Y14.8327
G01 X10.0051 Y14.8451
G01 X9.9668 Y14.8557
G01 X9.9280 Y14.8644
G01 X9.8901 Y14.8710
G01 X9.8482 Y14.8762
G01 X9.8097 Y14.8790
G01 X9.7700 Y14.8800
G01 X9.7303 Y14.8790
G01 X9.6918 Y14.8762
G01 X9.6499 Y14.8710
G01 X9.6120 Y14.8644
G01 X9.5732 Y14.8557
G01 X9.5349 Y14.8451
G01 X9.4971 Y14.8327
G01 X9.4600 Y14.8183
G01 X9.4248 Y14.8027
G01 X9.3871 Y14.7838
G01 X9.3536 Y14.7648
G01 X9.3200 Y14.7435
G01 X9.2875 Y14.7206
G01 X9.2561 Y14.6961
G01 X9.2260 Y14.6702
G01 X9.1972 Y14.6428
G01 X9.1698 Y14.6140
G01 X9.1447 Y14.5848
G01 X9.1187 Y14.5515
G01 X9.0965 Y14.5200
G01 X9.0752 Y14.4864
G01 X9.0556 Y14.4518
G01 X9.0378 Y14.4163
G01 X9.0217 Y14.3800
G01 X9.0078 Y14.3440
G01 X8.9945 Y14.3040
G01 X8.9843 Y14.2668
G01 X8.9756 Y14.2280
G01 X8.9688 Y14.1889
G01 X8.9639 Y14.1494
G01 X8.9610 Y14.1097
G01 X8.9600 Y14.0700
G01 X8.9610 Y14.0303
G01 X8.9639 Y13.9906
G01 X8.9688 Y13.9511
G01 X8.9756 Y13.9120
G01 X8.9843 Y13.8732
G01 X8.9949 Y13.8349
G01 X9.0073 Y13.7971
G01 X9.0217 Y13.7600
G01 X9.0378 Y13.7237
G01 X9.0556 Y13.6882
G01 X9.0752 Y13.6536
G01 X9.0965 Y13.6200
G01 X9.1194 Y13.5875
G01 X9.1439 Y13.5561
G01 X9.1698 Y13.5260
G01 X9.1972 Y13.4972
G01 X9.2260 Y13.4698
G01 X9.2561 Y13.4439
G01 X9.2875 Y13.4194
G01 X9.3200 Y13.3965
G01 X9.3536 Y13.3752
G01 X9.3882 Y13.3556
G01 X9.4237 Y13.3378
G01 X9.4600 Y13.3217
G01 X9.4971 Y13.3073
G01 X9.5349 Y13.2949
G01 X9.5732 Y13.2843
G01 X9.6120 Y13.2756
G01 X9.6511 Y13.2688
G01 X9.6906 Y13.2639
G01 X9.7303 Y13.2610
G01 X9.7700 Y13.2600
G01 X9.8097 Y13.2610
G01 X9.8494 Y13.2639
G01 X9.8889 Y13.2688
G01 X9.9280 Y13.2756
G01 X9.9668 Y13.2843
G01 X10.0051 Y13.2949
G01 X10.0429 Y13.3073
G01 X10.0800 Y13.3217
G01 X10.1163 Y13.3378
G01 X10.1518 Y13.3556
G01 X10.1864 Y13.3752
G01 X10.2200 Y13.3965
G01 X10.2525 Y13.4194
G01 X10.2839 Y13.4439
G01 X10.3140 Y13.4698
G01 X10.3428 Y13.4972
G01 X10.3702 Y13.5260
G01 X10.3961 Y13.5561
G01 X10.4206 Y13.5875
G01 X10.4435 Y13.6200
G01 X10.4648 Y13.6536
G01 X10.4844 Y13.6882
G01 X10.5022 Y13.7237
G01 X10.5183 Y13.7600
G01 X10.5327 Y13.7971
G01 X10.5451 Y13.8349
G01 X10.5557 Y13.8732
G01 X10.5606 Y13.8949
G00 Z1.9990
G00 X16.4027 Y13.8606
G01 F80.00
G01 Z-2.4003
G01 F80.00
G01 X18.4100 Y13.8604
G01 X18.4247 Y13.8611
G01 X18.4392 Y13.8633
G01 X18.4604 Y13.8691
G01 X18.4805 Y13.8781
G01 X18.4991 Y13.8898
G01 X18.5158 Y13.9042
G01 X18.5256 Y13.9151
G01 X18.5383 Y13.9331
G01 X18.5482 Y13.9527
G01 X18.5551 Y13.9736
G01 X18.5589 Y13.9953
G01 X18.5596 Y14.0100
G01 X18.5596 Y14.6100
G01 X18.5580 Y14.6320
G01 X18.5551 Y14.6464
G01 X18.5509 Y14.6604
G01 X18.5419 Y14.6805
G01 X18.5302 Y14.6991
G01 X18.5158 Y14.7158
G01 X18.4991 Y14.7302
G01 X18.4805 Y14.7419
G01 X18.4604 Y14.7509
G01 X18.4392 Y14.7567
G01 X18.4173 Y14.7594
G01 X16.4100 Y14.7596
G01 X16.3953 Y14.7589
G01 X16.3808 Y14.7567
G01 X16.3596 Y14.7509
G01 X16.3395 Y14.7419
G01 X16.3209 Y14.7302
G01 X16.3042 Y14.7158
G01 X16.2944 Y14.7049
G01 X16.2817 Y14.6869
G01 X16.2718 Y14.6673
G01 X16.2668 Y14.6534
G01 X16.2620 Y14.6320
G01 X16.2604 Y14.6100
G01 X16.2606 Y14.0027
G01 X16.2620 Y13.9880
G01 X16.2649 Y13.9736
G01 X16.2718 Y13.9527
G01 X16.2781 Y13.9395
G01 X16.2856 Y13.9269
G01 X16.2944 Y13.9151
G01 X16.3042 Y13.9042
G01 X16.3209 Y13.8898
G01 X16.3331 Y13.8817
G01 X16.3460 Y13.8748
G01 X16.3596 Y13.8691
G01 X16.3736 Y13.8649
G01 X16.3880 Y13.8620
G01 X16.4027 Y13.8606
G00 Z1.9990
G00 X16.4075 Y13.9601
G01 F80.00
G01 Z-2.4003
G01 F80.00
G01 X18.4100 Y13.9600
G01 X18.4173 Y13.9605
G01 X18.4245 Y13.9622
G01 X18.4314 Y13.9648
G01 X18.4398 Y13.9698
G01 X18.4454 Y13.9746
G01 X18.4502 Y13.9802
G01 X18.4541 Y13.9864
G01 X18.4571 Y13.9932
G01 X18.4590 Y14.0002
G01 X18.4599 Y14.0075
G01 X18.4600 Y14.6100
G01 X18.4595 Y14.6173
G01 X18.4578 Y14.6245
G01 X18.4552 Y14.6314
G01 X18.4516 Y14.6378
G01 X18.4454 Y14.6454
G01 X18.4398 Y14.6502
G01 X18.4336 Y14.6541
G01 X18.4268 Y14.6571
G01 X18.4198 Y14.6590
G01 X18.4100 Y14.6600
G01 X16.4100 Y14.6600
G01 X16.4027 Y14.6595
G01 X16.3955 Y14.6578
G01 X16.3886 Y14.6552
G01 X16.3802 Y14.6502
G01 X16.3746 Y14.6454
G01 X16.3698 Y14.6398
G01 X16.3659 Y14.6336
G01 X16.3629 Y14.6268
G01 X16.3610 Y14.6198
G01 X16.3601 Y14.6125
G01 X16.3600 Y14.0100
G01 X16.3605 Y14.0027
G01 X16.3629 Y13.9932
G01 X16.3671 Y13.9843
G01 X16.3730 Y13.9764
G01 X16.3802 Y13.9698
G01 X16.3886 Y13.9648
G01 X16.3979 Y13.9615
G01 X16.4075 Y13.9601
G00 Z1.9990
G00 X16.4027 Y15.1306
G01 F80.00
G01 Z-2.4003
G01 F80.00
G01 X18.4100 Y15.1304
G01 X18.4247 Y15.1311
G01 X18.4392 Y15.1333
G01 X18.4604 Y15.1391
G01 X18.4805 Y15.1481
G01 X18.4991 Y15.1598
G01 X18.5158 Y15.1742
G01 X18.5256 Y15.1851
G01 X18.5383 Y15.2031
G01 X18.5482 Y15.2227
G01 X18.5551 Y15.2436
G01 X18.5589 Y15.2653
G01 X18.5596 Y15.2800
G01 X18.5596 Y15.8800
G01 X18.5580 Y15.9020
G01 X18.5551 Y15.9164
G01 X18.5509 Y15.9304
G01 X18.5419 Y15.9505
G01 X18.5302 Y15.9691
G01 X18.5158 Y15.9858
G01 X18.4991 Y16.0002
G01 X18.4805 Y16.0119
G01 X18.4604 Y16.0209
G01 X18.4392 Y16.0267
G01 X18.4173 Y16.0294
G01 X16.4100 Y16.0296
G01 X16.3953 Y16.0289
G01 X16.3808 Y16.0267
G01 X16.3596 Y16.0209
G01 X16.3395 Y16.0119
G01 X16.3209 Y16.0002
G01 X16.3042 Y15.9858
G01 X16.2944 Y15.9749
G01 X16.2817 Y15.9569
G01 X16.2718 Y15.9373
G01 X16.2668 Y15.9234
G01 X16.2620 Y15.9020
G01 X16.2604 Y15.8800
G01 X16.2606 Y15.2727
G01 X16.2620 Y15.2580
G01 X16.2649 Y15.2436
G01 X16.2718 Y15.2227
G01 X16.2781 Y15.2095
G01 X16.2856 Y15.1969
G01 X16.2944 Y15.1851
G01 X16.3042 Y15.1742
G01 X16.3209 Y15.1598
G01 X16.3331 Y15.1517
G01 X16.3460 Y15.1448
G01 X16.3596 Y15.1391
G01 X16.3736 Y15.1349
G01 X16.3880 Y15.1320
G01 X16.4027 Y15.1306
G00 Z1.9990
G00 X16.4075 Y15.2301
G01 F80.00
G01 Z-2.4003
G01 F80.00
G01 X18.4100 Y15.2300
G01 X18.4173 Y15.2305
G01 X18.4245 Y15.2322
G01 X18.4314 Y15.2348
G01 X18.4398 Y15.2398
G01 X18.4454 Y15.2446
G01 X18.4502 Y15.2502
G01 X18.4541 Y15.2564
G01 X18.4571 Y15.2632
G01 X18.4590 Y15.2702
G01 X18.4599 Y15.2775
G01 X18.4600 Y15.8800
G01 X18.4595 Y15.8873
G01 X18.4578 Y15.8945
G01 X18.4552 Y15.9014
G01 X18.4516 Y15.9078
G01 X18.4454 Y15.9154
G01 X18.4398 Y15.9202
G01 X18.4336 Y15.9241
G01 X18.4268 Y15.9271
G01 X18.4198 Y15.9290
G01 X18.4100 Y15.9300
G01 X16.4100 Y15.9300
G01 X16.4027 Y15.9295
G01 X16.3955 Y15.9278
G01 X16.3886 Y15.9252
G01 X16.3802 Y15.9202
G01 X16.3746 Y15.9154
G01 X16.3698 Y15.9098
G01 X16.3659 Y15.9036
G01 X16.3629 Y15.8968
G01 X16.3610 Y15.8898
G01 X16.3601 Y15.8825
G01 X16.3600 Y15.2800
G01 X16.3605 Y15.2727
G01 X16.3629 Y15.2632
G01 X16.3671 Y15.2543
G01 X16.3730 Y15.2464
G01 X16.3802 Y15.2398
G01 X16.3886 Y15.2348
G01 X16.3979 Y15.2315
G01 X16.4075 Y15.2301
G00 Z1.9990
G00 X16.4027 Y16.4006
G01 F80.00
G01 Z-2.4003
G01 F80.00
G01 X18.4100 Y16.4004
G01 X18.4320 Y16.4020
G01 X18.4464 Y16.4049
G01 X18.4604 Y16.4091
G01 X18.4805 Y16.4181
G01 X18.4991 Y16.4298
G01 X18.5158 Y16.4442
G01 X18.5302 Y16.4609
G01 X18.5419 Y16.4795
G01 X18.5509 Y16.4996
G01 X18.5567 Y16.5208
G01 X18.5589 Y16.5353
G01 X18.5596 Y16.5500
G01 X18.5596 Y17.1500
G01 X18.5580 Y17.1720
G01 X18.5551 Y17.1864
G01 X18.5509 Y17.2004
G01 X18.5419 Y17.2205
G01 X18.5302 Y17.2391
G01 X18.5158 Y17.2558
G01 X18.4991 Y17.2702
G01 X18.4805 Y17.2819
G01 X18.4604 Y17.2909
G01 X18.4392 Y17.2967
G01 X18.4173 Y17.2994
G01 X16.4100 Y17.2996
G01 X16.3880 Y17.2980
G01 X16.3736 Y17.2951
G01 X16.3596 Y17.2909
G01 X16.3395 Y17.2819
G01 X16.3209 Y17.2702
G01 X16.3042 Y17.2558
G01 X16.2944 Y17.2449
G01 X16.2817 Y17.2269
G01 X16.2718 Y17.2073
G01 X16.2668 Y17.1934
G01 X16.2620 Y17.1720
G01 X16.2604 Y17.1500
G01 X16.2606 Y16.5427
G01 X16.2620 Y16.5280
G01 X16.2649 Y16.5136
G01 X16.2718 Y16.4927
G01 X16.2781 Y16.4795
G01 X16.2856 Y16.4669
G01 X16.2944 Y16.4551
G01 X16.3042 Y16.4442
G01 X16.3151 Y16.4344
G01 X16.3269 Y16.4256
G01 X16.3395 Y16.4181
G01 X16.3527 Y16.4118
G01 X16.3736 Y16.4049
G01 X16.3880 Y16.4020
G01 X16.4027 Y16.4006
G00 Z1.9990
G00 X16.4075 Y16.5001
G01 F80.00
G01 Z-2.4003
G01 F80.00
G01 X18.4100 Y16.5000
G01 X18.4173 Y16.5005
G01 X18.4245 Y16.5022
G01 X18.4314 Y16.5048
G01 X18.4398 Y16.5098
G01 X18.4454 Y16.5146
G01 X18.4502 Y16.5202
G01 X18.4541 Y16.5264
G01 X18.4571 Y16.5332
G01 X18.4590 Y16.5402
G01 X18.4599 Y16.5475
G01 X18.4600 Y17.1500
G01 X18.4595 Y17.1573
G01 X18.4578 Y17.1645
G01 X18.4552 Y17.1714
G01 X18.4502 Y17.1798
G01 X18.4454 Y17.1854
G01 X18.4398 Y17.1902
G01 X18.4314 Y17.1952
G01 X18.4245 Y17.1978
G01 X18.4173 Y17.1995
G01 X18.4100 Y17.2000
G01 X16.4100 Y17.2000
G01 X16.4027 Y17.1995
G01 X16.3955 Y17.1978
G01 X16.3886 Y17.1952
G01 X16.3802 Y17.1902
G01 X16.3746 Y17.1854
G01 X16.3698 Y17.1798
G01 X16.3659 Y17.1736
G01 X16.3629 Y17.1668
G01 X16.3610 Y17.1598
G01 X16.3601 Y17.1525
G01 X16.3600 Y16.5500
G01 X16.3605 Y16.5427
G01 X16.3629 Y16.5332
G01 X16.3671 Y16.5243
G01 X16.3730 Y16.5164
G01 X16.3802 Y16.5098
G01 X16.3886 Y16.5048
G01 X16.3979 Y16.5015
G01 X16.4075 Y16.5001
G00 Z1.9990
G00 X16.4027 Y17.6706
G01 F80.00
G01 Z-2.4003
G01 F80.00
G01 X18.4100 Y17.6704
G01 X18.4320 Y17.6720
G01 X18.4464 Y17.6749
G01 X18.4604 Y17.6791
G01 X18.4805 Y17.6881
G01 X18.4991 Y17.6998
G01 X18.5158 Y17.7142
G01 X18.5302 Y17.7309
G01 X18.5419 Y17.7495
G01 X18.5509 Y17.7696
G01 X18.5567 Y17.7908
G01 X18.5589 Y17.8053
G01 X18.5596 Y17.8200
G01 X18.5596 Y18.4200
G01 X18.5580 Y18.4420
G01 X18.5551 Y18.4564
G01 X18.5509 Y18.4704
G01 X18.5419 Y18.4905
G01 X18.5302 Y18.5091
G01 X18.5158 Y18.5258
G01 X18.4991 Y18.5402
G01 X18.4805 Y18.5519
G01 X18.4604 Y18.5609
G01 X18.4392 Y18.5667
G01 X18.4173 Y18.5694
G01 X16.4100 Y18.5696
G01 X16.3880 Y18.5680
G01 X16.3736 Y18.5651
G01 X16.3596 Y18.5609
G01 X16.3395 Y18.5519
G01 X16.3209 Y18.5402
G01 X16.3042 Y18.5258
G01 X16.2944 Y18.5149
G01 X16.2817 Y18.4969
G01 X16.2718 Y18.4773
G01 X16.2668 Y18.4634
G01 X16.2620 Y18.4420
G01 X16.2604 Y18.4200
G01 X16.2606 Y17.8127
G01 X16.2620 Y17.7980
G01 X16.2649 Y17.7836
G01 X16.2718 Y17.7627
G01 X16.2781 Y17.7495
G01 X16.2856 Y17.7369
G01 X16.2944 Y17.7251
G01 X16.3042 Y17.7142
G01 X16.3151 Y17.7044
G01 X16.3269 Y17.6956
G01 X16.3395 Y17.6881
G01 X16.3527 Y17.6818
G01 X16.3736 Y17.6749
G01 X16.3880 Y17.6720
G01 X16.4027 Y17.6706
G00 Z1.9990
G00 X16.4075 Y17.7701
G01 F80.00
G01 Z-2.4003
G01 F80.00
G01 X18.4100 Y17.7700
G01 X18.4173 Y17.7705
G01 X18.4245 Y17.7722
G01 X18.4314 Y17.7748
G01 X18.4398 Y17.7798
G01 X18.4454 Y17.7846
G01 X18.4502 Y17.7902
G01 X18.4541 Y17.7964
G01 X18.4571 Y17.8032
G01 X18.4590 Y17.8102
G01 X18.4599 Y17.8175
G01 X18.4600 Y18.4200
G01 X18.4595 Y18.4273
G01 X18.4578 Y18.4345
G01 X18.4552 Y18.4414
G01 X18.4502 Y18.4498
G01 X18.4454 Y18.4554
G01 X18.4398 Y18.4602
G01 X18.4314 Y18.4652
G01 X18.4245 Y18.4678
G01 X18.4173 Y18.4695
G01 X18.4100 Y18.4700
G01 X16.4100 Y18.4700
G01 X16.4027 Y18.4695
G01 X16.3955 Y18.4678
G01 X16.3886 Y18.4652
G01 X16.3802 Y18.4602
G01 X16.3746 Y18.4554
G01 X16.3698 Y18.4498
G01 X16.3659 Y18.4436
G01 X16.3629 Y18.4368
G01 X16.3610 Y18.4298
G01 X16.3601 Y18.4225
G01 X16.3600 Y17.8200
G01 X16.3605 Y17.8127
G01 X16.3629 Y17.8032
G01 X16.3671 Y17.7943
G01 X16.3730 Y17.7864
G01 X16.3802 Y17.7798
G01 X16.3886 Y17.7748
G01 X16.3979 Y17.7715
G01 X16.4075 Y17.7701
G00 Z1.9990
G00 X25.4651 Y18.9863
G01 F80.00
G01 Z-2.4003
G01 F80.00
G01 X25.5211 Y18.8511
G01 X25.5295 Y18.8273
G01 X25.5354 Y18.8045
G01 X25.5384 Y18.7876
G01 X25.5409 Y18.7642
G01 X25.5414 Y18.7433
G01 X25.5401 Y18.7199
G01 X25.5361 Y18.6930
G01 X25.5306 Y18.6702
G01 X25.5240 Y18.6503
G01 X25.5149 Y18.6287
G01 X25.5039 Y18.6079
G01 X25.4725 Y18.5598
G01 X25.4392 Y18.3928
G01 X25.4392 Y17.8472
G01 X25.4725 Y17.6802
G01 X25.5093 Y17.6241
G01 X25.5202 Y17.6033
G01 X25.5294 Y17.5817
G01 X25.5376 Y17.5558
G01 X25.5422 Y17.5354
G01 X25.5455 Y17.5121
G01 X25.5468 Y17.4850
G01 X25.5455 Y17.4579
G01 X25.5422 Y17.4346
G01 X25.5376 Y17.4142
G01 X25.5294 Y17.3883
G01 X25.5202 Y17.3667
G01 X25.5093 Y17.3459
G01 X25.4725 Y17.2898
G01 X25.4392 Y17.1228
G01 X25.4392 Y16.5772
G01 X25.4725 Y16.4102
G01 X25.5093 Y16.3541
G01 X25.5202 Y16.3333
G01 X25.5294 Y16.3117
G01 X25.5376 Y16.2858
G01 X25.5422 Y16.2654
G01 X25.5455 Y16.2421
G01 X25.5468 Y16.2150
G01 X25.5455 Y16.1879
G01 X25.5422 Y16.1646
G01 X25.5376 Y16.1442
G01 X25.5294 Y16.1183
G01 X25.5202 Y16.0967
G01 X25.5093 Y16.0759
G01 X25.4725 Y16.0198
G01 X25.4392 Y15.8528
G01 X25.4392 Y15.3072
G01 X25.4725 Y15.1402
G01 X25.5093 Y15.0841
G01 X25.5202 Y15.0633
G01 X25.5294 Y15.0417
G01 X25.5376 Y15.0158
G01 X25.5422 Y14.9954
G01 X25.5455 Y14.9721
G01 X25.5468 Y14.9450
G01 X25.5455 Y14.9179
G01 X25.5422 Y14.8946
G01 X25.5376 Y14.8742
G01 X25.5294 Y14.8483
G01 X25.5202 Y14.8267
G01 X25.5093 Y14.8059
G01 X25.4725 Y14.7498
G01 X25.4392 Y14.5828
G01 X25.4392 Y14.0372
G01 X25.4725 Y13.8702
G01 X25.5093 Y13.8141
G01 X25.5202 Y13.7933
G01 X25.5294 Y13.7717
G01 X25.5376 Y13.7458
G01 X25.5422 Y13.7254
G01 X25.5455 Y13.7021
G01 X25.5468 Y13.6750
G01 X25.5455 Y13.6479
G01 X25.5422 Y13.6246
G01 X25.5376 Y13.6042
G01 X25.5294 Y13.5783
G01 X25.5202 Y13.5567
G01 X25.5093 Y13.5359
G01 X25.4725 Y13.4798
G01 X25.4392 Y13.3128
G01 X25.4392 Y12.7672
G01 X25.4725 Y12.6002
G01 X25.5093 Y12.5441
G01 X25.5202 Y12.5233
G01 X25.5294 Y12.5017
G01 X25.5376 Y12.4758
G01 X25.5422 Y12.4554
G01 X25.5455 Y12.4321
G01 X25.5468 Y12.4050
G01 X25.5455 Y12.3779
G01 X25.5422 Y12.3546
G01 X25.5376 Y12.3342
G01 X25.5294 Y12.3083
G01 X25.5202 Y12.2867
G01 X25.5093 Y12.2659
G01 X25.4725 Y12.2098
G01 X25.4392 Y12.0428
G01 X25.4392 Y11.4972
G01 X25.4725 Y11.3302
G01 X25.5093 Y11.2741
G01 X25.5202 Y11.2533
G01 X25.5294 Y11.2317
G01 X25.5376 Y11.2058
G01 X25.5422 Y11.1854
G01 X25.5455 Y11.1621
G01 X25.5468 Y11.1350
G01 X25.5455 Y11.1079
G01 X25.5422 Y11.0846
G01 X25.5376 Y11.0642
G01 X25.5294 Y11.0383
G01 X25.5202 Y11.0167
G01 X25.5093 Y10.9959
G01 X25.4725 Y10.9398
G01 X25.4392 Y10.7728
G01 X25.4392 Y10.2272
G01 X25.4725 Y10.0602
G01 X25.5093 Y10.0041
G01 X25.5202 Y9.9833
G01 X25.5294 Y9.9617
G01 X25.5376 Y9.9358
G01 X25.5422 Y9.9154
G01 X25.5455 Y9.8921
G01 X25.5468 Y9.8650
G01 X25.5455 Y9.8379
G01 X25.5422 Y9.8146
G01 X25.5376 Y9.7942
G01 X25.5294 Y9.7683
G01 X25.5202 Y9.7467
G01 X25.5093 Y9.7259
G01 X25.4725 Y9.6698
G01 X25.4392 Y9.5028
G01 X25.4392 Y8.9572
G01 X25.4725 Y8.7902
G01 X25.5517 Y8.6717
G01 X25.6702 Y8.5925
G01 X25.8372 Y8.5592
G01 X27.7828 Y8.5592
G01 X27.9498 Y8.5925
G01 X28.1123 Y8.7011
G01 X28.1374 Y8.7157
G01 X28.1679 Y8.7292
G01 X28.1938 Y8.7374
G01 X28.2203 Y8.7431
G01 X28.2473 Y8.7461
G01 X28.2645 Y8.7467
G01 X30.6926 Y8.7467
G01 X30.7160 Y8.7457
G01 X30.7332 Y8.7437
G01 X30.7562 Y8.7392
G01 X30.7729 Y8.7348
G01 X30.7892 Y8.7292
G01 X30.8075 Y8.7216
G01 X30.8230 Y8.7140
G01 X30.8379 Y8.7054
G01 X30.8544 Y8.6944
G01 X30.8681 Y8.6839
G01 X30.8856 Y8.6682
G01 X30.8976 Y8.6558
G01 X30.9087 Y8.6427
G01 X30.9205 Y8.6267
G01 X30.9299 Y8.6122
G01 X30.9383 Y8.5972
G01 X30.9467 Y8.5793
G01 X30.9531 Y8.5632
G01 X30.9600 Y8.5408
G01 X30.9646 Y8.5204
G01 X30.9679 Y8.4971
G01 X30.9692 Y8.4737
G01 X30.9692 Y7.8372
G01 X31.0025 Y7.6702
G01 X31.0817 Y7.5517
G01 X31.2002 Y7.4725
G01 X31.3672 Y7.4392
G01 X33.0128 Y7.4392
G01 X33.1798 Y7.4725
G01 X33.2983 Y7.5517
G01 X33.3775 Y7.6702
G01 X33.4108 Y7.8372
G01 X33.4108 Y9.4828
G01 X33.3775 Y9.6498
G01 X33.2983 Y9.7683
G01 X33.1794 Y9.8478
G01 X33.1586 Y9.8535
G01 X33.1365 Y9.8616
G01 X33.1152 Y9.8715
G01 X33.0970 Y9.8818
G01 X33.0805 Y9.8928
G01 X33.0669 Y9.9033
G01 X33.0494 Y9.9190
G01 X33.0374 Y9.9314
G01 X33.0202 Y9.9524
G01 X33.0051 Y9.9749
G01 X32.9923 Y9.9989
G01 X32.9819 Y10.0240
G01 X32.9740 Y10.0500
G01 X32.9687 Y10.0766
G01 X32.9660 Y10.1036
G01 X32.9659 Y10.1271
G01 X32.9670 Y10.1443
G01 X32.9693 Y10.1614
G01 X32.9731 Y10.1808
G01 X32.9776 Y10.1975
G01 X32.9832 Y10.2138
G01 X32.9907 Y10.2321
G01 X33.0051 Y10.2594
G01 X33.0180 Y10.2790
G01 X33.0285 Y10.2927
G01 X33.0442 Y10.3102
G01 X33.0569 Y10.3225
G01 X33.3282 Y10.7285
G01 X33.4220 Y11.2000
G01 X33.3282 Y11.6715
G01 X33.0612 Y12.0712
G01 X32.8004 Y12.2456
G01 X32.7867 Y12.2561
G01 X32.7737 Y12.2675
G01 X32.7597 Y12.2815
G01 X32.7484 Y12.2945
G01 X32.7322 Y12.3163
G01 X32.7200 Y12.3364
G01 X32.7106 Y12.3550
G01 X32.7017 Y12.3768
G01 X32.6939 Y12.4028
G01 X32.6891 Y12.4258
G01 X32.6861 Y12.4528
G01 X32.6856 Y12.4737
G01 X32.6869 Y12.4971
G01 X32.6902 Y12.5204
G01 X32.6948 Y12.5408
G01 X32.7017 Y12.5632
G01 X32.7106 Y12.5850
G01 X32.7200 Y12.6036
G01 X32.7322 Y12.6237
G01 X32.7484 Y12.6455
G01 X32.7597 Y12.6585
G01 X32.7737 Y12.6725
G01 X32.7867 Y12.6839
G01 X32.8004 Y12.6944
G01 X33.0612 Y12.8688
G01 X33.3282 Y13.2685
G01 X33.4220 Y13.7400
G01 X33.3282 Y14.2115
G01 X33.0612 Y14.6112
G01 X32.8004 Y14.7856
G01 X32.7867 Y14.7961
G01 X32.7737 Y14.8075
G01 X32.7597 Y14.8215
G01 X32.7484 Y14.8345
G01 X32.7322 Y14.8563
G01 X32.7200 Y14.8764
G01 X32.7106 Y14.8950
G01 X32.7017 Y14.9168
G01 X32.6939 Y14.9428
G01 X32.6891 Y14.9658
G01 X32.6861 Y14.9928
G01 X32.6856 Y15.0137
G01 X32.6869 Y15.0371
G01 X32.6902 Y15.0604
G01 X32.6948 Y15.0808
G01 X32.7017 Y15.1032
G01 X32.7106 Y15.1250
G01 X32.7200 Y15.1436
G01 X32.7322 Y15.1637
G01 X32.7484 Y15.1855
G01 X32.7597 Y15.1985
G01 X32.7737 Y15.2125
G01 X32.7867 Y15.2239
G01 X32.8004 Y15.2344
G01 X33.0612 Y15.4088
G01 X33.3282 Y15.8085
G01 X33.4220 Y16.2800
G01 X33.3282 Y16.7515
G01 X33.0612 Y17.1512
G01 X32.7797 Y17.3395
G01 X32.7660 Y17.3500
G01 X32.7530 Y17.3614
G01 X32.7390 Y17.3754
G01 X32.7276 Y17.3884
G01 X32.7135 Y17.4072
G01 X32.7023 Y17.4249
G01 X32.6913 Y17.4457
G01 X32.6809 Y17.4708
G01 X32.6740 Y17.4933
G01 X32.6694 Y17.5138
G01 X32.6661 Y17.5370
G01 X32.6648 Y17.5642
G01 X32.6662 Y17.5913
G01 X32.6696 Y17.6146
G01 X32.6759 Y17.6411
G01 X32.6825 Y17.6609
G01 X32.6916 Y17.6826
G01 X32.7045 Y17.7065
G01 X32.7196 Y17.7291
G01 X32.7345 Y17.7474
G01 X32.7463 Y17.7599
G01 X32.7637 Y17.7758
G01 X32.7773 Y17.7865
G01 X32.7968 Y17.7996
G01 X32.8223 Y17.8135
G01 X32.9039 Y17.8519
G01 X33.2246 Y18.2037
G01 X33.3126 Y18.4163
G01 X33.1042 Y18.4163
G01 X33.0936 Y18.3926
G01 X33.0716 Y18.3488
G01 X33.0474 Y18.3061
G01 X33.0231 Y18.2677
G01 X32.9907 Y18.2216
G01 X32.9627 Y18.1859
G01 X32.9307 Y18.1487
G01 X32.8968 Y18.1132
G01 X32.8613 Y18.0793
G01 X32.8241 Y18.0473
G01 X32.7884 Y18.0193
G01 X32.7423 Y17.9869
G01 X32.7039 Y17.9626
G01 X32.6612 Y17.9384
G01 X32.6174 Y17.9164
G01 X32.5691 Y17.8951
G01 X32.5268 Y17.8788
G01 X32.4837 Y17.8645
G01 X32.4329 Y17.8503
G01 X32.3850 Y17.8396
G01 X32.3330 Y17.8307
G01 X32.2880 Y17.8252
G01 X32.2427 Y17.8218
G01 X32.1900 Y17.8204
G01 X32.1373 Y17.8218
G01 X32.0920 Y17.8252
G01 X32.0470 Y17.8307
G01 X31.9950 Y17.8396
G01 X31.9471 Y17.8503
G01 X31.8963 Y17.8645
G01 X31.8532 Y17.8788
G01 X31.8109 Y17.8951
G01 X31.7626 Y17.9164
G01 X31.7188 Y17.9384
G01 X31.6761 Y17.9626
G01 X31.6346 Y17.9889
G01 X31.5945 Y18.0171
G01 X31.5587 Y18.0450
G01 X31.5160 Y18.0818
G01 X31.4832 Y18.1132
G01 X31.4493 Y18.1487
G01 X31.4173 Y18.1859
G01 X31.3893 Y18.2216
G01 X31.3569 Y18.2677
G01 X31.3326 Y18.3061
G01 X31.3084 Y18.3488
G01 X31.2864 Y18.3926
G01 X31.2758 Y18.4163
G01 X31.0674 Y18.4163
G01 X31.1554 Y18.2037
G01 X31.4761 Y17.8519
G01 X31.5682 Y17.8082
G01 X31.5832 Y17.7996
G01 X31.6027 Y17.7865
G01 X31.6238 Y17.7693
G01 X31.6431 Y17.7501
G01 X31.6604 Y17.7291
G01 X31.6736 Y17.7097
G01 X31.6822 Y17.6947
G01 X31.6899 Y17.6793
G01 X31.6975 Y17.6609
G01 X31.7031 Y17.6446
G01 X31.7090 Y17.6218
G01 X31.7121 Y17.6048
G01 X31.7141 Y17.5877
G01 X31.7151 Y17.5679
G01 X31.7148 Y17.5506
G01 X31.7134 Y17.5334
G01 X31.7106 Y17.5138
G01 X31.7069 Y17.4969
G01 X31.7022 Y17.4803
G01 X31.6955 Y17.4616
G01 X31.6887 Y17.4457
G01 X31.6808 Y17.4304
G01 X31.6665 Y17.4072
G01 X31.6501 Y17.3856
G01 X31.6270 Y17.3614
G01 X31.6062 Y17.3439
G01 X31.5922 Y17.3338
G01 X31.3188 Y17.1512
G01 X31.1397 Y16.8836
G01 X31.1290 Y16.8701
G01 X31.1131 Y16.8528
G01 X31.1005 Y16.8410
G01 X31.0823 Y16.8262
G01 X31.0597 Y16.8111
G01 X31.0390 Y16.7999
G01 X31.0141 Y16.7892
G01 X30.9942 Y16.7826
G01 X30.9714 Y16.7771
G01 X30.7614 Y16.7353
G01 X30.6015 Y16.6285
G01 X30.5797 Y16.5967
G01 X30.5671 Y16.5814
G01 X30.5553 Y16.5688
G01 X29.5012 Y15.5147
G01 X29.4886 Y15.5029
G01 X29.4733 Y15.4903
G01 X29.4415 Y15.4685
G01 X29.3347 Y15.3086
G01 X29.2972 Y15.1200
G01 X29.3042 Y15.0821
G01 X29.3061 Y15.0624
G01 X29.3067 Y15.0470
G01 X29.3063 Y14.5912
G01 X29.3049 Y14.5740
G01 X29.3020 Y14.5544
G01 X29.2948 Y14.5245
G01 X29.2842 Y14.4955
G01 X29.2757 Y14.4776
G01 X29.2673 Y14.4626
G01 X29.2500 Y14.4371
G01 X29.2374 Y14.4218
G01 X29.2269 Y14.4105
G01 X28.6531 Y13.8366
G01 X28.6358 Y13.8207
G01 X28.6142 Y13.8043
G01 X28.5911 Y13.7900
G01 X28.5667 Y13.7781
G01 X28.5472 Y13.7705
G01 X28.5211 Y13.7630
G01 X28.4944 Y13.7581
G01 X28.4673 Y13.7558
G01 X28.4402 Y13.7561
G01 X28.4168 Y13.7586
G01 X28.3999 Y13.7616
G01 X28.3771 Y13.7675
G01 X28.3550 Y13.7753
G01 X28.3391 Y13.7821
G01 X28.3184 Y13.7931
G01 X28.3037 Y13.8022
G01 X28.2848 Y13.8161
G01 X28.2689 Y13.8297
G01 X28.2524 Y13.8464
G01 X28.2413 Y13.8596
G01 X28.2274 Y13.8785
G01 X28.2183 Y13.8932
G01 X28.2073 Y13.9139
G01 X28.2005 Y13.9298
G01 X28.1927 Y13.9519
G01 X28.1882 Y13.9686
G01 X28.1838 Y13.9916
G01 X28.1818 Y14.0088
G01 X28.1808 Y14.0286
G01 X28.1808 Y14.5828
G01 X28.1475 Y14.7498
G01 X28.1126 Y14.8028
G01 X28.1042 Y14.8178
G01 X28.0943 Y14.8391
G01 X28.0862 Y14.8612
G01 X28.0806 Y14.8813
G01 X28.0762 Y14.9044
G01 X28.0735 Y14.9314
G01 X28.0734 Y14.9549
G01 X28.0749 Y14.9758
G01 X28.0785 Y14.9990
G01 X28.0841 Y15.0218
G01 X28.0943 Y15.0509
G01 X28.1059 Y15.0754
G01 X28.1188 Y15.0972
G01 X28.1475 Y15.1402
G01 X28.1808 Y15.3072
G01 X28.1808 Y15.8528
G01 X28.1475 Y16.0198
G01 X28.1107 Y16.0759
G01 X28.0998 Y16.0967
G01 X28.0906 Y16.1183
G01 X28.0824 Y16.1442
G01 X28.0778 Y16.1646
G01 X28.0745 Y16.1879
G01 X28.0732 Y16.2150
G01 X28.0745 Y16.2421
G01 X28.0778 Y16.2654
G01 X28.0824 Y16.2858
G01 X28.0906 Y16.3117
G01 X28.0998 Y16.3333
G01 X28.1107 Y16.3541
G01 X28.1475 Y16.4102
G01 X28.1808 Y16.5772
G01 X28.1808 Y17.1228
G01 X28.1475 Y17.2898
G01 X28.1107 Y17.3459
G01 X28.0998 Y17.3667
G01 X28.0906 Y17.3883
G01 X28.0824 Y17.4142
G01 X28.0778 Y17.4346
G01 X28.0745 Y17.4579
G01 X28.0732 Y17.4850
G01 X28.0745 Y17.5121
G01 X28.0778 Y17.5354
G01 X28.0824 Y17.5558
G01 X28.0906 Y17.5817
G01 X28.0998 Y17.6033
G01 X28.1107 Y17.6241
G01 X28.1475 Y17.6802
G01 X28.1808 Y17.8472
G01 X28.1808 Y18.3928
G01 X28.1475 Y18.5598
G01 X28.1161 Y18.6079
G01 X28.1051 Y18.6287
G01 X28.0960 Y18.6503
G01 X28.0894 Y18.6702
G01 X28.0839 Y18.6930
G01 X28.0799 Y18.7199
G01 X28.0786 Y18.7433
G01 X28.0791 Y18.7642
G01 X28.0816 Y18.7876
G01 X28.0846 Y18.8045
G01 X28.0905 Y18.8273
G01 X28.0989 Y18.8511
G01 X28.1549 Y18.9863
G01 X27.9178 Y18.9863
G01 X27.9049 Y18.9744
G01 X27.8931 Y18.9656
G01 X27.8805 Y18.9581
G01 X27.8673 Y18.9518
G01 X27.8534 Y18.9468
G01 X27.8392 Y18.9433
G01 X27.8247 Y18.9411
G01 X27.8100 Y18.9404
G01 X25.8100 Y18.9404
G01 X25.7953 Y18.9411
G01 X25.7808 Y18.9433
G01 X25.7666 Y18.9468
G01 X25.7527 Y18.9518
G01 X25.7395 Y18.9581
G01 X25.7269 Y18.9656
G01 X25.7151 Y18.9744
G01 X25.7022 Y18.9863
G01 X25.4651 Y18.9863
G00 Z1.9990
G00 X25.7602 Y19.0859
G01 F80.00
G01 Z-2.4003
G01 F80.00
G01 X25.4071 Y19.0859
G01 X25.3521 Y19.0309
G01 X25.3521 Y18.9989
G01 X25.4315 Y18.8066
G01 X25.4365 Y18.7900
G01 X25.4397 Y18.7742
G01 X25.4411 Y18.7631
G01 X25.4418 Y18.7470
G01 X25.4410 Y18.7296
G01 X25.4384 Y18.7124
G01 X25.4342 Y18.6956
G01 X25.4284 Y18.6792
G01 X25.4215 Y18.6646
G01 X25.4160 Y18.6549
G01 X25.3786 Y18.5987
G01 X25.3396 Y18.4026
G01 X25.3396 Y17.8374
G01 X25.3786 Y17.6413
G01 X25.4214 Y17.5771
G01 X25.4332 Y17.5539
G01 X25.4396 Y17.5364
G01 X25.4438 Y17.5195
G01 X25.4463 Y17.5024
G01 X25.4472 Y17.4850
G01 X25.4463 Y17.4676
G01 X25.4438 Y17.4505
G01 X25.4396 Y17.4336
G01 X25.4332 Y17.4161
G01 X25.4214 Y17.3929
G01 X25.3786 Y17.3287
G01 X25.3396 Y17.1326
G01 X25.3396 Y16.5674
G01 X25.3786 Y16.3713
G01 X25.4214 Y16.3071
G01 X25.4332 Y16.2839
G01 X25.4396 Y16.2664
G01 X25.4438 Y16.2495
G01 X25.4463 Y16.2324
G01 X25.4472 Y16.2150
G01 X25.4463 Y16.1976
G01 X25.4438 Y16.1805
G01 X25.4396 Y16.1636
G01 X25.4332 Y16.1461
G01 X25.4214 Y16.1229
G01 X25.3786 Y16.0587
G01 X25.3396 Y15.8626
G01 X25.3396 Y15.2974
G01 X25.3786 Y15.1013
G01 X25.4214 Y15.0371
G01 X25.4332 Y15.0139
G01 X25.4396 Y14.9964
G01 X25.4438 Y14.9795
G01 X25.4463 Y14.9624
G01 X25.4472 Y14.9450
G01 X25.4463 Y14.9276
G01 X25.4438 Y14.9105
G01 X25.4396 Y14.8936
G01 X25.4332 Y14.8761
G01 X25.4214 Y14.8529
G01 X25.3786 Y14.7887
G01 X25.3396 Y14.5926
G01 X25.3396 Y14.0274
G01 X25.3786 Y13.8313
G01 X25.4214 Y13.7671
G01 X25.4332 Y13.7439
G01 X25.4396 Y13.7264
G01 X25.4438 Y13.7095
G01 X25.4463 Y13.6924
G01 X25.4472 Y13.6750
G01 X25.4463 Y13.6576
G01 X25.4438 Y13.6405
G01 X25.4396 Y13.6236
G01 X25.4332 Y13.6061
G01 X25.4214 Y13.5829
G01 X25.3786 Y13.5187
G01 X25.3396 Y13.3226
G01 X25.3396 Y12.7574
G01 X25.3786 Y12.5613
G01 X25.4214 Y12.4971
G01 X25.4332 Y12.4739
G01 X25.4396 Y12.4564
G01 X25.4438 Y12.4395
G01 X25.4463 Y12.4224
G01 X25.4472 Y12.4050
G01 X25.4463 Y12.3876
G01 X25.4438 Y12.3705
G01 X25.4396 Y12.3536
G01 X25.4332 Y12.3361
G01 X25.4214 Y12.3129
G01 X25.3786 Y12.2487
G01 X25.3396 Y12.0526
G01 X25.3396 Y11.4874
G01 X25.3786 Y11.2913
G01 X25.4214 Y11.2271
G01 X25.4332 Y11.2039
G01 X25.4396 Y11.1864
G01 X25.4438 Y11.1695
G01 X25.4463 Y11.1524
G01 X25.4472 Y11.1350
G01 X25.4463 Y11.1176
G01 X25.4438 Y11.1005
G01 X25.4396 Y11.0836
G01 X25.4332 Y11.0661
G01 X25.4214 Y11.0429
G01 X25.3786 Y10.9787
G01 X25.3396 Y10.7826
G01 X25.3396 Y10.2174
G01 X25.3786 Y10.0213
G01 X25.4214 Y9.9571
G01 X25.4332 Y9.9339
G01 X25.4396 Y9.9164
G01 X25.4438 Y9.8995
G01 X25.4463 Y9.8824
G01 X25.4472 Y9.8662
G01 X25.4463 Y9.8476
G01 X25.4438 Y9.8305
G01 X25.4396 Y9.8136
G01 X25.4332 Y9.7961
G01 X25.4214 Y9.7729
G01 X25.3786 Y9.7087
G01 X25.3396 Y9.5126
G01 X25.3396 Y8.9474
G01 X25.3786 Y8.7513
G01 X25.4798 Y8.5998
G01 X25.6313 Y8.4986
G01 X25.8274 Y8.4596
G01 X27.7926 Y8.4596
G01 X27.9887 Y8.4986
G01 X28.1662 Y8.6172
G01 X28.1800 Y8.6256
G01 X28.1968 Y8.6336
G01 X28.2143 Y8.6398
G01 X28.2373 Y8.6450
G01 X28.2558 Y8.6469
G01 X30.6926 Y8.6471
G01 X30.7099 Y8.6462
G01 X30.7259 Y8.6439
G01 X30.7368 Y8.6414
G01 X30.7522 Y8.6367
G01 X30.7760 Y8.6262
G01 X30.7980 Y8.6122
G01 X30.8178 Y8.5952
G01 X30.8348 Y8.5755
G01 X30.8487 Y8.5535
G01 X30.8593 Y8.5297
G01 X30.8640 Y8.5142
G01 X30.8664 Y8.5033
G01 X30.8688 Y8.4874
G01 X30.8696 Y8.4700
G01 X30.8696 Y7.8274
G01 X30.9086 Y7.6313
G01 X31.0098 Y7.4798
G01 X31.1613 Y7.3786
G01 X31.3574 Y7.3396
G01 X33.0226 Y7.3396
G01 X33.2187 Y7.3786
G01 X33.3702 Y7.4798
G01 X33.4714 Y7.6313
G01 X33.5104 Y7.8274
G01 X33.5104 Y9.4926
G01 X33.4714 Y9.6887
G01 X33.3702 Y9.8402
G01 X33.2187 Y9.9414
G01 X33.1910 Y9.9477
G01 X33.1758 Y9.9531
G01 X33.1656 Y9.9577
G01 X33.1430 Y9.9707
G01 X33.1301 Y9.9803
G01 X33.1181 Y9.9911
G01 X33.1055 Y10.0049
G01 X33.0945 Y10.0198
G01 X33.0829 Y10.0404
G01 X33.0757 Y10.0575
G01 X33.0706 Y10.0742
G01 X33.0671 Y10.0924
G01 X33.0655 Y10.1097
G01 X33.0661 Y10.1333
G01 X33.0690 Y10.1529
G01 X33.0757 Y10.1768
G01 X33.0829 Y10.1940
G01 X33.0945 Y10.2145
G01 X33.1009 Y10.2236
G01 X33.1112 Y10.2361
G01 X33.1226 Y10.2475
G01 X33.1320 Y10.2556
G01 X33.4220 Y10.6897
G01 X33.5236 Y11.2000
G01 X33.4220 Y11.7103
G01 X33.1330 Y12.1430
G01 X32.8634 Y12.3231
G01 X32.8499 Y12.3331
G01 X32.8379 Y12.3439
G01 X32.8254 Y12.3577
G01 X32.8150 Y12.3716
G01 X32.8061 Y12.3865
G01 X32.7982 Y12.4034
G01 X32.7908 Y12.4258
G01 X32.7873 Y12.4428
G01 X32.7854 Y12.4613
G01 X32.7854 Y12.4787
G01 X32.7871 Y12.4960
G01 X32.7905 Y12.5130
G01 X32.7955 Y12.5296
G01 X32.8022 Y12.5457
G01 X32.8104 Y12.5610
G01 X32.8200 Y12.5755
G01 X32.8310 Y12.5889
G01 X32.8433 Y12.6012
G01 X32.8639 Y12.6172
G01 X33.1330 Y12.7970
G01 X33.4220 Y13.2297
G01 X33.5236 Y13.7400
G01 X33.4220 Y14.2503
G01 X33.1330 Y14.6830
G01 X32.8634 Y14.8631
G01 X32.8499 Y14.8731
G01 X32.8379 Y14.8839
G01 X32.8254 Y14.8977
G01 X32.8150 Y14.9116
G01 X32.8061 Y14.9265
G01 X32.7982 Y14.9434
G01 X32.7928 Y14.9586
G01 X32.7884 Y14.9767
G01 X32.7855 Y15.0001
G01 X32.7853 Y15.0175
G01 X32.7871 Y15.0360
G01 X32.7905 Y15.0530
G01 X32.7955 Y15.0696
G01 X32.8022 Y15.0857
G01 X32.8104 Y15.1010
G01 X32.8200 Y15.1155
G01 X32.8310 Y15.1289
G01 X32.8433 Y15.1412
G01 X32.8639 Y15.1572
G01 X33.1330 Y15.3370
G01 X33.4220 Y15.7697
G01 X33.5236 Y16.2800
G01 X33.4220 Y16.7903
G01 X33.1330 Y17.2230
G01 X32.8432 Y17.4166
G01 X32.8226 Y17.4327
G01 X32.8103 Y17.4450
G01 X32.7985 Y17.4594
G01 X32.7890 Y17.4740
G01 X32.7784 Y17.4951
G01 X32.7720 Y17.5126
G01 X32.7678 Y17.5295
G01 X32.7653 Y17.5467
G01 X32.7645 Y17.5653
G01 X32.7653 Y17.5814
G01 X32.7679 Y17.5987
G01 X32.7722 Y17.6155
G01 X32.7776 Y17.6308
G01 X32.7850 Y17.6465
G01 X32.7905 Y17.6562
G01 X32.7995 Y17.6696
G01 X32.8114 Y17.6839
G01 X32.8295 Y17.7010
G01 X32.8425 Y17.7106
G01 X32.8520 Y17.7166
G01 X32.8663 Y17.7241
G01 X32.9642 Y17.7701
G01 X33.3099 Y18.1494
G01 X33.4361 Y18.4540
G01 X33.4034 Y18.5159
G01 X33.0371 Y18.5159
G01 X33.0215 Y18.4756
G01 X33.0041 Y18.4363
G01 X32.9837 Y18.3957
G01 X32.9620 Y18.3573
G01 X32.9390 Y18.3210
G01 X32.9121 Y18.2829
G01 X32.8857 Y18.2490
G01 X32.8569 Y18.2156
G01 X32.8264 Y18.1836
G01 X32.7953 Y18.1540
G01 X32.7600 Y18.1235
G01 X32.7261 Y18.0971
G01 X32.6910 Y18.0724
G01 X32.6516 Y18.0474
G01 X32.6143 Y18.0263
G01 X32.5748 Y18.0064
G01 X32.5333 Y17.9881
G01 X32.4932 Y17.9726
G01 X32.4513 Y17.9588
G01 X32.4075 Y17.9467
G01 X32.3656 Y17.9373
G01 X32.3221 Y17.9297
G01 X32.2770 Y17.9242
G01 X32.2342 Y17.9211
G01 X32.1900 Y17.9200
G01 X32.1458 Y17.9211
G01 X32.1030 Y17.9242
G01 X32.0579 Y17.9297
G01 X32.0144 Y17.9373
G01 X31.9725 Y17.9467
G01 X31.9287 Y17.9588
G01 X31.8868 Y17.9726
G01 X31.8467 Y17.9881
G01 X31.8052 Y18.0064
G01 X31.7657 Y18.0263
G01 X31.7284 Y18.0474
G01 X31.6890 Y18.0724
G01 X31.6539 Y18.0971
G01 X31.6190 Y18.1243
G01 X31.5856 Y18.1531
G01 X31.5545 Y18.1827
G01 X31.5223 Y18.2165
G01 X31.4943 Y18.2490
G01 X31.4679 Y18.2829
G01 X31.4410 Y18.3210
G01 X31.4180 Y18.3573
G01 X31.3963 Y18.3957
G01 X31.3759 Y18.4363
G01 X31.3585 Y18.4756
G01 X31.3429 Y18.5159
G01 X30.9766 Y18.5159
G01 X30.9439 Y18.4540
G01 X31.0701 Y18.1494
G01 X31.4158 Y17.7701
G01 X31.5143 Y17.7238
G01 X31.5291 Y17.7160
G01 X31.5436 Y17.7063
G01 X31.5562 Y17.6961
G01 X31.5643 Y17.6885
G01 X31.5759 Y17.6755
G01 X31.5902 Y17.6552
G01 X31.6019 Y17.6319
G01 X31.6102 Y17.6071
G01 X31.6147 Y17.5814
G01 X31.6153 Y17.5554
G01 X31.6122 Y17.5295
G01 X31.6052 Y17.5043
G01 X31.5947 Y17.4805
G01 X31.5851 Y17.4645
G01 X31.5705 Y17.4459
G01 X31.5574 Y17.4327
G01 X31.5440 Y17.4216
G01 X31.2470 Y17.2230
G01 X31.0604 Y16.9439
G01 X31.0535 Y16.9351
G01 X31.0426 Y16.9232
G01 X31.0229 Y16.9062
G01 X31.0085 Y16.8965
G01 X30.9931 Y16.8883
G01 X30.9771 Y16.8817
G01 X30.9605 Y16.8767
G01 X30.7225 Y16.8291
G01 X30.5297 Y16.7003
G01 X30.5019 Y16.6590
G01 X30.4853 Y16.6397
G01 X29.4307 Y15.5851
G01 X29.4110 Y15.5681
G01 X29.3697 Y15.5403
G01 X29.2409 Y15.3474
G01 X29.1956 Y15.1200
G01 X29.2051 Y15.0711
G01 X29.2070 Y15.0464
G01 X29.2071 Y14.6042
G01 X29.2053 Y14.5800
G01 X29.2018 Y14.5618
G01 X29.1940 Y14.5382
G01 X29.1856 Y14.5203
G01 X29.1722 Y14.4993
G01 X29.1556 Y14.4800
G01 X28.5763 Y13.9010
G01 X28.5629 Y13.8900
G01 X28.5485 Y13.8804
G01 X28.5331 Y13.8722
G01 X28.5159 Y13.8651
G01 X28.4932 Y13.8588
G01 X28.4760 Y13.8562
G01 X28.4574 Y13.8552
G01 X28.4413 Y13.8559
G01 X28.4302 Y13.8573
G01 X28.4144 Y13.8605
G01 X28.3897 Y13.8687
G01 X28.3664 Y13.8804
G01 X28.3530 Y13.8893
G01 X28.3442 Y13.8962
G01 X28.3254 Y13.9143
G01 X28.3152 Y13.9268
G01 X28.3062 Y13.9402
G01 X28.3007 Y13.9499
G01 X28.2939 Y13.9645
G01 X28.2857 Y13.9892
G01 X28.2821 Y14.0075
G01 X28.2804 Y14.0316
G01 X28.2804 Y14.5926
G01 X28.2414 Y14.7887
G01 X28.2020 Y14.8477
G01 X28.1898 Y14.8693
G01 X28.1832 Y14.8853
G01 X28.1781 Y14.9020
G01 X28.1747 Y14.9190
G01 X28.1730 Y14.9375
G01 X28.1731 Y14.9549
G01 X28.1760 Y14.9783
G01 X28.1804 Y14.9964
G01 X28.1863 Y15.0128
G01 X28.1931 Y15.0274
G01 X28.1986 Y15.0371
G01 X28.2414 Y15.1013
G01 X28.2804 Y15.2974
G01 X28.2804 Y15.8626
G01 X28.2414 Y16.0587
G01 X28.1986 Y16.1229
G01 X28.1868 Y16.1461
G01 X28.1804 Y16.1636
G01 X28.1762 Y16.1805
G01 X28.1737 Y16.1976
G01 X28.1728 Y16.2150
G01 X28.1737 Y16.2324
G01 X28.1762 Y16.2495
G01 X28.1804 Y16.2664
G01 X28.1868 Y16.2839
G01 X28.1986 Y16.3071
G01 X28.2414 Y16.3713
G01 X28.2804 Y16.5674
G01 X28.2804 Y17.1326
G01 X28.2414 Y17.3287
G01 X28.1986 Y17.3929
G01 X28.1868 Y17.4161
G01 X28.1804 Y17.4336
G01 X28.1762 Y17.4505
G01 X28.1737 Y17.4676
G01 X28.1728 Y17.4850
G01 X28.1737 Y17.5024
G01 X28.1762 Y17.5195
G01 X28.1804 Y17.5364
G01 X28.1868 Y17.5539
G01 X28.1986 Y17.5771
G01 X28.2414 Y17.6413
G01 X28.2804 Y17.8374
G01 X28.2804 Y18.4026
G01 X28.2414 Y18.5987
G01 X28.2040 Y18.6549
G01 X28.1985 Y18.6646
G01 X28.1916 Y18.6792
G01 X28.1858 Y18.6956
G01 X28.1816 Y18.7124
G01 X28.1790 Y18.7296
G01 X28.1782 Y18.7470
G01 X28.1789 Y18.7631
G01 X28.1803 Y18.7742
G01 X28.1835 Y18.7900
G01 X28.1885 Y18.8066
G01 X28.2679 Y18.9989
G01 X28.2679 Y19.0309
G01 X28.2129 Y19.0859
G01 X27.8598 Y19.0859
G01 X27.8585 Y19.0779
G01 X27.8552 Y19.0686
G01 X27.8502 Y19.0602
G01 X27.8436 Y19.0530
G01 X27.8357 Y19.0471
G01 X27.8268 Y19.0429
G01 X27.8173 Y19.0405
G01 X27.8100 Y19.0400
G01 X25.8100 Y19.0400
G01 X25.8027 Y19.0405
G01 X25.7932 Y19.0429
G01 X25.7843 Y19.0471
G01 X25.7764 Y19.0530
G01 X25.7698 Y19.0602
G01 X25.7648 Y19.0686
G01 X25.7615 Y19.0779
G01 X25.7602 Y19.0859
G00 Z1.9990
G00 X25.7602 Y19.6941
G01 F80.00
G01 Z-2.4003
G01 F80.00
G01 X25.7615 Y19.7021
G01 X25.7648 Y19.7114
G01 X25.7698 Y19.7198
G01 X25.7746 Y19.7254
G01 X25.7822 Y19.7316
G01 X25.7909 Y19.7362
G01 X25.8002 Y19.7390
G01 X25.8075 Y19.7399
G01 X26.5059 Y19.7400
G01 X26.5059 Y20.0929
G01 X26.4509 Y20.1479
G01 X25.7189 Y20.1479
G01 X25.5506 Y20.0782
G01 X25.4218 Y19.9494
G01 X25.3521 Y19.7811
G01 X25.3521 Y19.7491
G01 X25.4071 Y19.6941
G01 X25.7602 Y19.6941
G00 Z1.9990
G00 X25.4651 Y19.7937
G01 F80.00
G01 Z-2.4003
G01 F80.00
G01 X25.7022 Y19.7937
G01 X25.7095 Y19.8009
G01 X25.7209 Y19.8102
G01 X25.7331 Y19.8183
G01 X25.7460 Y19.8252
G01 X25.7596 Y19.8309
G01 X25.7736 Y19.8351
G01 X25.7880 Y19.8380
G01 X25.8027 Y19.8394
G01 X26.4063 Y19.8396
G01 X26.4063 Y20.0483
G01 X25.7387 Y20.0483
G01 X25.6070 Y19.9938
G01 X25.5062 Y19.8930
G01 X25.4651 Y19.7937
G00 Z1.9990
G00 X27.2137 Y20.0483
G01 F80.00
G01 Z-2.4003
G01 F80.00
G01 X27.2137 Y19.8396
G01 X27.8173 Y19.8394
G01 X27.8320 Y19.8380
G01 X27.8464 Y19.8351
G01 X27.8604 Y19.8309
G01 X27.8740 Y19.8252
G01 X27.8869 Y19.8183
G01 X27.8991 Y19.8102
G01 X27.9105 Y19.8009
G01 X27.9178 Y19.7937
G01 X28.1549 Y19.7937
G01 X28.1138 Y19.8930
G01 X28.0130 Y19.9938
G01 X27.8813 Y20.0483
G01 X27.2137 Y20.0483
G00 Z1.9990
G00 X27.8125 Y19.7399
G01 F80.00
G01 Z-2.4003
G01 F80.00
G01 X27.8198 Y19.7390
G01 X27.8291 Y19.7362
G01 X27.8378 Y19.7316
G01 X27.8454 Y19.7254
G01 X27.8502 Y19.7198
G01 X27.8552 Y19.7114
G01 X27.8585 Y19.7021
G01 X27.8598 Y19.6941
G01 X28.2129 Y19.6941
G01 X28.2679 Y19.7491
G01 X28.2679 Y19.7811
G01 X28.1982 Y19.9494
G01 X28.0694 Y20.0782
G01 X27.9011 Y20.1479
G01 X27.1691 Y20.1479
G01 X27.1141 Y20.0929
G01 X27.1141 Y19.7400
G01 X27.8125 Y19.7399
G00 Z1.9990
G00 X25.8075 Y17.7701
G01 F80.00
G01 Z-2.4003
G01 F80.00
G01 X27.8100 Y17.7700
G01 X27.8173 Y17.7705
G01 X27.8245 Y17.7722
G01 X27.8314 Y17.7748
