(G-CODE GENERATED BY FLATCAM v8.96 - www.flatcam.org - Version Date: 2019/08/23)

(Name: jebaoDosingAdapter.drl_cnc)
(Type: G-code from Excellon)
(Units: MM)

(Created on Sunday, 08 September 2019 at 11:28)

(Feedrate: 79.9998 mm/min)
(Feedrate rapids 800.0009 mm/min)

(Z_Cut: -1.7 mm)
(Z_Move: 1.999 mm)
(Z Toolchange: 12.7 mm)
(X,Y Toolchange: 0.0000, 0.0000 mm)
(Z Start: None mm)
(Z End: 12.7 mm)
(Steps per circle: 128)
(Postprocessor Excellon: default)

(X range:    5.4292 ...   33.5509  mm)
(Y range:    3.9395 ...   22.5285  mm)

(Spindle Speed: None RPM)

G21
G90
G94

G01 F80.00
G00 Z1.9990

M03 S1000
G00 X8.8595 Y16.9596
G01 Z-1.7000
G01 Z0
G00 Z1.9990
G00 X8.8595 Y15.0597
G01 Z-1.7000
G01 Z0
G00 Z1.9990
G00 X8.8595 Y13.1597
G01 Z-1.7000
G01 Z0
G00 Z1.9990
G00 X11.1608 Y14.3104
G01 Z-1.7000
G01 Z0
G00 Z1.9990
G00 X11.1608 Y16.2103
G01 Z-1.7000
G01 Z0
G00 Z1.9990
G00 X11.1608 Y18.1102
G01 Z-1.7000
G01 Z0
G00 Z1.9990
M05
G00 Z12.70
G00 X0.0 Y0.0

M02