(G-CODE GENERATED BY FLATCAM v8.96 - www.flatcam.org - Version Date: 2019/08/23)

(Name: jebaoDosingAdapter-PTH.drl_cnc)
(Type: G-code from Excellon)
(Units: MM)

(Created on Friday, 06 September 2019 at 22:21)

(Feedrate: 79.9998 mm/min)
(Feedrate rapids 800.0009 mm/min)

(Z_Cut: -1.5011 mm)
(Z_Move: 1.999 mm)
(Z Toolchange: 12.7 mm)
(X,Y Toolchange: 0.0000, 0.0000 mm)
(Z Start: None mm)
(Z End: 12.7 mm)
(Steps per circle: 128)
(Postprocessor Excellon: default)

(X range:    9.3891 ...   32.6898  mm)
(Y range:    3.0886 ...   19.3192  mm)

(Spindle Speed: None RPM)

G21
G90
G94

G01 F80.00

M5
G00 Z12.7000
G00 X0.0000 Y0.0000                
T1
M6
(MSG, Change to Tool Dia = 0.76 ||| Total drills for tool T1 = 6)
M0

M03
G00 X9.7688 Y16.6091
G01 Z-1.5011
G01 Z0
G00 Z1.9990
G00 X12.3088 Y15.3391
G01 Z-1.5011
G01 Z0
G00 Z1.9990
G00 X12.3088 Y12.7991
G01 Z-1.5011
G01 Z0
G00 Z1.9990
G00 X12.3088 Y10.2591
G01 Z-1.5011
G01 Z0
G00 Z1.9990
G00 X9.7688 Y11.5291
G01 Z-1.5011
G01 Z0
G00 Z1.9990
G00 X9.7688 Y14.0691
G01 Z-1.5011
G01 Z0
G00 Z1.9990

M5
G00 Z12.7000
G00 X0.0000 Y0.0000                
T2
M6
(MSG, Change to Tool Dia = 1.00 ||| Total drills for tool T2 = 7)
M0

M03
G00 X21.9304 Y3.5890
G01 Z-1.5011
G01 Z0
G00 Z1.9990
G00 X24.4704 Y3.5890
G01 Z-1.5011
G01 Z0
G00 Z1.9990
G00 X32.1894 Y8.6589
G01 Z-1.5011
G01 Z0
G00 Z1.9990
G00 X32.1894 Y11.1989
G01 Z-1.5011
G01 Z0
G00 Z1.9990
G00 X32.1894 Y13.7389
G01 Z-1.5011
G01 Z0
G00 Z1.9990
G00 X32.1894 Y16.2789
G01 Z-1.5011
G01 Z0
G00 Z1.9990
G00 X32.1894 Y18.8189
G01 Z-1.5011
G01 Z0
G00 Z1.9990
M05
G00 Z12.70
G00 X0.0 Y0.0

M02