(G-CODE GENERATED BY FLATCAM v8.96 - www.flatcam.org - Version Date: 2019/08/23)

(Name: jebaoDosingAdapter.drl_cnc_1)
(Type: G-code from Excellon)
(Units: MM)

(Created on Sunday, 08 September 2019 at 11:28)

(Feedrate: 79.9998 mm/min)
(Feedrate rapids 800.0009 mm/min)

(Z_Cut: -1.7 mm)
(Z_Move: 1.999 mm)
(Z Toolchange: 12.7 mm)
(X,Y Toolchange: 0.0000, 0.0000 mm)
(Z Start: None mm)
(Z End: 12.7 mm)
(Steps per circle: 128)
(Postprocessor Excellon: default)

(X range:    5.4292 ...   33.5509  mm)
(Y range:    3.9395 ...   22.5285  mm)

(Spindle Speed: None RPM)

G21
G90
G94

G01 F80.00
G00 Z1.9990

M03 S1000
G00 X33.0505 Y20.6400
G01 Z-1.7000
G01 Z0
G00 Z1.9990
G00 X33.0505 Y18.1000
G01 Z-1.7000
G01 Z0
G00 Z1.9990
G00 X33.0505 Y15.5600
G01 Z-1.7000
G01 Z0
G00 Z1.9990
G00 X33.0505 Y13.0200
G01 Z-1.7000
G01 Z0
G00 Z1.9990
G00 X33.0505 Y10.4800
G01 Z-1.7000
G01 Z0
G00 Z1.9990
G00 X25.3289 Y5.4102
G01 Z-1.7000
G01 Z0
G00 Z1.9990
G00 X22.7889 Y5.4102
G01 Z-1.7000
G01 Z0
G00 Z1.9990
M03
G00 X6.4287 Y21.5290
G01 Z-1.7000
G01 Z0
G00 Z1.9990
G00 X6.4287 Y9.5301
G01 Z-1.7000
G01 Z0
G00 Z1.9990
M03
G00 X31.2598 Y5.5397
G01 Z-1.7000
G01 Z0
G00 Z1.9990
M05
G00 Z12.70
G00 X0.0 Y0.0

M02