(G-CODE GENERATED BY FLATCAM v8.96 - www.flatcam.org - Version Date: 2019/08/23)

(Name: jebaoDosingAdapter-F_Cu.gbr_iso_1_cnc_2)
(Type: G-code from Geometry)
(Units: MM)

(Created on Sunday, 08 September 2019 at 12:06)

(TOOL DIAMETER: 0.13 mm)
(Feedrate: 200.0 mm/min)
(Feedrate_Z: 79.9998 mm/min)
(Feedrate rapids 79.9998 mm/min)

(Z_Cut: -0.07 mm)
(Z_Move: 1.999 mm)
(Z Toolchange: 12.7 mm)
(X,Y Toolchange: 0.0000, 0.0000 mm)
(Z Start: None mm)
(Z End: 12.7 mm)
(Steps per circle: 128)
(Postprocessor Geometry: default)

(X range:    4.0832 ...   37.1971  mm)
(Y range:    2.0929 ...   26.6771  mm)

(Spindle Speed: 1000 RPM)

G21
G90
G94

G01 F200.00
G00 Z1.9990

M03 S1000
G00 X4.9871 Y9.6721
G01 F80.00
G01 Z-0.0700
G01 F200.00
G01 X4.9871 Y9.3879
G01 X5.0425 Y9.1091
G01 X5.1513 Y8.8465
G01 X5.3092 Y8.6102
G01 X5.5102 Y8.4092
G01 X5.7465 Y8.2513
G01 X6.0091 Y8.1425
G01 X6.2879 Y8.0871
G01 X6.5721 Y8.0871
G01 X6.8509 Y8.1425
G01 X7.1135 Y8.2513
G01 X7.3498 Y8.4092
G01 X7.5508 Y8.6102
G01 X7.7087 Y8.8465
G01 X7.8175 Y9.1091
G01 X7.8729 Y9.3879
G01 X7.8729 Y9.6721
G01 X7.8175 Y9.9509
G01 X7.7087 Y10.2135
G01 X7.5508 Y10.4498
G01 X7.3498 Y10.6508
G01 X7.1135 Y10.8087
G01 X6.8509 Y10.9175
G01 X6.5721 Y10.9729
G01 X6.2879 Y10.9729
G01 X6.0091 Y10.9175
G01 X5.7465 Y10.8087
G01 X5.5102 Y10.6508
G01 X5.3092 Y10.4498
G01 X5.1513 Y10.2135
G01 X5.0425 Y9.9509
G01 X4.9871 Y9.6721
G00 Z1.9990
G00 X5.0846 Y9.6625
G01 F80.00
G01 Z-0.0700
G01 F200.00
G01 X5.0846 Y9.3975
G01 X5.1363 Y9.1376
G01 X5.2377 Y8.8927
G01 X5.3849 Y8.6723
G01 X5.5723 Y8.4849
G01 X5.7927 Y8.3377
G01 X6.0376 Y8.2363
G01 X6.2975 Y8.1846
G01 X6.5625 Y8.1846
G01 X6.8224 Y8.2363
G01 X7.0673 Y8.3377
G01 X7.2877 Y8.4849
G01 X7.4751 Y8.6723
G01 X7.6223 Y8.8927
G01 X7.7237 Y9.1376
G01 X7.7754 Y9.3975
G01 X7.7754 Y9.6625
G01 X7.7237 Y9.9224
G01 X7.6223 Y10.1673
G01 X7.4751 Y10.3877
G01 X7.2877 Y10.5751
G01 X7.0673 Y10.7223
G01 X6.8224 Y10.8237
G01 X6.5625 Y10.8754
G01 X6.2975 Y10.8754
G01 X6.0376 Y10.8237
G01 X5.7927 Y10.7223
G01 X5.5723 Y10.5751
G01 X5.3849 Y10.3877
G01 X5.2377 Y10.1673
G01 X5.1363 Y9.9224
G01 X5.0846 Y9.6625
G00 Z1.9990
G00 X5.1821 Y9.6529
G01 F80.00
G01 Z-0.0700
G01 F200.00
G01 X5.1821 Y9.4071
G01 X5.2300 Y9.1660
G01 X5.3241 Y8.9389
G01 X5.4607 Y8.7345
G01 X5.6345 Y8.5607
G01 X5.8389 Y8.4241
G01 X6.0660 Y8.3300
G01 X6.3071 Y8.2821
G01 X6.5529 Y8.2821
G01 X6.7940 Y8.3300
G01 X7.0211 Y8.4241
G01 X7.2255 Y8.5607
G01 X7.3993 Y8.7345
G01 X7.5359 Y8.9389
G01 X7.6300 Y9.1660
G01 X7.6779 Y9.4071
G01 X7.6779 Y9.6529
G01 X7.6300 Y9.8940
G01 X7.5359 Y10.1211
G01 X7.3993 Y10.3255
G01 X7.2255 Y10.4993
G01 X7.0211 Y10.6359
G01 X6.7940 Y10.7300
G01 X6.5529 Y10.7779
G01 X6.3071 Y10.7779
G01 X6.0660 Y10.7300
G01 X5.8389 Y10.6359
G01 X5.6345 Y10.4993
G01 X5.4607 Y10.3255
G01 X5.3241 Y10.1211
G01 X5.2300 Y9.8940
G01 X5.1821 Y9.6529
G00 Z1.9990
G00 X8.9621 Y12.2559
G01 F80.00
G01 Z-0.0700
G01 F200.00
G01 X8.9936 Y12.2488
G01 X9.0298 Y12.2372
G01 X9.0640 Y12.2224
G01 X9.0906 Y12.2080
G01 X9.0321 Y12.2665
G01 X8.9998 Y12.2609
G01 X8.9621 Y12.2559
G00 Z1.9990
G00 X8.1458 Y13.1935
G01 F80.00
G01 Z-0.0700
G01 F200.00
G01 X8.1450 Y13.1600
G01 X8.1460 Y13.1233
G01 X8.1486 Y13.0887
G01 X8.1530 Y13.0535
G01 X8.1588 Y13.0204
G01 X8.1661 Y12.9878
G01 X8.1753 Y12.9540
G01 X8.1863 Y12.9206
G01 X8.1988 Y12.8879
G01 X8.2143 Y12.8530
G01 X8.2302 Y12.8216
G01 X8.2474 Y12.7913
G01 X8.2664 Y12.7615
G01 X8.2859 Y12.7338
G01 X8.3081 Y12.7055
G01 X8.3313 Y12.6787
G01 X8.3556 Y12.6533
G01 X8.3787 Y12.6313
G01 X8.4052 Y12.6083
G01 X8.4338 Y12.5859
G01 X8.4641 Y12.5646
G01 X8.4911 Y12.5476
G01 X8.5216 Y12.5302
G01 X8.5557 Y12.5130
G01 X8.5871 Y12.4991
G01 X8.6176 Y12.4874
G01 X8.6509 Y12.4763
G01 X8.6878 Y12.4661
G01 X8.7204 Y12.4588
G01 X8.7535 Y12.4530
G01 X8.7915 Y12.4483
G01 X8.8233 Y12.4460
G01 X8.8584 Y12.4450
G01 X8.8935 Y12.4458
G01 X8.9317 Y12.4486
G01 X8.9665 Y12.4530
G01 X8.9996 Y12.4588
G01 X9.0353 Y12.4668
G01 X9.0660 Y12.4753
G01 X9.0909 Y12.4835
G01 X9.4092 Y12.1656
G01 X9.4340 Y12.1451
G01 X9.4586 Y12.1285
G01 X9.4858 Y12.1138
G01 X9.5032 Y12.1062
G01 X16.4222 Y5.1872
G01 X16.4346 Y5.1755
G01 X16.4570 Y5.1571
G01 X16.4713 Y5.1471
G01 X16.4951 Y5.1329
G01 X16.5259 Y5.1183
G01 X16.5403 Y5.1128
G01 X16.5669 Y5.1047
G01 X16.6003 Y5.0981
G01 X16.6279 Y5.0954
G01 X16.6450 Y5.0949
G01 X21.8750 Y5.0949
G01 X21.8753 Y4.5540
G01 X21.8775 Y4.5421
G01 X21.8806 Y4.5336
G01 X21.8851 Y4.5252
G01 X21.8908 Y4.5175
G01 X21.8975 Y4.5108
G01 X21.9052 Y4.5051
G01 X21.9136 Y4.5006
G01 X21.9221 Y4.4975
G01 X21.9310 Y4.4956
G01 X21.9400 Y4.4950
G01 X23.6400 Y4.4950
G01 X23.6490 Y4.4956
G01 X23.6579 Y4.4975
G01 X23.6721 Y4.5035
G01 X23.6800 Y4.5088
G01 X23.6871 Y4.5152
G01 X23.6965 Y4.5279
G01 X23.7025 Y4.5421
G01 X23.7044 Y4.5510
G01 X23.7050 Y4.5600
G01 X23.7050 Y6.2600
G01 X23.7039 Y6.2720
G01 X23.7016 Y6.2808
G01 X23.6980 Y6.2893
G01 X23.6931 Y6.2975
G01 X23.6871 Y6.3048
G01 X23.6800 Y6.3112
G01 X23.6721 Y6.3165
G01 X23.6636 Y6.3206
G01 X23.6550 Y6.3233
G01 X23.6460 Y6.3247
G01 X23.1051 Y6.3250
G01 X23.1051 Y19.3000
G01 X23.1037 Y19.3293
G01 X23.1015 Y19.3478
G01 X23.0960 Y19.3750
G01 X23.0872 Y19.4047
G01 X23.0805 Y19.4221
G01 X23.0687 Y19.4471
G01 X23.0595 Y19.4634
G01 X23.0429 Y19.4880
G01 X23.0326 Y19.5011
G01 X23.0139 Y19.5217
G01 X21.1028 Y21.4328
G01 X21.0904 Y21.4445
G01 X21.0680 Y21.4629
G01 X21.0537 Y21.4729
G01 X21.0299 Y21.4871
G01 X20.9991 Y21.5017
G01 X20.9847 Y21.5072
G01 X20.9581 Y21.5153
G01 X20.9247 Y21.5219
G01 X20.9093 Y21.5237
G01 X20.8816 Y21.5251
G01 X19.3332 Y21.5251
G01 X19.3294 Y21.5364
G01 X19.3249 Y21.5448
G01 X19.3171 Y21.5548
G01 X19.3100 Y21.5612
G01 X19.3021 Y21.5665
G01 X19.2908 Y21.5716
G01 X19.2820 Y21.5739
G01 X19.2700 Y21.5750
G01 X17.2700 Y21.5750
G01 X17.2610 Y21.5744
G01 X17.2492 Y21.5716
G01 X17.2407 Y21.5680
G01 X17.2325 Y21.5631
G01 X17.2229 Y21.5548
G01 X17.2151 Y21.5448
G01 X17.2106 Y21.5364
G01 X17.2067 Y21.5250
G01 X17.2053 Y21.5160
G01 X17.2051 Y20.9070
G01 X17.2067 Y20.8950
G01 X17.2106 Y20.8836
G01 X17.2169 Y20.8725
G01 X17.2252 Y20.8629
G01 X17.2352 Y20.8551
G01 X17.2464 Y20.8494
G01 X17.2580 Y20.8461
G01 X17.2700 Y20.8450
G01 X19.2700 Y20.8450
G01 X19.2820 Y20.8461
G01 X19.2908 Y20.8484
G01 X19.3021 Y20.8535
G01 X19.3100 Y20.8588
G01 X19.3192 Y20.8675
G01 X19.3249 Y20.8752
G01 X19.3294 Y20.8836
G01 X19.3332 Y20.8949
G01 X20.7495 Y20.8949
G01 X22.4749 Y19.1695
G01 X22.4749 Y6.3250
G01 X21.9370 Y6.3249
G01 X21.9250 Y6.3233
G01 X21.9136 Y6.3194
G01 X21.9052 Y6.3149
G01 X21.8952 Y6.3071
G01 X21.8869 Y6.2975
G01 X21.8806 Y6.2864
G01 X21.8767 Y6.2750
G01 X21.8751 Y6.2630
G01 X21.8750 Y5.7251
G01 X16.7755 Y5.7251
G01 X9.8798 Y12.6208
G01 X9.8557 Y12.6426
G01 X9.8307 Y12.6609
G01 X9.8041 Y12.6767
G01 X9.7758 Y12.6898
G01 X9.5365 Y12.9291
G01 X9.5447 Y12.9540
G01 X9.5539 Y12.9878
G01 X9.5612 Y13.0204
G01 X9.5670 Y13.0535
G01 X9.5717 Y13.0915
G01 X9.5742 Y13.1265
G01 X9.5750 Y13.1600
G01 X9.5742 Y13.1935
G01 X9.5717 Y13.2285
G01 X9.5670 Y13.2665
G01 X9.5612 Y13.2996
G01 X9.5539 Y13.3322
G01 X9.5447 Y13.3660
G01 X9.5365 Y13.3909
G01 X10.1446 Y13.9996
G01 X10.1621 Y14.0210
G01 X10.1729 Y14.0363
G01 X10.1871 Y14.0601
G01 X10.1942 Y14.0740
G01 X10.2017 Y14.0909
G01 X10.2111 Y14.1170
G01 X10.2194 Y14.1501
G01 X10.2237 Y14.1807
G01 X10.2251 Y14.2100
G01 X10.2251 Y16.7295
G01 X10.9291 Y17.4335
G01 X10.9540 Y17.4253
G01 X10.9878 Y17.4161
G01 X11.0204 Y17.4088
G01 X11.0567 Y17.4025
G01 X11.0915 Y17.3983
G01 X11.1265 Y17.3958
G01 X11.1600 Y17.3950
G01 X11.1967 Y17.3960
G01 X11.2313 Y17.3986
G01 X11.2665 Y17.4030
G01 X11.2996 Y17.4088
G01 X11.3353 Y17.4168
G01 X11.3691 Y17.4263
G01 X11.4024 Y17.4374
G01 X11.4329 Y17.4491
G01 X11.4670 Y17.4643
G01 X11.4984 Y17.4802
G01 X11.5287 Y17.4974
G01 X11.5585 Y17.5164
G01 X11.5862 Y17.5359
G01 X11.6145 Y17.5581
G01 X11.6413 Y17.5813
G01 X11.6656 Y17.6044
G01 X11.6908 Y17.6310
G01 X11.7137 Y17.6577
G01 X11.7341 Y17.6838
G01 X11.7554 Y17.7141
G01 X11.7741 Y17.7438
G01 X11.7913 Y17.7744
G01 X11.8070 Y17.8057
G01 X11.8209 Y17.8371
G01 X11.8337 Y17.8706
G01 X11.8447 Y17.9040
G01 X11.8539 Y17.9378
G01 X11.8612 Y17.9704
G01 X11.8670 Y18.0035
G01 X11.8717 Y18.0415
G01 X11.8742 Y18.0765
G01 X11.8750 Y18.1100
G01 X11.8740 Y18.1467
G01 X11.8714 Y18.1813
G01 X11.8675 Y18.2133
G01 X11.8616 Y18.2479
G01 X11.8532 Y18.2853
G01 X11.8437 Y18.3191
G01 X11.8326 Y18.3524
G01 X11.8209 Y18.3829
G01 X11.8057 Y18.4170
G01 X11.7898 Y18.4484
G01 X11.7726 Y18.4787
G01 X11.7536 Y18.5085
G01 X11.7341 Y18.5362
G01 X11.7119 Y18.5645
G01 X11.6908 Y18.5890
G01 X11.6656 Y18.6156
G01 X11.6413 Y18.6387
G01 X11.6123 Y18.6637
G01 X11.5862 Y18.6841
G01 X11.5585 Y18.7036
G01 X11.5289 Y18.7224
G01 X11.4984 Y18.7398
G01 X11.4643 Y18.7570
G01 X11.4329 Y18.7709
G01 X11.4024 Y18.7826
G01 X11.3691 Y18.7937
G01 X11.3353 Y18.8032
G01 X11.2979 Y18.8116
G01 X11.2633 Y18.8175
G01 X11.2285 Y18.8217
G01 X11.1967 Y18.8240
G01 X11.1616 Y18.8250
G01 X11.1233 Y18.8240
G01 X11.0887 Y18.8214
G01 X11.0567 Y18.8175
G01 X11.0189 Y18.8109
G01 X10.9878 Y18.8039
G01 X10.9540 Y18.7947
G01 X10.9176 Y18.7826
G01 X10.8871 Y18.7709
G01 X10.8530 Y18.7557
G01 X10.8244 Y18.7413
G01 X10.7938 Y18.7241
G01 X10.7615 Y18.7036
G01 X10.7338 Y18.6841
G01 X10.7077 Y18.6637
G01 X10.6787 Y18.6387
G01 X10.6544 Y18.6156
G01 X10.6313 Y18.5913
G01 X10.6063 Y18.5623
G01 X10.5859 Y18.5362
G01 X10.5664 Y18.5085
G01 X10.5476 Y18.4789
G01 X10.5287 Y18.4456
G01 X10.5130 Y18.4143
G01 X10.4991 Y18.3829
G01 X10.4863 Y18.3494
G01 X10.4763 Y18.3191
G01 X10.4668 Y18.2853
G01 X10.4584 Y18.2479
G01 X10.4530 Y18.2165
G01 X10.4486 Y18.1817
G01 X10.4458 Y18.1435
G01 X10.4450 Y18.1100
G01 X10.4458 Y18.0765
G01 X10.4486 Y18.0383
G01 X10.4530 Y18.0035
G01 X10.4588 Y17.9704
G01 X10.4668 Y17.9347
G01 X10.4753 Y17.9040
G01 X10.4835 Y17.8791
G01 X9.6872 Y17.0828
G01 X9.6654 Y17.0587
G01 X9.6489 Y17.0364
G01 X9.6405 Y17.0234
G01 X9.6245 Y16.9933
G01 X9.6139 Y16.9677
G01 X9.6080 Y16.9499
G01 X9.6040 Y16.9350
G01 X9.5985 Y16.9078
G01 X9.5963 Y16.8893
G01 X9.5949 Y16.8616
G01 X9.5949 Y14.3405
G01 X9.0909 Y13.8365
G01 X9.0660 Y13.8447
G01 X9.0353 Y13.8532
G01 X8.9996 Y13.8612
G01 X8.9633 Y13.8675
G01 X8.9317 Y13.8714
G01 X8.8967 Y13.8740
G01 X8.8600 Y13.8750
G01 X8.8233 Y13.8740
G01 X8.7887 Y13.8714
G01 X8.7567 Y13.8675
G01 X8.7221 Y13.8616
G01 X8.6878 Y13.8539
G01 X8.6509 Y13.8437
G01 X8.6176 Y13.8326
G01 X8.5871 Y13.8209
G01 X8.5557 Y13.8070
G01 X8.5216 Y13.7898
G01 X8.4911 Y13.7724
G01 X8.4615 Y13.7536
G01 X8.4338 Y13.7341
G01 X8.4077 Y13.7137
G01 X8.3810 Y13.6908
G01 X8.3544 Y13.6656
G01 X8.3292 Y13.6390
G01 X8.3063 Y13.6123
G01 X8.2859 Y13.5862
G01 X8.2664 Y13.5585
G01 X8.2476 Y13.5289
G01 X8.2302 Y13.4984
G01 X8.2143 Y13.4671
G01 X8.1991 Y13.4329
G01 X8.1874 Y13.4024
G01 X8.1763 Y13.3691
G01 X8.1661 Y13.3322
G01 X8.1588 Y13.2996
G01 X8.1525 Y13.2633
G01 X8.1486 Y13.2313
G01 X8.1458 Y13.1935
G00 Z1.9990
G00 X8.3043 Y14.3396
G01 F80.00
G01 Z-0.0700
G01 F200.00
G01 X8.3220 Y14.3134
G01 X8.3370 Y14.2868
G01 X8.3515 Y14.2552
G01 X8.3612 Y14.2284
G01 X8.3697 Y14.1978
G01 X8.3746 Y14.1731
G01 X8.3785 Y14.1416
G01 X8.3798 Y14.1100
G01 X8.3785 Y14.0784
G01 X8.3746 Y14.0469
G01 X8.3697 Y14.0222
G01 X8.3612 Y13.9916
G01 X8.3515 Y13.9648
G01 X8.3370 Y13.9332
G01 X8.3214 Y13.9056
G01 X8.3043 Y13.8804
G01 X8.3492 Y13.9130
G01 X8.3878 Y13.9379
G01 X8.4254 Y13.9595
G01 X8.4658 Y13.9801
G01 X8.5147 Y14.0019
G01 X8.5595 Y14.0189
G01 X8.6020 Y14.0326
G01 X8.6451 Y14.0442
G01 X8.6822 Y14.0525
G01 X8.7328 Y14.0610
G01 X8.7660 Y14.0651
G01 X8.8090 Y14.0685
G01 X8.8536 Y14.0699
G01 X8.8983 Y14.0691
G01 X8.9428 Y14.0662
G01 X8.9872 Y14.0610
G01 X9.0321 Y14.0535
G01 X9.1912 Y14.2126
G01 X9.1605 Y14.2011
G01 X9.1302 Y14.1911
G01 X9.0749 Y14.1758
G01 X9.0378 Y14.1675
G01 X8.9998 Y14.1609
G01 X8.9540 Y14.1549
G01 X8.8983 Y14.1509
G01 X8.8536 Y14.1501
G01 X8.8090 Y14.1515
G01 X8.7645 Y14.1551
G01 X8.7328 Y14.1590
G01 X8.6822 Y14.1675
G01 X8.6327 Y14.1789
G01 X8.5898 Y14.1911
G01 X8.5595 Y14.2011
G01 X8.5059 Y14.2218
G01 X8.4652 Y14.2402
G01 X8.4254 Y14.2605
G01 X8.3977 Y14.2763
G01 X8.3492 Y14.3070
G01 X8.3043 Y14.3396
G00 Z1.9990
G00 X7.9826 Y14.6259
G01 F80.00
G01 Z-0.0700
G01 F200.00
G01 X8.0173 Y14.6109
G01 X8.0458 Y14.5955
G01 X8.0784 Y14.5736
G01 X8.1057 Y14.5511
G01 X8.0821 Y14.5878
G01 X8.0608 Y14.6249
G01 X8.0051 Y14.6250
G01 X7.9826 Y14.6259
G00 Z1.9990
G00 X7.1199 Y15.7099
G01 F80.00
G01 Z-0.0700
G01 F200.00
G01 X7.1212 Y15.6867
G01 X7.1245 Y15.6646
G01 X7.1298 Y15.6433
G01 X7.1376 Y15.6211
G01 X7.1437 Y15.6074
G01 X7.1547 Y15.5869
G01 X7.1674 Y15.5682
G01 X7.1811 Y15.5514
G01 X7.8491 Y14.8832
G01 X7.8697 Y14.8662
G01 X7.8867 Y14.8549
G01 X7.8997 Y14.8475
G01 X7.9181 Y14.8388
G01 X7.9321 Y14.8334
G01 X7.9516 Y14.8275
G01 X7.9646 Y14.8245
G01 X7.9864 Y14.8212
G01 X8.0099 Y14.8199
G01 X8.1865 Y14.8199
G01 X8.1991 Y14.7871
G01 X8.2143 Y14.7530
G01 X8.2302 Y14.7216
G01 X8.2474 Y14.6913
G01 X8.2664 Y14.6615
G01 X8.2859 Y14.6338
G01 X8.3081 Y14.6055
G01 X8.3292 Y14.5810
G01 X8.3544 Y14.5544
G01 X8.3787 Y14.5313
G01 X8.4052 Y14.5083
G01 X8.4328 Y14.4867
G01 X8.4615 Y14.4664
G01 X8.4911 Y14.4476
G01 X8.5244 Y14.4287
G01 X8.5530 Y14.4143
G01 X8.5849 Y14.4001
G01 X8.6206 Y14.3863
G01 X8.6509 Y14.3763
G01 X8.6847 Y14.3668
G01 X8.7221 Y14.3584
G01 X8.7567 Y14.3525
G01 X8.7915 Y14.3483
G01 X8.8233 Y14.3460
G01 X8.8584 Y14.3450
G01 X8.8967 Y14.3460
G01 X8.9313 Y14.3486
G01 X8.9633 Y14.3525
G01 X9.0011 Y14.3591
G01 X9.0322 Y14.3661
G01 X9.0660 Y14.3753
G01 X9.1024 Y14.3874
G01 X9.1329 Y14.3991
G01 X9.1670 Y14.4143
G01 X9.1956 Y14.4287
G01 X9.2262 Y14.4459
G01 X9.2585 Y14.4664
G01 X9.2862 Y14.4859
G01 X9.3123 Y14.5063
G01 X9.3413 Y14.5313
G01 X9.3656 Y14.5544
G01 X9.3908 Y14.5810
G01 X9.4137 Y14.6077
G01 X9.4341 Y14.6338
G01 X9.4536 Y14.6615
G01 X9.4724 Y14.6911
G01 X9.4898 Y14.7216
G01 X9.5057 Y14.7530
G01 X9.5209 Y14.7871
G01 X9.5337 Y14.8206
G01 X9.5447 Y14.8540
G01 X9.5539 Y14.8878
G01 X9.5612 Y14.9204
G01 X9.5670 Y14.9535
G01 X9.5714 Y14.9883
G01 X9.5740 Y15.0233
G01 X9.5750 Y15.0600
G01 X9.5740 Y15.0967
G01 X9.5714 Y15.1313
G01 X9.5675 Y15.1633
G01 X9.5616 Y15.1979
G01 X9.5539 Y15.2322
G01 X9.5447 Y15.2660
G01 X9.5337 Y15.2994
G01 X9.5209 Y15.3329
G01 X9.5057 Y15.3670
G01 X9.4898 Y15.3984
G01 X9.4726 Y15.4287
G01 X9.4536 Y15.4585
G01 X9.4341 Y15.4862
G01 X9.4137 Y15.5123
G01 X9.3908 Y15.5390
G01 X9.3656 Y15.5656
G01 X9.3413 Y15.5887
G01 X9.3148 Y15.6117
G01 X9.2862 Y15.6341
G01 X9.2559 Y15.6554
G01 X9.2262 Y15.6741
G01 X9.1984 Y15.6898
G01 X9.1671 Y15.7057
G01 X9.1351 Y15.7199
G01 X9.1024 Y15.7326
G01 X9.0691 Y15.7437
G01 X9.0353 Y15.7532
G01 X8.9979 Y15.7616
G01 X8.9633 Y15.7675
G01 X8.9317 Y15.7714
G01 X8.8967 Y15.7740
G01 X8.8600 Y15.7750
G01 X8.8233 Y15.7740
G01 X8.7887 Y15.7714
G01 X8.7567 Y15.7675
G01 X8.7221 Y15.7616
G01 X8.6878 Y15.7539
G01 X8.6540 Y15.7447
G01 X8.6206 Y15.7337
G01 X8.5871 Y15.7209
G01 X8.5557 Y15.7070
G01 X8.5244 Y15.6913
G01 X8.4913 Y15.6726
G01 X8.4641 Y15.6554
G01 X8.4338 Y15.6341
G01 X8.4055 Y15.6119
G01 X8.3787 Y15.5887
G01 X8.3544 Y15.5656
G01 X8.3313 Y15.5413
G01 X8.3063 Y15.5123
G01 X8.2859 Y15.4862
G01 X8.2664 Y15.4585
G01 X8.2459 Y15.4262
G01 X8.2287 Y15.3956
G01 X8.2143 Y15.3670
G01 X8.2001 Y15.3351
G01 X8.1865 Y15.3001
G01 X8.1109 Y15.3001
G01 X7.6001 Y15.8109
G01 X7.6001 Y18.2406
G01 X9.9594 Y20.5999
G01 X12.2606 Y20.5999
G01 X14.9199 Y17.9406
G01 X14.9199 Y16.5384
G01 X14.9223 Y16.5064
G01 X14.9275 Y16.4801
G01 X14.9334 Y16.4606
G01 X14.9379 Y16.4489
G01 X14.9490 Y16.4254
G01 X14.9595 Y16.4080
G01 X14.9674 Y16.3967
G01 X14.9811 Y16.3800
G01 X14.9902 Y16.3702
G01 X16.6702 Y14.6902
G01 X16.6865 Y14.6754
G01 X16.6983 Y14.6662
G01 X16.7152 Y14.6549
G01 X16.7282 Y14.6475
G01 X16.7467 Y14.6388
G01 X16.7606 Y14.6334
G01 X16.7801 Y14.6275
G01 X16.7947 Y14.6242
G01 X16.8149 Y14.6212
G01 X16.8400 Y14.6199
G01 X17.2050 Y14.6199
G01 X17.2053 Y14.5540
G01 X17.2075 Y14.5421
G01 X17.2120 Y14.5307
G01 X17.2169 Y14.5225
G01 X17.2229 Y14.5152
G01 X17.2352 Y14.5051
G01 X17.2492 Y14.4984
G01 X17.2580 Y14.4961
G01 X17.2670 Y14.4951
G01 X19.2730 Y14.4951
G01 X19.2850 Y14.4967
G01 X19.2964 Y14.5006
G01 X19.3075 Y14.5069
G01 X19.3148 Y14.5129
G01 X19.3212 Y14.5200
G01 X19.3280 Y14.5307
G01 X19.3325 Y14.5421
G01 X19.3347 Y14.5540
G01 X19.3347 Y15.1660
G01 X19.3325 Y15.1779
G01 X19.3294 Y15.1864
G01 X19.3249 Y15.1948
G01 X19.3192 Y15.2025
G01 X19.3125 Y15.2092
G01 X19.3048 Y15.2149
G01 X19.2964 Y15.2194
G01 X19.2850 Y15.2233
G01 X19.2700 Y15.2250
G01 X17.2670 Y15.2249
G01 X17.2580 Y15.2239
G01 X17.2492 Y15.2216
G01 X17.2352 Y15.2149
G01 X17.2275 Y15.2092
G01 X17.2208 Y15.2025
G01 X17.2120 Y15.1893
G01 X17.2075 Y15.1779
G01 X17.2053 Y15.1660
G01 X17.2050 Y15.1001
G01 X16.9394 Y15.1001
G01 X15.4001 Y16.6394
G01 X15.3999 Y18.0502
G01 X15.3988 Y18.0647
G01 X15.3955 Y18.0869
G01 X15.3925 Y18.0999
G01 X15.3866 Y18.1194
G01 X15.3812 Y18.1333
G01 X15.3725 Y18.1518
G01 X15.3653 Y18.1645
G01 X15.3526 Y18.1833
G01 X15.3389 Y18.2000
G01 X15.3298 Y18.2098
G01 X12.5286 Y21.0109
G01 X12.5135 Y21.0246
G01 X12.4947 Y21.0387
G01 X12.4746 Y21.0510
G01 X12.4612 Y21.0577
G01 X12.4424 Y21.0655
G01 X12.4199 Y21.0725
G01 X12.3968 Y21.0772
G01 X12.3819 Y21.0791
G01 X12.3600 Y21.0801
G01 X9.8600 Y21.0801
G01 X9.8353 Y21.0788
G01 X9.8232 Y21.0772
G01 X9.8032 Y21.0733
G01 X9.7806 Y21.0666
G01 X9.7561 Y21.0564
G01 X9.7355 Y21.0453
G01 X9.7183 Y21.0338
G01 X9.7068 Y21.0248
G01 X9.6902 Y21.0098
G01 X7.1902 Y18.5098
G01 X7.1754 Y18.4935
G01 X7.1613 Y18.4747
G01 X7.1490 Y18.4546
G01 X7.1388 Y18.4333
G01 X7.1334 Y18.4194
G01 X7.1267 Y18.3968
G01 X7.1223 Y18.3736
G01 X7.1201 Y18.3502
G01 X7.1199 Y15.7099
G00 Z1.9990
G00 X7.0225 Y15.7075
G01 F80.00
G01 Z-0.0700
G01 F200.00
G01 X7.0244 Y15.6754
G01 X7.0282 Y15.6495
G01 X7.0335 Y15.6256
G01 X7.0435 Y15.5940
G01 X7.0564 Y15.5639
G01 X7.0684 Y15.5414
G01 X7.0816 Y15.5206
G01 X7.1010 Y15.4950
G01 X7.1213 Y15.4728
G01 X7.7818 Y14.8126
G01 X7.8004 Y14.7965
G01 X7.8136 Y14.7865
G01 X7.8273 Y14.7771
G01 X7.8488 Y14.7642
G01 X7.8639 Y14.7564
G01 X7.8841 Y14.7474
G01 X7.9015 Y14.7408
G01 X7.9256 Y14.7335
G01 X7.9580 Y14.7267
G01 X7.9909 Y14.7231
G01 X8.0115 Y14.7224
G01 X8.1211 Y14.7224
G01 X8.1454 Y14.6735
G01 X8.1648 Y14.6396
G01 X8.1867 Y14.6053
G01 X8.2079 Y14.5753
G01 X8.2338 Y14.5423
G01 X8.2607 Y14.5114
G01 X8.2855 Y14.4855
G01 X8.3114 Y14.4607
G01 X8.3415 Y14.4345
G01 X8.3753 Y14.4079
G01 X8.4053 Y14.3867
G01 X8.4457 Y14.3611
G01 X8.4805 Y14.3416
G01 X8.5162 Y14.3238
G01 X8.5509 Y14.3086
G01 X8.5825 Y14.2964
G01 X8.6203 Y14.2837
G01 X8.6587 Y14.2729
G01 X8.7054 Y14.2624
G01 X8.7368 Y14.2569
G01 X8.7764 Y14.2519
G01 X8.8162 Y14.2487
G01 X8.8560 Y14.2475
G01 X8.9038 Y14.2487
G01 X8.9427 Y14.2517
G01 X8.9832 Y14.2569
G01 X9.0187 Y14.2631
G01 X9.0535 Y14.2709
G01 X9.0920 Y14.2814
G01 X9.1300 Y14.2937
G01 X9.1746 Y14.3109
G01 X9.2106 Y14.3271
G01 X9.2465 Y14.3454
G01 X9.2804 Y14.3648
G01 X9.3081 Y14.3823
G01 X9.3447 Y14.4079
G01 X9.3723 Y14.4294
G01 X9.4086 Y14.4607
G01 X9.4345 Y14.4855
G01 X9.4593 Y14.5114
G01 X9.4855 Y14.5415
G01 X9.4974 Y14.5564
G01 X9.4974 Y14.3809
G01 X9.0631 Y13.9466
G01 X9.0146 Y13.9576
G01 X8.9832 Y13.9631
G01 X8.9436 Y13.9681
G01 X8.8959 Y13.9717
G01 X8.8600 Y13.9725
G01 X8.8241 Y13.9717
G01 X8.7764 Y13.9681
G01 X8.7368 Y13.9631
G01 X8.7013 Y13.9569
G01 X8.6665 Y13.9491
G01 X8.6280 Y13.9386
G01 X8.5825 Y13.9236
G01 X8.5509 Y13.9114
G01 X8.5094 Y13.8929
G01 X8.4805 Y13.8784
G01 X8.4457 Y13.8589
G01 X8.4053 Y13.8333
G01 X8.3753 Y13.8121
G01 X8.3477 Y13.7906
G01 X8.3114 Y13.7593
G01 X8.2855 Y13.7345
G01 X8.2607 Y13.7086
G01 X8.2345 Y13.6785
G01 X8.2098 Y13.6472
G01 X8.1823 Y13.6081
G01 X8.1652 Y13.5811
G01 X8.1454 Y13.5465
G01 X8.1238 Y13.5038
G01 X8.1086 Y13.4691
G01 X8.0964 Y13.4375
G01 X8.0837 Y13.3997
G01 X8.0729 Y13.3613
G01 X8.0624 Y13.3146
G01 X8.0558 Y13.2753
G01 X8.0517 Y13.2427
G01 X8.0487 Y13.2038
G01 X8.0475 Y13.1640
G01 X8.0487 Y13.1162
G01 X8.0517 Y13.0773
G01 X8.0569 Y13.0368
G01 X8.0631 Y13.0013
G01 X8.0709 Y12.9665
G01 X8.0837 Y12.9203
G01 X8.0964 Y12.8825
G01 X8.1086 Y12.8509
G01 X8.1238 Y12.8162
G01 X8.1416 Y12.7805
G01 X8.1648 Y12.7396
G01 X8.1867 Y12.7053
G01 X8.2079 Y12.6753
G01 X8.2338 Y12.6423
G01 X8.2553 Y12.6173
G01 X8.2855 Y12.5855
G01 X8.3173 Y12.5553
G01 X8.3415 Y12.5345
G01 X8.3728 Y12.5098
G01 X8.4119 Y12.4823
G01 X8.4389 Y12.4652
G01 X8.4735 Y12.4454
G01 X8.5162 Y12.4238
G01 X8.5509 Y12.4086
G01 X8.5825 Y12.3964
G01 X8.6280 Y12.3814
G01 X8.6665 Y12.3709
G01 X8.7013 Y12.3631
G01 X8.7368 Y12.3569
G01 X8.7843 Y12.3511
G01 X8.8162 Y12.3487
G01 X8.8560 Y12.3475
G01 X8.9038 Y12.3487
G01 X8.9427 Y12.3517
G01 X8.9753 Y12.3558
G01 X9.0187 Y12.3631
G01 X9.0631 Y12.3734
G01 X9.3420 Y12.0950
G01 X9.3633 Y12.0765
G01 X9.3895 Y12.0572
G01 X9.4133 Y12.0421
G01 X9.4472 Y12.0243
G01 X16.3532 Y5.1182
G01 X16.3802 Y5.0936
G01 X16.3985 Y5.0791
G01 X16.4125 Y5.0692
G01 X16.4363 Y5.0541
G01 X16.4654 Y5.0385
G01 X16.4889 Y5.0280
G01 X16.5214 Y5.0163
G01 X16.5486 Y5.0088
G01 X16.5805 Y5.0025
G01 X16.6085 Y4.9990
G01 X16.6410 Y4.9974
G01 X21.7775 Y4.9974
G01 X21.7775 Y4.5600
G01 X21.7782 Y4.5449
G01 X21.7803 Y4.5300
G01 X21.7860 Y4.5081
G01 X21.7949 Y4.4868
G01 X21.8072 Y4.4664
G01 X21.8223 Y4.4479
G01 X21.8338 Y4.4370
G01 X21.8530 Y4.4228
G01 X21.8740 Y4.4115
G01 X21.8953 Y4.4038
G01 X21.9174 Y4.3991
G01 X21.9400 Y4.3975
G01 X23.6475 Y4.3977
G01 X23.6626 Y4.3991
G01 X23.6847 Y4.4038
G01 X23.7060 Y4.4115
G01 X23.7202 Y4.4187
G01 X23.7400 Y4.4319
G01 X23.7521 Y4.4423
G01 X23.7630 Y4.4538
G01 X23.7728 Y4.4664
G01 X23.7851 Y4.4868
G01 X23.7940 Y4.5081
G01 X23.7981 Y4.5226
G01 X23.8009 Y4.5374
G01 X23.8025 Y4.5600
G01 X23.8025 Y6.2600
G01 X23.8009 Y6.2826
G01 X23.7962 Y6.3047
G01 X23.7885 Y6.3260
G01 X23.7772 Y6.3470
G01 X23.7630 Y6.3662
G01 X23.7521 Y6.3777
G01 X23.7336 Y6.3928
G01 X23.7132 Y6.4051
G01 X23.6919 Y6.4140
G01 X23.6700 Y6.4197
G01 X23.6551 Y6.4218
G01 X23.6400 Y6.4225
G01 X23.2026 Y6.4225
G01 X23.2026 Y19.3000
G01 X23.2010 Y19.3365
G01 X23.1975 Y19.3645
G01 X23.1912 Y19.3964
G01 X23.1837 Y19.4236
G01 X23.1720 Y19.4561
G01 X23.1613 Y19.4800
G01 X23.1459 Y19.5087
G01 X23.1308 Y19.5325
G01 X23.1070 Y19.5641
G01 X23.0846 Y19.5889
G01 X21.1718 Y21.5018
G01 X21.1448 Y21.5264
G01 X21.1265 Y21.5409
G01 X21.1125 Y21.5508
G01 X21.0887 Y21.5659
G01 X21.0600 Y21.5813
G01 X21.0361 Y21.5920
G01 X21.0152 Y21.5998
G01 X20.9841 Y21.6092
G01 X20.9607 Y21.6147
G01 X20.9244 Y21.6202
G01 X20.8963 Y21.6223
G01 X19.3871 Y21.6226
G01 X19.3762 Y21.6330
G01 X19.3636 Y21.6428
G01 X19.3502 Y21.6513
G01 X19.3360 Y21.6585
G01 X19.3219 Y21.6640
G01 X19.3074 Y21.6681
G01 X19.2851 Y21.6718
G01 X19.2700 Y21.6725
G01 X17.2700 Y21.6725
G01 X17.2474 Y21.6709
G01 X17.2326 Y21.6681
G01 X17.2181 Y21.6640
G01 X17.1968 Y21.6551
G01 X17.1764 Y21.6428
G01 X17.1579 Y21.6277
G01 X17.1419 Y21.6100
G01 X17.1287 Y21.5902
G01 X17.1186 Y21.5690
G01 X17.1138 Y21.5547
G01 X17.1103 Y21.5400
G01 X17.1082 Y21.5251
G01 X17.1075 Y21.5100
G01 X17.1077 Y20.9025
G01 X17.1091 Y20.8874
G01 X17.1119 Y20.8726
G01 X17.1160 Y20.8581
G01 X17.1215 Y20.8440
G01 X17.1287 Y20.8298
G01 X17.1372 Y20.8164
G01 X17.1470 Y20.8038
G01 X17.1579 Y20.7923
G01 X17.1700 Y20.7819
G01 X17.1830 Y20.7728
G01 X17.2040 Y20.7615
G01 X17.2181 Y20.7560
G01 X17.2326 Y20.7519
G01 X17.2474 Y20.7491
G01 X17.2625 Y20.7477
G01 X19.2700 Y20.7475
G01 X19.2926 Y20.7491
G01 X19.3074 Y20.7519
G01 X19.3219 Y20.7560
G01 X19.3360 Y20.7615
G01 X19.3502 Y20.7687
G01 X19.3636 Y20.7772
G01 X19.3762 Y20.7870
G01 X19.3871 Y20.7974
G01 X20.7091 Y20.7974
G01 X22.3774 Y19.1291
G01 X22.3774 Y6.4225
G01 X21.9400 Y6.4225
G01 X21.9249 Y6.4218
G01 X21.9100 Y6.4197
G01 X21.8953 Y6.4162
G01 X21.8740 Y6.4085
G01 X21.8598 Y6.4013
G01 X21.8464 Y6.3928
G01 X21.8279 Y6.3777
G01 X21.8170 Y6.3662
G01 X21.8072 Y6.3536
G01 X21.7949 Y6.3332
G01 X21.7886 Y6.3190
G01 X21.7838 Y6.3047
G01 X21.7803 Y6.2900
G01 X21.7782 Y6.2751
G01 X21.7775 Y6.2600
G01 X21.7775 Y5.8226
G01 X16.8159 Y5.8226
G01 X9.9488 Y12.6898
G01 X9.9218 Y12.7144
G01 X9.9035 Y12.7289
G01 X9.8895 Y12.7388
G01 X9.8657 Y12.7539
G01 X9.8318 Y12.7717
G01 X9.6466 Y12.9569
G01 X9.6569 Y13.0013
G01 X9.6642 Y13.0447
G01 X9.6681 Y13.0764
G01 X9.6713 Y13.1162
G01 X9.6725 Y13.1600
G01 X9.6713 Y13.2038
G01 X9.6683 Y13.2427
G01 X9.6642 Y13.2753
G01 X9.6569 Y13.3187
G01 X9.6466 Y13.3631
G01 X10.2018 Y13.9182
G01 X10.2184 Y13.9359
G01 X10.2409 Y13.9635
G01 X10.2553 Y13.9841
G01 X10.2720 Y14.0120
G01 X10.2815 Y14.0304
G01 X10.2920 Y14.0539
G01 X10.3037 Y14.0864
G01 X10.3112 Y14.1136
G01 X10.3154 Y14.1334
G01 X10.3210 Y14.1735
G01 X10.3226 Y14.2100
G01 X10.3226 Y16.6891
G01 X10.9569 Y17.3234
G01 X11.0013 Y17.3131
G01 X11.0368 Y17.3069
G01 X11.0764 Y17.3019
G01 X11.1241 Y17.2983
G01 X11.1640 Y17.2975
G01 X11.1959 Y17.2983
G01 X11.2357 Y17.3011
G01 X11.2832 Y17.3069
G01 X11.3224 Y17.3139
G01 X11.3613 Y17.3229
G01 X11.3920 Y17.3314
G01 X11.4300 Y17.3437
G01 X11.4691 Y17.3586
G01 X11.5106 Y17.3771
G01 X11.5465 Y17.3954
G01 X11.5804 Y17.4148
G01 X11.6081 Y17.4323
G01 X11.6447 Y17.4579
G01 X11.6777 Y17.4838
G01 X11.7086 Y17.5107
G01 X11.7345 Y17.5355
G01 X11.7647 Y17.5673
G01 X11.7906 Y17.5977
G01 X11.8121 Y17.6253
G01 X11.8333 Y17.6553
G01 X11.8548 Y17.6889
G01 X11.8746 Y17.7235
G01 X11.8929 Y17.7594
G01 X11.9114 Y17.8009
G01 X11.9263 Y17.8400
G01 X11.9386 Y17.8780
G01 X11.9491 Y17.9165
G01 X11.9569 Y17.9513
G01 X11.9642 Y17.9947
G01 X11.9689 Y18.0343
G01 X11.9717 Y18.0741
G01 X11.9725 Y18.1140
G01 X11.9717 Y18.1459
G01 X11.9689 Y18.1857
G01 X11.9642 Y18.2253
G01 X11.9569 Y18.2687
G01 X11.9471 Y18.3113
G01 X11.9386 Y18.3420
G01 X11.9263 Y18.3800
G01 X11.9114 Y18.4191
G01 X11.8929 Y18.4606
G01 X11.8746 Y18.4965
G01 X11.8552 Y18.5304
G01 X11.8377 Y18.5581
G01 X11.8121 Y18.5947
G01 X11.7862 Y18.6277
G01 X11.7593 Y18.6586
G01 X11.7345 Y18.6845
G01 X11.7086 Y18.7093
G01 X11.6785 Y18.7355
G01 X11.6447 Y18.7621
G01 X11.6081 Y18.7877
G01 X11.5811 Y18.8048
G01 X11.5465 Y18.8246
G01 X11.5106 Y18.8429
G01 X11.4691 Y18.8614
G01 X11.4300 Y18.8763
G01 X11.3997 Y18.8863
G01 X11.3613 Y18.8971
G01 X11.3187 Y18.9069
G01 X11.2753 Y18.9142
G01 X11.2436 Y18.9181
G01 X11.2038 Y18.9213
G01 X11.1640 Y18.9225
G01 X11.1241 Y18.9217
G01 X11.0773 Y18.9183
G01 X11.0368 Y18.9131
G01 X11.0013 Y18.9069
G01 X10.9665 Y18.8991
G01 X10.9203 Y18.8863
G01 X10.8825 Y18.8736
G01 X10.8509 Y18.8614
G01 X10.8094 Y18.8429
G01 X10.7735 Y18.8246
G01 X10.7396 Y18.8052
G01 X10.7053 Y18.7833
G01 X10.6753 Y18.7621
G01 X10.6423 Y18.7362
G01 X10.6173 Y18.7147
G01 X10.5855 Y18.6845
G01 X10.5607 Y18.6586
G01 X10.5345 Y18.6285
G01 X10.5098 Y18.5972
G01 X10.4867 Y18.5647
G01 X10.4652 Y18.5311
G01 X10.4416 Y18.4895
G01 X10.4238 Y18.4538
G01 X10.4086 Y18.4191
G01 X10.3964 Y18.3875
G01 X10.3837 Y18.3497
G01 X10.3729 Y18.3113
G01 X10.3631 Y18.2687
G01 X10.3569 Y18.2332
G01 X10.3519 Y18.1936
G01 X10.3487 Y18.1538
G01 X10.3475 Y18.1100
G01 X10.3483 Y18.0741
G01 X10.3511 Y18.0343
G01 X10.3558 Y17.9947
G01 X10.3624 Y17.9554
G01 X10.3734 Y17.9069
G01 X9.6429 Y17.1765
G01 X9.6363 Y17.1997
G01 X9.6263 Y17.2300
G01 X9.6114 Y17.2691
G01 X9.5962 Y17.3038
G01 X9.5784 Y17.3395
G01 X9.5589 Y17.3743
G01 X9.5377 Y17.4081
G01 X9.5121 Y17.4447
G01 X9.4862 Y17.4777
G01 X9.4593 Y17.5086
G01 X9.4317 Y17.5373
G01 X9.4027 Y17.5647
G01 X9.3785 Y17.5855
G01 X9.3472 Y17.6102
G01 X9.3147 Y17.6333
G01 X9.2743 Y17.6589
G01 X9.2395 Y17.6784
G01 X9.1976 Y17.6989
G01 X9.1976 Y18.3002
G01 X9.8998 Y19.0024
G01 X11.6202 Y19.0024
G01 X13.7224 Y16.9002
G01 X13.7224 Y15.8400
G01 X13.7231 Y15.8195
G01 X13.7267 Y15.7865
G01 X13.7316 Y15.7619
G01 X13.7382 Y15.7382
G01 X13.7466 Y15.7145
G01 X13.7564 Y15.6925
G01 X13.7684 Y15.6699
G01 X13.7816 Y15.6492
G01 X13.7965 Y15.6290
G01 X13.8213 Y15.6013
G01 X16.0713 Y13.3513
G01 X16.0990 Y13.3265
G01 X16.1192 Y13.3116
G01 X16.1330 Y13.3025
G01 X16.1474 Y13.2942
G01 X16.1693 Y13.2832
G01 X16.1845 Y13.2766
G01 X16.2082 Y13.2682
G01 X16.2319 Y13.2616
G01 X16.2481 Y13.2582
G01 X16.2644 Y13.2555
G01 X16.2895 Y13.2531
G01 X16.3100 Y13.2524
G01 X17.1119 Y13.2524
G01 X17.1160 Y13.2381
G01 X17.1215 Y13.2240
G01 X17.1328 Y13.2030
G01 X17.1419 Y13.1900
G01 X17.1523 Y13.1779
G01 X17.1700 Y13.1619
G01 X17.1898 Y13.1487
G01 X17.2040 Y13.1415
G01 X17.2181 Y13.1360
G01 X17.2400 Y13.1303
G01 X17.2549 Y13.1282
G01 X17.2700 Y13.1275
G01 X19.2775 Y13.1277
G01 X19.2926 Y13.1291
G01 X19.3074 Y13.1319
G01 X19.3290 Y13.1386
G01 X19.3502 Y13.1487
G01 X19.3700 Y13.1619
G01 X19.3877 Y13.1779
G01 X19.4028 Y13.1964
G01 X19.4151 Y13.2168
G01 X19.4240 Y13.2381
G01 X19.4297 Y13.2600
G01 X19.4318 Y13.2749
G01 X19.4325 Y13.2900
G01 X19.4325 Y13.8900
G01 X19.4309 Y13.9126
G01 X19.4281 Y13.9274
G01 X19.4240 Y13.9419
G01 X19.4151 Y13.9632
G01 X19.4028 Y13.9836
G01 X19.3877 Y14.0021
G01 X19.3700 Y14.0181
G01 X19.3502 Y14.0313
G01 X19.3290 Y14.0414
G01 X19.3074 Y14.0481
G01 X19.2851 Y14.0518
G01 X19.2700 Y14.0525
G01 X17.2625 Y14.0523
G01 X17.2400 Y14.0497
G01 X17.2253 Y14.0462
G01 X17.2110 Y14.0414
G01 X17.1968 Y14.0351
G01 X17.1830 Y14.0272
G01 X17.1638 Y14.0130
G01 X17.1470 Y13.9962
G01 X17.1328 Y13.9770
G01 X17.1215 Y13.9560
G01 X17.1160 Y13.9419
G01 X17.1119 Y13.9276
G01 X16.4498 Y13.9276
G01 X14.3976 Y15.9798
G01 X14.3976 Y17.0400
G01 X14.3969 Y17.0605
G01 X14.3933 Y17.0935
G01 X14.3884 Y17.1181
G01 X14.3818 Y17.1418
G01 X14.3734 Y17.1655
G01 X14.3636 Y17.1875
G01 X14.3516 Y17.2101
G01 X14.3384 Y17.2308
G01 X14.3235 Y17.2510
G01 X14.2987 Y17.2787
G01 X11.9987 Y19.5787
G01 X11.9772 Y19.5984
G01 X11.9579 Y19.6135
G01 X11.9370 Y19.6275
G01 X11.9156 Y19.6396
G01 X11.8929 Y19.6503
G01 X11.8700 Y19.6592
G01 X11.8459 Y19.6665
G01 X11.8219 Y19.6718
G01 X11.7971 Y19.6755
G01 X11.7726 Y19.6773
G01 X9.7600 Y19.6776
G01 X9.7309 Y19.6763
G01 X9.6981 Y19.6718
G01 X9.6741 Y19.6665
G01 X9.6425 Y19.6565
G01 X9.6125 Y19.6436
G01 X9.5837 Y19.6279
G01 X9.5582 Y19.6106
G01 X9.5363 Y19.5928
G01 X9.5213 Y19.5787
G01 X8.6213 Y18.6787
G01 X8.6072 Y18.6637
G01 X8.5894 Y18.6418
G01 X8.5771 Y18.6242
G01 X8.5642 Y18.6026
G01 X8.5564 Y18.5875
G01 X8.5474 Y18.5674
G01 X8.5408 Y18.5500
G01 X8.5335 Y18.5259
G01 X8.5267 Y18.4935
G01 X8.5237 Y18.4691
G01 X8.5227 Y18.4526
G01 X8.5224 Y17.6989
G01 X8.4805 Y17.6784
G01 X8.4396 Y17.6552
G01 X8.4119 Y17.6377
G01 X8.3792 Y17.6149
G01 X8.3423 Y17.5862
G01 X8.3173 Y17.5647
G01 X8.2883 Y17.5373
G01 X8.2553 Y17.5027
G01 X8.2345 Y17.4785
G01 X8.2098 Y17.4472
G01 X8.1823 Y17.4081
G01 X8.1652 Y17.3811
G01 X8.1454 Y17.3465
G01 X8.1238 Y17.3038
G01 X8.1086 Y17.2691
G01 X8.0964 Y17.2375
G01 X8.0814 Y17.1920
G01 X8.0729 Y17.1613
G01 X8.0639 Y17.1224
G01 X8.0558 Y17.0753
G01 X8.0517 Y17.0427
G01 X8.0487 Y17.0038
G01 X8.0475 Y16.9600
G01 X8.0483 Y16.9241
G01 X8.0511 Y16.8843
G01 X8.0569 Y16.8368
G01 X8.0631 Y16.8013
G01 X8.0709 Y16.7665
G01 X8.0837 Y16.7203
G01 X8.0937 Y16.6900
G01 X8.1079 Y16.6528
G01 X8.1273 Y16.6090
G01 X8.1454 Y16.5735
G01 X8.1648 Y16.5396
G01 X8.1823 Y16.5119
G01 X8.2051 Y16.4792
G01 X8.2345 Y16.4415
G01 X8.2607 Y16.4114
G01 X8.2855 Y16.3855
G01 X8.3173 Y16.3553
G01 X8.3477 Y16.3294
G01 X8.3753 Y16.3079
G01 X8.4053 Y16.2867
G01 X8.4389 Y16.2652
G01 X8.4805 Y16.2416
G01 X8.5094 Y16.2271
G01 X8.5454 Y16.2109
G01 X8.5900 Y16.1937
G01 X8.6203 Y16.1837
G01 X8.6587 Y16.1729
G01 X8.7054 Y16.1624
G01 X8.7368 Y16.1569
G01 X8.7764 Y16.1519
G01 X8.8162 Y16.1487
G01 X8.8560 Y16.1475
G01 X8.9038 Y16.1487
G01 X8.9427 Y16.1517
G01 X8.9753 Y16.1558
G01 X9.0224 Y16.1639
G01 X9.0535 Y16.1709
G01 X9.0920 Y16.1814
G01 X9.1375 Y16.1964
G01 X9.1691 Y16.2086
G01 X9.2106 Y16.2271
G01 X9.2395 Y16.2416
G01 X9.2743 Y16.2611
G01 X9.3147 Y16.2867
G01 X9.3447 Y16.3079
G01 X9.3723 Y16.3294
G01 X9.4086 Y16.3607
G01 X9.4345 Y16.3855
G01 X9.4593 Y16.4114
G01 X9.4855 Y16.4415
G01 X9.4974 Y16.4564
G01 X9.4974 Y15.5636
G01 X9.4647 Y15.6027
G01 X9.4317 Y15.6373
G01 X9.4086 Y15.6593
G01 X9.3785 Y15.6855
G01 X9.3447 Y15.7121
G01 X9.3081 Y15.7377
G01 X9.2743 Y15.7589
G01 X9.2465 Y15.7746
G01 X9.2110 Y15.7927
G01 X9.1746 Y15.8091
G01 X9.1375 Y15.8236
G01 X9.0920 Y15.8386
G01 X9.0535 Y15.8491
G01 X9.0187 Y15.8569
G01 X8.9832 Y15.8631
G01 X8.9436 Y15.8681
G01 X8.8959 Y15.8717
G01 X8.8600 Y15.8725
G01 X8.8241 Y15.8717
G01 X8.7773 Y15.8683
G01 X8.7368 Y15.8631
G01 X8.7013 Y15.8569
G01 X8.6665 Y15.8491
G01 X8.6203 Y15.8363
G01 X8.5825 Y15.8236
G01 X8.5509 Y15.8114
G01 X8.5162 Y15.7962
G01 X8.4805 Y15.7784
G01 X8.4396 Y15.7552
G01 X8.4053 Y15.7333
G01 X8.3753 Y15.7121
G01 X8.3477 Y15.6906
G01 X8.3173 Y15.6647
G01 X8.2855 Y15.6345
G01 X8.2553 Y15.6027
G01 X8.2294 Y15.5723
G01 X8.2079 Y15.5447
G01 X8.1867 Y15.5147
G01 X8.1611 Y15.4743
G01 X8.1454 Y15.4465
G01 X8.1308 Y15.4181
G01 X7.6976 Y15.8513
G01 X7.6976 Y18.2002
G01 X9.9998 Y20.5024
G01 X12.2202 Y20.5024
G01 X14.8224 Y17.9002
G01 X14.8227 Y16.5274
G01 X14.8244 Y16.5039
G01 X14.8267 Y16.4865
G01 X14.8316 Y16.4619
G01 X14.8358 Y16.4458
G01 X14.8474 Y16.4126
G01 X14.8564 Y16.3925
G01 X14.8642 Y16.3774
G01 X14.8771 Y16.3558
G01 X14.8894 Y16.3382
G01 X14.9072 Y16.3163
G01 X14.9213 Y16.3013
G01 X16.6013 Y14.6213
G01 X16.6228 Y14.6016
G01 X16.6382 Y14.5894
G01 X16.6558 Y14.5771
G01 X16.6774 Y14.5642
G01 X16.6993 Y14.5532
G01 X16.7145 Y14.5466
G01 X16.7382 Y14.5382
G01 X16.7619 Y14.5316
G01 X16.7865 Y14.5267
G01 X16.8109 Y14.5237
G01 X16.8360 Y14.5225
G01 X17.1119 Y14.5224
G01 X17.1160 Y14.5081
G01 X17.1215 Y14.4940
G01 X17.1328 Y14.4730
G01 X17.1470 Y14.4538
G01 X17.1638 Y14.4370
G01 X17.1830 Y14.4228
G01 X17.1968 Y14.4149
G01 X17.2110 Y14.4086
G01 X17.2253 Y14.4038
G01 X17.2400 Y14.4003
G01 X17.2625 Y14.3977
G01 X19.2775 Y14.3977
G01 X19.2926 Y14.3991
G01 X19.3074 Y14.4019
G01 X19.3219 Y14.4060
G01 X19.3360 Y14.4115
G01 X19.3502 Y14.4187
G01 X19.3636 Y14.4272
G01 X19.3762 Y14.4370
G01 X19.3877 Y14.4479
G01 X19.3981 Y14.4600
G01 X19.4072 Y14.4730
G01 X19.4185 Y14.4940
G01 X19.4240 Y14.5081
G01 X19.4281 Y14.5226
G01 X19.4309 Y14.5374
G01 X19.4323 Y14.5525
G01 X19.4325 Y15.1600
G01 X19.4318 Y15.1751
G01 X19.4297 Y15.1900
G01 X19.4262 Y15.2047
G01 X19.4185 Y15.2260
G01 X19.4072 Y15.2470
G01 X19.3930 Y15.2662
G01 X19.3762 Y15.2830
G01 X19.3570 Y15.2972
G01 X19.3360 Y15.3085
G01 X19.3147 Y15.3162
G01 X19.2926 Y15.3209
G01 X19.2700 Y15.3225
G01 X17.2625 Y15.3223
G01 X17.2400 Y15.3197
G01 X17.2253 Y15.3162
G01 X17.2110 Y15.3114
G01 X17.1968 Y15.3051
G01 X17.1830 Y15.2972
G01 X17.1638 Y15.2830
G01 X17.1470 Y15.2662
G01 X17.1328 Y15.2470
G01 X17.1215 Y15.2260
G01 X17.1160 Y15.2119
G01 X17.1119 Y15.1976
G01 X16.9798 Y15.1976
G01 X15.4976 Y16.6798
G01 X15.4973 Y18.0526
G01 X15.4956 Y18.0761
G01 X15.4918 Y18.1019
G01 X15.4865 Y18.1259
G01 X15.4792 Y18.1500
G01 X15.4703 Y18.1729
G01 X15.4596 Y18.1956
G01 X15.4479 Y18.2163
G01 X15.4306 Y18.2418
G01 X15.4128 Y18.2637
G01 X15.3987 Y18.2787
G01 X12.5987 Y21.0787
G01 X12.5772 Y21.0984
G01 X12.5508 Y21.1184
G01 X12.5301 Y21.1316
G01 X12.5075 Y21.1436
G01 X12.4874 Y21.1526
G01 X12.4618 Y21.1618
G01 X12.4381 Y21.1684
G01 X12.4135 Y21.1733
G01 X12.3891 Y21.1763
G01 X12.3640 Y21.1775
G01 X9.8560 Y21.1775
G01 X9.8239 Y21.1756
G01 X9.7940 Y21.1711
G01 X9.7658 Y21.1642
G01 X9.7326 Y21.1526
G01 X9.7044 Y21.1396
G01 X9.6758 Y21.1229
G01 X9.6490 Y21.1035
G01 X9.6213 Y21.0787
G01 X7.1213 Y18.5787
G01 X7.1016 Y18.5572
G01 X7.0865 Y18.5379
G01 X7.0684 Y18.5101
G01 X7.0564 Y18.4875
G01 X7.0474 Y18.4674
G01 X7.0408 Y18.4500
G01 X7.0316 Y18.4181
G01 X7.0267 Y18.3935
G01 X7.0245 Y18.3771
G01 X7.0224 Y18.3400
G01 X7.0225 Y15.7075
G00 Z1.9990
G00 X6.8384 Y15.7269
G01 F80.00
G01 Z-0.0700
G01 F200.00
G01 X6.8370 Y15.7115
G01 X6.8471 Y15.6094
G01 X6.8769 Y15.5113
G01 X6.9252 Y15.4209
G01 X6.9902 Y15.3417
G01 X7.0069 Y15.3278
G01 X7.0201 Y15.3153
G01 X7.6153 Y14.7201
G01 X7.6278 Y14.7069
G01 X7.6417 Y14.6902
G01 X7.7209 Y14.6252
G01 X7.8113 Y14.5769
G01 X7.9308 Y14.5406
G01 X7.9538 Y14.5325
G01 X7.9737 Y14.5237
G01 X7.9867 Y14.5170
G01 X8.0043 Y14.5065
G01 X8.0199 Y14.4956
G01 X8.0382 Y14.4807
G01 X8.0515 Y14.4683
G01 X8.0686 Y14.4495
G01 X8.0867 Y14.4255
G01 X8.1975 Y14.3148
G01 X8.2099 Y14.3015
G01 X8.2248 Y14.2832
G01 X8.2394 Y14.2616
G01 X8.2529 Y14.2370
G01 X8.2617 Y14.2171
G01 X8.2709 Y14.1902
G01 X8.2767 Y14.1667
G01 X8.2806 Y14.1414
G01 X8.2823 Y14.1100
G01 X8.2805 Y14.0777
G01 X8.2767 Y14.0533
G01 X8.2709 Y14.0298
G01 X8.2610 Y14.0010
G01 X8.2499 Y13.9770
G01 X8.2390 Y13.9577
G01 X8.2277 Y13.9407
G01 X8.2140 Y13.9233
G01 X8.1975 Y13.9052
G01 X8.0868 Y13.7946
G01 X7.9779 Y13.6315
G01 X7.9028 Y13.4504
G01 X7.8646 Y13.2580
G01 X7.8646 Y13.0620
G01 X7.9028 Y12.8696
G01 X7.9779 Y12.6885
G01 X8.0868 Y12.5254
G01 X8.2254 Y12.3868
G01 X8.3885 Y12.2779
G01 X8.5696 Y12.2028
G01 X8.7620 Y12.1646
G01 X8.8974 Y12.1645
G01 X8.9178 Y12.1635
G01 X8.9398 Y12.1608
G01 X8.9599 Y12.1568
G01 X8.9872 Y12.1489
G01 X9.0079 Y12.1410
G01 X9.0264 Y12.1322
G01 X9.0457 Y12.1213
G01 X9.0576 Y12.1135
G01 X9.0740 Y12.1013
G01 X9.0908 Y12.0868
G01 X9.1730 Y12.0048
G01 X9.1989 Y11.9749
G01 X9.2896 Y11.9005
G01 X9.3096 Y11.8896
G01 X9.3284 Y11.8777
G01 X9.3448 Y11.8655
G01 X9.3616 Y11.8510
G01 X16.1932 Y5.0197
G01 X16.2057 Y5.0064
G01 X16.2219 Y4.9869
G01 X16.3126 Y4.9125
G01 X16.4160 Y4.8572
G01 X16.5283 Y4.8232
G01 X16.6450 Y4.8117
G01 X16.6703 Y4.8140
G01 X16.6885 Y4.8146
G01 X21.3054 Y4.8146
G01 X21.3236 Y4.8140
G01 X21.3439 Y4.8120
G01 X21.3719 Y4.8068
G01 X21.3992 Y4.7989
G01 X21.4256 Y4.7884
G01 X21.4508 Y4.7754
G01 X21.4746 Y4.7599
G01 X21.4968 Y4.7422
G01 X21.5101 Y4.7298
G01 X21.5226 Y4.7165
G01 X21.5403 Y4.6943
G01 X21.5521 Y4.6766
G01 X21.5656 Y4.6520
G01 X21.5766 Y4.6263
G01 X21.5836 Y4.6052
G01 X21.5893 Y4.5817
G01 X21.5923 Y4.5635
G01 X21.5996 Y4.4923
G01 X21.6193 Y4.4272
G01 X21.6514 Y4.3672
G01 X21.6946 Y4.3146
G01 X21.7472 Y4.2714
G01 X21.8072 Y4.2393
G01 X21.8723 Y4.2196
G01 X21.9542 Y4.2115
G01 X23.6258 Y4.2115
G01 X23.7077 Y4.2196
G01 X23.7728 Y4.2393
G01 X23.8328 Y4.2714
G01 X23.8854 Y4.3146
G01 X23.9286 Y4.3672
G01 X23.9607 Y4.4272
G01 X23.9827 Y4.4978
G01 X23.9938 Y4.5235
G01 X24.0057 Y4.5454
G01 X24.0191 Y4.5658
G01 X24.0328 Y4.5833
G01 X24.0493 Y4.6013
G01 X24.0674 Y4.6179
G01 X24.0900 Y4.6351
G01 X24.1142 Y4.6501
G01 X24.1398 Y4.6625
G01 X24.1665 Y4.6725
G01 X24.1940 Y4.6797
G01 X24.2159 Y4.6835
G01 X24.2442 Y4.6858
G01 X24.2727 Y4.6854
G01 X24.2868 Y4.6841
G01 X24.3071 Y4.6811
G01 X24.3210 Y4.6781
G01 X24.3424 Y4.6722
G01 X24.3617 Y4.6652
G01 X24.3747 Y4.6596
G01 X24.4032 Y4.6446
G01 X24.4274 Y4.6283
G01 X24.4519 Y4.6078
G01 X24.4690 Y4.5903
G01 X24.5257 Y4.5275
G01 X24.7133 Y4.3875
G01 X24.9134 Y4.2922
G01 X24.9134 Y4.4874
G01 X24.8939 Y4.4963
G01 X24.8492 Y4.5190
G01 X24.8061 Y4.5436
G01 X24.7708 Y4.5660
G01 X24.7237 Y4.5992
G01 X24.6846 Y4.6299
G01 X24.6471 Y4.6625
G01 X24.6141 Y4.6941
G01 X24.5771 Y4.7330
G01 X24.5492 Y4.7654
G01 X24.5192 Y4.8037
G01 X24.4860 Y4.8508
G01 X24.4595 Y4.8929
G01 X24.4352 Y4.9363
G01 X24.4131 Y4.9807
G01 X24.3938 Y5.0244
G01 X24.3781 Y5.0652
G01 X24.3623 Y5.1123
G01 X24.3469 Y5.1679
G01 X24.3370 Y5.2123
G01 X24.3291 Y5.2575
G01 X24.3228 Y5.3068
G01 X24.3190 Y5.3563
G01 X24.3175 Y5.4100
G01 X24.3190 Y5.4637
G01 X24.3228 Y5.5132
G01 X24.3291 Y5.5625
G01 X24.3370 Y5.6077
G01 X24.3469 Y5.6521
G01 X24.3623 Y5.7077
G01 X24.3781 Y5.7548
G01 X24.3938 Y5.7956
G01 X24.4131 Y5.8393
G01 X24.4352 Y5.8837
G01 X24.4636 Y5.9339
G01 X24.4904 Y5.9758
G01 X24.5192 Y6.0163
G01 X24.5499 Y6.0554
G01 X24.5771 Y6.0870
G01 X24.6141 Y6.1259
G01 X24.6471 Y6.1575
G01 X24.6908 Y6.1952
G01 X24.7262 Y6.2227
G01 X24.7708 Y6.2540
G01 X24.8067 Y6.2768
G01 X24.8492 Y6.3010
G01 X24.8939 Y6.3237
G01 X24.9134 Y6.3326
G01 X24.9134 Y6.5278
G01 X24.7133 Y6.4325
G01 X24.5257 Y6.2925
G01 X24.4690 Y6.2297
G01 X24.4519 Y6.2122
G01 X24.4274 Y6.1917
G01 X24.4121 Y6.1810
G01 X24.3945 Y6.1704
G01 X24.3690 Y6.1578
G01 X24.3483 Y6.1498
G01 X24.3210 Y6.1419
G01 X24.3009 Y6.1378
G01 X24.2727 Y6.1346
G01 X24.2442 Y6.1342
G01 X24.2221 Y6.1358
G01 X24.1940 Y6.1403
G01 X24.1741 Y6.1452
G01 X24.1472 Y6.1544
G01 X24.1269 Y6.1634
G01 X24.1071 Y6.1740
G01 X24.0849 Y6.1885
G01 X24.0674 Y6.2021
G01 X24.0493 Y6.2187
G01 X24.0369 Y6.2319
G01 X24.0219 Y6.2503
G01 X24.0111 Y6.2659
G01 X24.0006 Y6.2835
G01 X23.9938 Y6.2965
G01 X23.9857 Y6.3145
G01 X23.9800 Y6.3297
G01 X23.9607 Y6.3928
G01 X23.9286 Y6.4528
G01 X23.8854 Y6.5054
G01 X23.8328 Y6.5486
G01 X23.7728 Y6.5807
G01 X23.7077 Y6.6004
G01 X23.6286 Y6.6088
G01 X23.6008 Y6.6148
G01 X23.5737 Y6.6234
G01 X23.5480 Y6.6344
G01 X23.5296 Y6.6442
G01 X23.5057 Y6.6597
G01 X23.4835 Y6.6774
G01 X23.4632 Y6.6972
G01 X23.4448 Y6.7190
G01 X23.4321 Y6.7371
G01 X23.4178 Y6.7617
G01 X23.4067 Y6.7856
G01 X23.3968 Y6.8144
G01 X23.3910 Y6.8380
G01 X23.3872 Y6.8632
G01 X23.3854 Y6.8946
G01 X23.3854 Y19.2565
G01 X23.3860 Y19.2747
G01 X23.3883 Y19.3000
G01 X23.3768 Y19.4167
G01 X23.3428 Y19.5290
G01 X23.2875 Y19.6324
G01 X23.2131 Y19.7231
G01 X23.1936 Y19.7393
G01 X23.1803 Y19.7518
G01 X21.3318 Y21.6003
G01 X21.3193 Y21.6136
G01 X21.3031 Y21.6331
G01 X21.2124 Y21.7075
G01 X21.1090 Y21.7628
G01 X20.9967 Y21.7968
G01 X20.8800 Y21.8083
G01 X20.8547 Y21.8060
G01 X20.8365 Y21.8054
G01 X19.5124 Y21.8056
G01 X19.4982 Y21.8065
G01 X19.4762 Y21.8092
G01 X19.4484 Y21.8151
G01 X19.4288 Y21.8211
G01 X19.4079 Y21.8291
G01 X19.3377 Y21.8504
G01 X19.2558 Y21.8585
G01 X17.2842 Y21.8585
G01 X17.2023 Y21.8504
G01 X17.1372 Y21.8307
G01 X17.0772 Y21.7986
G01 X17.0246 Y21.7554
G01 X16.9814 Y21.7028
G01 X16.9493 Y21.6428
G01 X16.9296 Y21.5777
G01 X16.9215 Y21.4958
G01 X16.9215 Y20.9242
G01 X16.9296 Y20.8423
G01 X16.9493 Y20.7772
G01 X16.9893 Y20.7020
G01 X16.9973 Y20.6840
G01 X17.0049 Y20.6629
G01 X17.0122 Y20.6354
G01 X17.0160 Y20.6135
G01 X17.0184 Y20.5852
G01 X17.0184 Y20.5648
G01 X17.0168 Y20.5427
G01 X17.0138 Y20.5224
G01 X17.0089 Y20.5008
G01 X17.0030 Y20.4812
G01 X16.9973 Y20.4660
G01 X16.9893 Y20.4480
G01 X16.9493 Y20.3728
G01 X16.9296 Y20.3077
G01 X16.9215 Y20.2258
G01 X16.9215 Y19.6542
G01 X16.9296 Y19.5723
G01 X16.9493 Y19.5072
G01 X16.9893 Y19.4320
G01 X16.9973 Y19.4140
G01 X17.0049 Y19.3929
G01 X17.0122 Y19.3654
G01 X17.0160 Y19.3435
G01 X17.0180 Y19.3232
G01 X17.0186 Y19.3010
G01 X17.0168 Y19.2727
G01 X17.0138 Y19.2524
G01 X17.0089 Y19.2308
G01 X17.0030 Y19.2112
G01 X16.9973 Y19.1960
G01 X16.9893 Y19.1780
G01 X16.9493 Y19.1028
G01 X16.9296 Y19.0377
G01 X16.9215 Y18.9558
G01 X16.9215 Y18.3842
G01 X16.9296 Y18.3023
G01 X16.9493 Y18.2372
G01 X16.9893 Y18.1620
G01 X16.9973 Y18.1440
G01 X17.0049 Y18.1229
G01 X17.0122 Y18.0954
G01 X17.0160 Y18.0735
G01 X17.0180 Y18.0532
G01 X17.0186 Y18.0310
G01 X17.0168 Y18.0027
G01 X17.0138 Y17.9824
G01 X17.0089 Y17.9608
G01 X17.0030 Y17.9412
G01 X16.9973 Y17.9260
G01 X16.9893 Y17.9080
G01 X16.9493 Y17.8328
G01 X16.9296 Y17.7677
G01 X16.9215 Y17.6858
G01 X16.9215 Y17.1142
G01 X16.9296 Y17.0323
G01 X16.9493 Y16.9672
G01 X16.9925 Y16.8852
G01 X17.0003 Y16.8663
G01 X17.0089 Y16.8392
G01 X17.0138 Y16.8176
G01 X17.0169 Y16.7964
G01 X17.0186 Y16.7690
G01 X17.0180 Y16.7468
G01 X17.0160 Y16.7265
G01 X17.0130 Y16.7083
G01 X17.0089 Y16.6908
G01 X17.0030 Y16.6712
G01 X16.9973 Y16.6560
G01 X16.9893 Y16.6380
G01 X16.9493 Y16.5628
G01 X16.9296 Y16.4977
G01 X16.9215 Y16.4158
G01 X16.9215 Y16.2136
G01 X16.9204 Y16.1892
G01 X16.9167 Y16.1610
G01 X16.9118 Y16.1394
G01 X16.9059 Y16.1198
G01 X16.8954 Y16.0934
G01 X16.8891 Y16.0806
G01 X16.8782 Y16.0613
G01 X16.8668 Y16.0443
G01 X16.8532 Y16.0268
G01 X16.8367 Y16.0088
G01 X16.8234 Y15.9964
G01 X16.8125 Y15.9873
G01 X16.7961 Y15.9751
G01 X16.7773 Y15.9632
G01 X16.7589 Y15.9534
G01 X16.7409 Y15.9453
G01 X16.7198 Y15.9377
G01 X16.6984 Y15.9318
G01 X16.6784 Y15.9278
G01 X16.6633 Y15.9257
G01 X16.6422 Y15.9242
G01 X16.6137 Y15.9246
G01 X16.5855 Y15.9278
G01 X16.5655 Y15.9318
G01 X16.5381 Y15.9397
G01 X16.5117 Y15.9502
G01 X16.4865 Y15.9632
G01 X16.4627 Y15.9787
G01 X16.4405 Y15.9964
G01 X16.4272 Y16.0088
G01 X15.7625 Y16.6736
G01 X15.7437 Y16.6949
G01 X15.7271 Y16.7180
G01 X15.7166 Y16.7355
G01 X15.7040 Y16.7610
G01 X15.6941 Y16.7877
G01 X15.6868 Y16.8151
G01 X15.6822 Y16.8441
G01 X15.6805 Y16.8715
G01 X15.6804 Y18.0002
G01 X15.6810 Y18.0184
G01 X15.6830 Y18.0400
G01 X15.6729 Y18.1420
G01 X15.6431 Y18.2401
G01 X15.5952 Y18.3298
G01 X15.5298 Y18.4098
G01 X15.5131 Y18.4237
G01 X15.4999 Y18.4361
G01 X12.7561 Y21.1799
G01 X12.7437 Y21.1931
G01 X12.7298 Y21.2098
G01 X12.6505 Y21.2748
G01 X12.5601 Y21.3231
G01 X12.4620 Y21.3529
G01 X12.3600 Y21.3630
G01 X12.3384 Y21.3610
G01 X12.3202 Y21.3604
G01 X9.8998 Y21.3604
G01 X9.8816 Y21.3610
G01 X9.8600 Y21.3630
G01 X9.7580 Y21.3529
G01 X9.6599 Y21.3231
G01 X9.5695 Y21.2748
G01 X9.4902 Y21.2098
G01 X9.4763 Y21.1931
G01 X9.4639 Y21.1799
G01 X7.0201 Y18.7361
G01 X7.0069 Y18.7237
G01 X6.9902 Y18.7098
G01 X6.9252 Y18.6305
G01 X6.8772 Y18.5408
G01 X6.8471 Y18.4420
G01 X6.8370 Y18.3400
G01 X6.8390 Y18.3184
G01 X6.8396 Y18.3002
G01 X6.8396 Y15.7513
G01 X6.8384 Y15.7269
G00 Z1.9990
G00 X6.7412 Y15.7340
G01 F80.00
G01 Z-0.0700
G01 F200.00
G01 X6.7391 Y15.7115
G01 X6.7510 Y15.5903
G01 X6.7863 Y15.4739
G01 X6.8437 Y15.3665
G01 X6.9209 Y15.2724
G01 X6.9385 Y15.2580
G01 X6.9512 Y15.2464
G01 X7.5464 Y14.6512
G01 X7.5580 Y14.6384
G01 X7.5724 Y14.6209
G01 X7.6665 Y14.5437
G01 X7.7739 Y14.4863
G01 X7.9129 Y14.4438
G01 X7.9274 Y14.4378
G01 X7.9387 Y14.4321
G01 X7.9614 Y14.4176
G01 X7.9745 Y14.4069
G01 X7.9837 Y14.3982
G01 X7.9962 Y14.3841
G01 X8.0111 Y14.3633
G01 X8.1361 Y14.2378
G01 X8.1468 Y14.2247
G01 X8.1568 Y14.2098
G01 X8.1657 Y14.1936
G01 X8.1708 Y14.1820
G01 X8.1770 Y14.1642
G01 X8.1811 Y14.1475
G01 X8.1837 Y14.1300
G01 X8.1848 Y14.1100
G01 X8.1837 Y14.0896
G01 X8.1811 Y14.0725
G01 X8.1760 Y14.0527
G01 X8.1696 Y14.0350
G01 X8.1629 Y14.0209
G01 X8.1566 Y14.0099
G01 X8.1468 Y13.9953
G01 X8.1361 Y13.9822
G01 X8.0111 Y13.8567
G01 X7.8915 Y13.6777
G01 X7.8091 Y13.4788
G01 X7.7671 Y13.2676
G01 X7.7671 Y13.0524
G01 X7.8091 Y12.8412
G01 X7.8915 Y12.6423
G01 X8.0111 Y12.4633
G01 X8.1633 Y12.3111
G01 X8.3423 Y12.1915
G01 X8.5412 Y12.1091
G01 X8.7524 Y12.0671
G01 X8.8934 Y12.0671
G01 X8.9107 Y12.0663
G01 X8.9310 Y12.0634
G01 X8.9476 Y12.0592
G01 X8.9662 Y12.0527
G01 X8.9825 Y12.0451
G01 X9.0014 Y12.0338
G01 X9.0140 Y12.0245
G01 X9.0236 Y12.0162
G01 X9.1024 Y11.9376
G01 X9.1296 Y11.9057
G01 X9.2352 Y11.8191
G01 X9.2696 Y11.7998
G01 X9.2799 Y11.7925
G01 X9.2944 Y11.7804
G01 X16.1243 Y4.9508
G01 X16.1359 Y4.9380
G01 X16.1526 Y4.9176
G01 X16.2582 Y4.8311
G01 X16.3785 Y4.7667
G01 X16.5092 Y4.7271
G01 X16.6450 Y4.7137
G01 X16.6712 Y4.7163
G01 X16.6885 Y4.7171
G01 X21.3054 Y4.7171
G01 X21.3320 Y4.7152
G01 X21.3536 Y4.7109
G01 X21.3716 Y4.7053
G01 X21.3945 Y4.6951
G01 X21.4107 Y4.6856
G01 X21.4260 Y4.6745
G01 X21.4423 Y4.6597
G01 X21.4587 Y4.6407
G01 X21.4694 Y4.6248
G01 X21.4822 Y4.6000
G01 X21.4867 Y4.5882
G01 X21.4913 Y4.5732
G01 X21.4940 Y4.5609
G01 X21.4963 Y4.5454
G01 X21.5035 Y4.4732
G01 X21.5288 Y4.3897
G01 X21.5699 Y4.3127
G01 X21.6253 Y4.2453
G01 X21.6927 Y4.1899
G01 X21.7697 Y4.1488
G01 X21.8532 Y4.1235
G01 X21.9494 Y4.1140
G01 X23.6306 Y4.1140
G01 X23.7268 Y4.1235
G01 X23.8103 Y4.1488
G01 X23.8873 Y4.1899
G01 X23.9547 Y4.2453
G01 X24.0101 Y4.3127
G01 X24.0512 Y4.3897
G01 X24.0707 Y4.4537
G01 X24.0762 Y4.4692
G01 X24.0810 Y4.4799
G01 X24.0934 Y4.5019
G01 X24.1007 Y4.5122
G01 X24.1107 Y4.5243
G01 X24.1263 Y4.5399
G01 X24.1410 Y4.5518
G01 X24.1568 Y4.5621
G01 X24.1792 Y4.5734
G01 X24.2000 Y4.5808
G01 X24.2245 Y4.5862
G01 X24.2433 Y4.5882
G01 X24.2653 Y4.5882
G01 X24.2809 Y4.5866
G01 X24.2934 Y4.5844
G01 X24.3175 Y4.5777
G01 X24.3293 Y4.5731
G01 X24.3435 Y4.5664
G01 X24.3545 Y4.5601
G01 X24.3675 Y4.5514
G01 X24.3774 Y4.5436
G01 X24.3912 Y4.5308
G01 X24.4597 Y4.4551
G01 X24.6627 Y4.3036
G01 X24.8955 Y4.1928
G01 X24.9533 Y4.1752
G01 X25.0109 Y4.2057
G01 X25.0109 Y4.5526
G01 X24.9806 Y4.5644
G01 X24.9375 Y4.5835
G01 X24.9001 Y4.6023
G01 X24.8610 Y4.6244
G01 X24.8203 Y4.6501
G01 X24.7847 Y4.6753
G01 X24.7508 Y4.7017
G01 X24.7144 Y4.7331
G01 X24.6830 Y4.7630
G01 X24.6531 Y4.7944
G01 X24.6217 Y4.8308
G01 X24.5953 Y4.8647
G01 X24.5701 Y4.9003
G01 X24.5444 Y4.9410
G01 X24.5223 Y4.9801
G01 X24.5035 Y5.0175
G01 X24.4841 Y5.0613
G01 X24.4680 Y5.1033
G01 X24.4549 Y5.1429
G01 X24.4421 Y5.1892
G01 X24.4326 Y5.2314
G01 X24.4252 Y5.2742
G01 X24.4193 Y5.3219
G01 X24.4160 Y5.3667
G01 X24.4150 Y5.4100
G01 X24.4160 Y5.4533
G01 X24.4193 Y5.4981
G01 X24.4252 Y5.5458
G01 X24.4326 Y5.5886
G01 X24.4421 Y5.6308
G01 X24.4549 Y5.6771
G01 X24.4690 Y5.7197
G01 X24.4841 Y5.7587
G01 X24.5035 Y5.8025
G01 X24.5223 Y5.8399
G01 X24.5444 Y5.8790
G01 X24.5701 Y5.9197
G01 X24.5953 Y5.9553
G01 X24.6217 Y5.9892
G01 X24.6531 Y6.0256
G01 X24.6830 Y6.0570
G01 X24.7144 Y6.0869
G01 X24.7508 Y6.1183
G01 X24.7847 Y6.1447
G01 X24.8203 Y6.1699
G01 X24.8610 Y6.1956
G01 X24.9001 Y6.2177
G01 X24.9375 Y6.2365
G01 X24.9806 Y6.2556
G01 X25.0109 Y6.2674
G01 X25.0109 Y6.6143
G01 X24.9533 Y6.6448
G01 X24.8955 Y6.6272
G01 X24.6627 Y6.5164
G01 X24.4597 Y6.3649
G01 X24.3912 Y6.2892
G01 X24.3774 Y6.2764
G01 X24.3597 Y6.2632
G01 X24.3435 Y6.2536
G01 X24.3270 Y6.2459
G01 X24.3116 Y6.2403
G01 X24.2934 Y6.2356
G01 X24.2747 Y6.2326
G01 X24.2621 Y6.2317
G01 X24.2433 Y6.2318
G01 X24.2245 Y6.2338
G01 X24.2060 Y6.2376
G01 X24.1880 Y6.2432
G01 X24.1706 Y6.2505
G01 X24.1561 Y6.2583
G01 X24.1410 Y6.2682
G01 X24.1263 Y6.2801
G01 X24.1128 Y6.2933
G01 X24.1046 Y6.3029
G01 X24.0901 Y6.3234
G01 X24.0797 Y6.3428
G01 X24.0707 Y6.3663
G01 X24.0512 Y6.4303
G01 X24.0101 Y6.5073
G01 X23.9547 Y6.5747
G01 X23.8873 Y6.6301
G01 X23.8103 Y6.6712
G01 X23.7268 Y6.6965
G01 X23.6546 Y6.7037
G01 X23.6391 Y6.7060
G01 X23.6268 Y6.7087
G01 X23.6118 Y6.7133
G01 X23.6000 Y6.7178
G01 X23.5831 Y6.7260
G01 X23.5696 Y6.7341
G01 X23.5544 Y6.7452
G01 X23.5381 Y6.7600
G01 X23.5217 Y6.7789
G01 X23.5109 Y6.7948
G01 X23.5020 Y6.8112
G01 X23.4936 Y6.8314
G01 X23.4870 Y6.8556
G01 X23.4840 Y6.8746
G01 X23.4829 Y6.8946
G01 X23.4829 Y19.2565
G01 X23.4837 Y19.2738
G01 X23.4863 Y19.3000
G01 X23.4729 Y19.4358
G01 X23.4333 Y19.5665
G01 X23.3689 Y19.6868
G01 X23.2824 Y19.7924
G01 X23.2620 Y19.8091
G01 X23.2492 Y19.8207
G01 X21.4007 Y21.6692
G01 X21.3891 Y21.6820
G01 X21.3724 Y21.7024
G01 X21.2668 Y21.7889
G01 X21.1465 Y21.8533
G01 X21.0158 Y21.8929
G01 X20.8800 Y21.9063
G01 X20.8538 Y21.9037
G01 X20.8365 Y21.9029
G01 X19.5148 Y21.9031
G01 X19.4928 Y21.9053
G01 X19.4744 Y21.9091
G01 X19.4594 Y21.9136
G01 X19.4419 Y21.9207
G01 X19.3568 Y21.9465
G01 X19.2606 Y21.9560
G01 X17.2794 Y21.9560
G01 X17.1832 Y21.9465
G01 X17.0997 Y21.9212
G01 X17.0227 Y21.8801
G01 X16.9553 Y21.8247
G01 X16.8999 Y21.7573
G01 X16.8588 Y21.6803
G01 X16.8335 Y21.5968
G01 X16.8240 Y21.5006
G01 X16.8240 Y20.9194
G01 X16.8335 Y20.8232
G01 X16.8588 Y20.7397
G01 X16.8992 Y20.6641
G01 X16.9059 Y20.6500
G01 X16.9104 Y20.6382
G01 X16.9157 Y20.6201
G01 X16.9188 Y20.6048
G01 X16.9203 Y20.5922
G01 X16.9211 Y20.5750
G01 X16.9203 Y20.5578
G01 X16.9188 Y20.5452
G01 X16.9157 Y20.5299
G01 X16.9104 Y20.5118
G01 X16.9059 Y20.5000
G01 X16.8992 Y20.4859
G01 X16.8588 Y20.4103
G01 X16.8335 Y20.3268
G01 X16.8240 Y20.2306
G01 X16.8240 Y19.6494
G01 X16.8335 Y19.5532
G01 X16.8588 Y19.4697
G01 X16.8992 Y19.3941
G01 X16.9059 Y19.3800
G01 X16.9104 Y19.3682
G01 X16.9157 Y19.3501
G01 X16.9188 Y19.3348
G01 X16.9203 Y19.3222
G01 X16.9211 Y19.3034
G01 X16.9200 Y19.2846
G01 X16.9177 Y19.2691
G01 X16.9149 Y19.2568
G01 X16.9104 Y19.2418
G01 X16.9059 Y19.2300
G01 X16.8992 Y19.2159
G01 X16.8588 Y19.1403
G01 X16.8335 Y19.0568
G01 X16.8240 Y18.9606
G01 X16.8240 Y18.3794
G01 X16.8335 Y18.2832
G01 X16.8588 Y18.1997
G01 X16.8992 Y18.1241
G01 X16.9059 Y18.1100
G01 X16.9104 Y18.0982
G01 X16.9157 Y18.0801
G01 X16.9188 Y18.0648
G01 X16.9203 Y18.0522
G01 X16.9211 Y18.0334
G01 X16.9200 Y18.0146
G01 X16.9177 Y17.9991
G01 X16.9149 Y17.9868
G01 X16.9104 Y17.9718
G01 X16.9059 Y17.9600
G01 X16.8992 Y17.9459
G01 X16.8588 Y17.8703
G01 X16.8335 Y17.7868
G01 X16.8240 Y17.6906
G01 X16.8240 Y17.1094
G01 X16.8335 Y17.0132
G01 X16.8588 Y16.9297
G01 X16.8992 Y16.8541
G01 X16.9059 Y16.8400
G01 X16.9104 Y16.8282
G01 X16.9157 Y16.8101
G01 X16.9188 Y16.7948
G01 X16.9208 Y16.7760
G01 X16.9209 Y16.7572
G01 X16.9200 Y16.7446
G01 X16.9174 Y16.7275
G01 X16.9133 Y16.7108
G01 X16.9093 Y16.6988
G01 X16.8992 Y16.6759
G01 X16.8588 Y16.6003
G01 X16.8335 Y16.5168
G01 X16.8240 Y16.4206
G01 X16.8237 Y16.2026
G01 X16.8203 Y16.1760
G01 X16.8162 Y16.1594
G01 X16.8122 Y16.1474
G01 X16.8062 Y16.1329
G01 X16.8005 Y16.1216
G01 X16.7860 Y16.0989
G01 X16.7677 Y16.0778
G01 X16.7466 Y16.0595
G01 X16.7318 Y16.0495
G01 X16.7211 Y16.0435
G01 X16.7069 Y16.0368
G01 X16.6951 Y16.0322
G01 X16.6695 Y16.0252
G01 X16.6520 Y16.0226
G01 X16.6398 Y16.0217
G01 X16.6209 Y16.0219
G01 X16.6022 Y16.0239
G01 X16.5837 Y16.0277
G01 X16.5657 Y16.0333
G01 X16.5485 Y16.0406
G01 X16.5318 Y16.0497
G01 X16.5172 Y16.0595
G01 X16.5018 Y16.0724
G01 X15.8331 Y16.7408
G01 X15.8205 Y16.7549
G01 X15.8094 Y16.7701
G01 X15.7999 Y16.7864
G01 X15.7923 Y16.8027
G01 X15.7858 Y16.8213
G01 X15.7816 Y16.8380
G01 X15.7790 Y16.8555
G01 X15.7779 Y16.8755
G01 X15.7779 Y18.0002
G01 X15.7787 Y18.0174
G01 X15.7809 Y18.0400
G01 X15.7690 Y18.1611
G01 X15.7337 Y18.2776
G01 X15.6763 Y18.3850
G01 X15.5991 Y18.4791
G01 X15.5816 Y18.4935
G01 X15.5688 Y18.5051
G01 X12.8251 Y21.2488
G01 X12.8135 Y21.2615
G01 X12.7991 Y21.2791
G01 X12.7050 Y21.3563
G01 X12.5976 Y21.4137
G01 X12.4811 Y21.4490
G01 X12.3600 Y21.4609
G01 X12.3374 Y21.4587
G01 X12.3202 Y21.4579
G01 X9.8998 Y21.4579
G01 X9.8826 Y21.4587
G01 X9.8600 Y21.4609
G01 X9.7389 Y21.4490
G01 X9.6224 Y21.4137
G01 X9.5150 Y21.3563
G01 X9.4209 Y21.2791
G01 X9.4065 Y21.2616
G01 X9.3949 Y21.2488
G01 X6.9512 Y18.8051
G01 X6.9384 Y18.7935
G01 X6.9209 Y18.7791
G01 X6.8437 Y18.6850
G01 X6.7863 Y18.5776
G01 X6.7510 Y18.4611
G01 X6.7391 Y18.3400
G01 X6.7413 Y18.3174
G01 X6.7421 Y18.3002
G01 X6.7421 Y15.7513
G01 X6.7412 Y15.7340
G00 Z1.9990
G00 X8.1458 Y16.9935
G01 F80.00
G01 Z-0.0700
G01 F200.00
G01 X8.1450 Y16.9600
G01 X8.1458 Y16.9265
G01 X8.1486 Y16.8887
G01 X8.1530 Y16.8535
G01 X8.1588 Y16.8204
G01 X8.1661 Y16.7878
G01 X8.1763 Y16.7509
G01 X8.1874 Y16.7176
G01 X8.1991 Y16.6871
G01 X8.2130 Y16.6557
G01 X8.2302 Y16.6216
G01 X8.2474 Y16.5913
G01 X8.2646 Y16.5641
G01 X8.2859 Y16.5338
G01 X8.3083 Y16.5052
G01 X8.3292 Y16.4810
G01 X8.3533 Y16.4556
G01 X8.3810 Y16.4292
G01 X8.4052 Y16.4083
G01 X8.4328 Y16.3867
G01 X8.4615 Y16.3664
G01 X8.4938 Y16.3459
G01 X8.5244 Y16.3287
G01 X8.5530 Y16.3143
G01 X8.5871 Y16.2991
G01 X8.6206 Y16.2863
G01 X8.6509 Y16.2763
G01 X8.6847 Y16.2668
G01 X8.7204 Y16.2588
G01 X8.7567 Y16.2525
G01 X8.7883 Y16.2486
G01 X8.8233 Y16.2460
G01 X8.8600 Y16.2450
G01 X8.8967 Y16.2460
G01 X8.9313 Y16.2486
G01 X8.9633 Y16.2525
G01 X9.0011 Y16.2591
G01 X9.0322 Y16.2661
G01 X9.0660 Y16.2753
G01 X9.0994 Y16.2863
G01 X9.1351 Y16.3001
G01 X9.1670 Y16.3143
G01 X9.1956 Y16.3287
G01 X9.2287 Y16.3474
G01 X9.2559 Y16.3646
G01 X9.2846 Y16.3848
G01 X9.3145 Y16.4081
G01 X9.3413 Y16.4313
G01 X9.3656 Y16.4544
G01 X9.3887 Y16.4787
G01 X9.4137 Y16.5077
G01 X9.4341 Y16.5338
G01 X9.4536 Y16.5615
G01 X9.4741 Y16.5938
G01 X9.4913 Y16.6244
G01 X9.5070 Y16.6557
G01 X9.5209 Y16.6871
G01 X9.5326 Y16.7176
G01 X9.5447 Y16.7540
G01 X9.5532 Y16.7847
G01 X9.5609 Y16.8189
G01 X9.5675 Y16.8567
G01 X9.5714 Y16.8883
G01 X9.5740 Y16.9233
G01 X9.5750 Y16.9600
G01 X9.5740 Y16.9967
G01 X9.5714 Y17.0313
G01 X9.5675 Y17.0633
G01 X9.5612 Y17.0996
G01 X9.5539 Y17.1322
G01 X9.5447 Y17.1660
G01 X9.5326 Y17.2024
G01 X9.5209 Y17.2329
G01 X9.5070 Y17.2643
G01 X9.4898 Y17.2984
G01 X9.4726 Y17.3287
G01 X9.4554 Y17.3559
G01 X9.4341 Y17.3862
G01 X9.4119 Y17.4145
G01 X9.3908 Y17.4390
G01 X9.3656 Y17.4656
G01 X9.3390 Y17.4908
G01 X9.3123 Y17.5137
G01 X9.2862 Y17.5341
G01 X9.2585 Y17.5536
G01 X9.2289 Y17.5724
G01 X9.1956 Y17.5913
G01 X9.1670 Y17.6057
G01 X9.1351 Y17.6199
G01 X9.1001 Y17.6335
G01 X9.1001 Y18.3406
G01 X9.8594 Y19.0999
G01 X11.6606 Y19.0999
G01 X13.8199 Y16.9406
G01 X13.8201 Y15.8298
G01 X13.8212 Y15.8153
G01 X13.8245 Y15.7931
G01 X13.8298 Y15.7718
G01 X13.8345 Y15.7576
G01 X13.8423 Y15.7388
G01 X13.8490 Y15.7254
G01 X13.8613 Y15.7053
G01 X13.8734 Y15.6889
G01 X13.8902 Y15.6702
G01 X16.1402 Y13.4202
G01 X16.1500 Y13.4111
G01 X16.1667 Y13.3974
G01 X16.1852 Y13.3849
G01 X16.1982 Y13.3775
G01 X16.2167 Y13.3688
G01 X16.2306 Y13.3634
G01 X16.2501 Y13.3575
G01 X16.2631 Y13.3545
G01 X16.2849 Y13.3512
G01 X16.2998 Y13.3501
G01 X17.2050 Y13.3499
G01 X17.2053 Y13.2840
G01 X17.2075 Y13.2721
G01 X17.2120 Y13.2607
G01 X17.2169 Y13.2525
G01 X17.2229 Y13.2452
G01 X17.2352 Y13.2351
G01 X17.2492 Y13.2284
G01 X17.2580 Y13.2261
G01 X17.2670 Y13.2251
G01 X19.2700 Y13.2250
G01 X19.2790 Y13.2256
G01 X19.2908 Y13.2284
G01 X19.2993 Y13.2320
G01 X19.3075 Y13.2369
G01 X19.3148 Y13.2429
G01 X19.3212 Y13.2500
G01 X19.3265 Y13.2579
G01 X19.3316 Y13.2692
G01 X19.3339 Y13.2780
G01 X19.3350 Y13.2900
G01 X19.3347 Y13.8960
G01 X19.3325 Y13.9079
G01 X19.3294 Y13.9164
G01 X19.3249 Y13.9248
G01 X19.3171 Y13.9348
G01 X19.3100 Y13.9412
G01 X19.3021 Y13.9465
G01 X19.2936 Y13.9506
G01 X19.2820 Y13.9539
G01 X19.2700 Y13.9550
G01 X17.2670 Y13.9549
G01 X17.2580 Y13.9539
G01 X17.2492 Y13.9516
G01 X17.2352 Y13.9449
G01 X17.2275 Y13.9392
G01 X17.2208 Y13.9325
G01 X17.2120 Y13.9193
G01 X17.2075 Y13.9079
G01 X17.2053 Y13.8960
G01 X17.2050 Y13.8301
G01 X16.4094 Y13.8301
G01 X14.3001 Y15.9394
G01 X14.2999 Y17.0502
G01 X14.2988 Y17.0647
G01 X14.2955 Y17.0869
G01 X14.2902 Y17.1082
G01 X14.2855 Y17.1224
G01 X14.2777 Y17.1412
G01 X14.2710 Y17.1546
G01 X14.2587 Y17.1747
G01 X14.2466 Y17.1911
G01 X14.2298 Y17.2098
G01 X11.9298 Y19.5098
G01 X11.9111 Y19.5266
G01 X11.8848 Y19.5451
G01 X11.8639 Y19.5564
G01 X11.8394 Y19.5666
G01 X11.8168 Y19.5733
G01 X11.7968 Y19.5772
G01 X11.7819 Y19.5791
G01 X11.7600 Y19.5801
G01 X9.7584 Y19.5801
G01 X9.7381 Y19.5791
G01 X9.7232 Y19.5772
G01 X9.7032 Y19.5733
G01 X9.6888 Y19.5693
G01 X9.6689 Y19.5621
G01 X9.6561 Y19.5564
G01 X9.6379 Y19.5467
G01 X9.6253 Y19.5387
G01 X9.6068 Y19.5248
G01 X9.5902 Y19.5098
G01 X8.6902 Y18.6098
G01 X8.6811 Y18.6000
G01 X8.6681 Y18.5843
G01 X8.6533 Y18.5621
G01 X8.6388 Y18.5333
G01 X8.6298 Y18.5082
G01 X8.6228 Y18.4768
G01 X8.6201 Y18.4502
G01 X8.6199 Y17.6335
G01 X8.5849 Y17.6199
G01 X8.5530 Y17.6057
G01 X8.5244 Y17.5913
G01 X8.4911 Y17.5724
G01 X8.4615 Y17.5536
G01 X8.4338 Y17.5341
G01 X8.4055 Y17.5119
G01 X8.3810 Y17.4908
G01 X8.3544 Y17.4656
G01 X8.3292 Y17.4390
G01 X8.3063 Y17.4123
G01 X8.2859 Y17.3862
G01 X8.2664 Y17.3585
G01 X8.2476 Y17.3289
G01 X8.2287 Y17.2956
G01 X8.2143 Y17.2670
G01 X8.2001 Y17.2351
G01 X8.1863 Y17.1994
G01 X8.1763 Y17.1691
G01 X8.1668 Y17.1353
G01 X8.1588 Y17.0996
G01 X8.1530 Y17.0665
G01 X8.1486 Y17.0317
G01 X8.1458 Y16.9935
G00 Z1.9990
G00 X9.6810 Y17.3524
G01 F80.00
G01 Z-0.0700
G01 F200.00
G01 X10.2665 Y17.9379
G01 X10.2590 Y17.9828
G01 X10.2549 Y18.0160
G01 X10.2509 Y18.0717
G01 X10.2500 Y18.1100
G01 X10.2509 Y18.1483
G01 X10.2551 Y18.2055
G01 X10.2609 Y18.2498
G01 X10.2663 Y18.2813
G01 X10.2789 Y18.3373
G01 X10.2911 Y18.3802
G01 X10.3054 Y18.4226
G01 X10.3181 Y18.4553
G01 X10.3347 Y18.4933
G01 X10.3545 Y18.5333
G01 X10.3763 Y18.5723
G01 X10.4070 Y18.6208
G01 X10.4299 Y18.6532
G01 X10.4526 Y18.6823
G01 X10.4901 Y18.7258
G01 X10.5165 Y18.7535
G01 X10.5442 Y18.7799
G01 X10.5877 Y18.8174
G01 X10.6168 Y18.8401
G01 X10.6492 Y18.8630
G01 X10.6878 Y18.8879
G01 X10.7174 Y18.9049
G01 X9.9402 Y18.9049
G01 X9.2951 Y18.2598
G01 X9.2951 Y17.7592
G01 X9.3333 Y17.7372
G01 X9.3708 Y17.7130
G01 X9.4032 Y17.6901
G01 X9.4323 Y17.6674
G01 X9.4758 Y17.6299
G01 X9.5035 Y17.6035
G01 X9.5299 Y17.5758
G01 X9.5674 Y17.5323
G01 X9.5901 Y17.5032
G01 X9.6130 Y17.4708
G01 X9.6437 Y17.4223
G01 X9.6655 Y17.3833
G01 X9.6810 Y17.3524
G00 Z1.9990
G00 X10.3484 Y16.2459
G01 F80.00
G01 Z-0.0700
G01 F200.00
G01 X10.3475 Y16.2100
G01 X10.3483 Y16.1741
G01 X10.3511 Y16.1343
G01 X10.3558 Y16.0947
G01 X10.3631 Y16.0513
G01 X10.3709 Y16.0165
G01 X10.3837 Y15.9703
G01 X10.3964 Y15.9325
G01 X10.4086 Y15.9009
G01 X10.4238 Y15.8662
G01 X10.4416 Y15.8305
G01 X10.4652 Y15.7889
G01 X10.4867 Y15.7553
G01 X10.5079 Y15.7253
G01 X10.5338 Y15.6923
G01 X10.5553 Y15.6673
G01 X10.5855 Y15.6355
G01 X10.6114 Y15.6107
G01 X10.6415 Y15.5845
G01 X10.6728 Y15.5598
G01 X10.7119 Y15.5323
G01 X10.7389 Y15.5152
G01 X10.7735 Y15.4954
G01 X10.8094 Y15.4771
G01 X10.8454 Y15.4609
G01 X10.8900 Y15.4437
G01 X10.9280 Y15.4314
G01 X10.9665 Y15.4209
G01 X11.0013 Y15.4131
G01 X11.0368 Y15.4069
G01 X11.0764 Y15.4019
G01 X11.1162 Y15.3987
G01 X11.1640 Y15.3975
G01 X11.2038 Y15.3987
G01 X11.2427 Y15.4017
G01 X11.2753 Y15.4058
G01 X11.3146 Y15.4124
G01 X11.3613 Y15.4229
G01 X11.3920 Y15.4314
G01 X11.4300 Y15.4437
G01 X11.4691 Y15.4586
G01 X11.5038 Y15.4738
G01 X11.5465 Y15.4954
G01 X11.5804 Y15.5148
G01 X11.6081 Y15.5323
G01 X11.6472 Y15.5598
G01 X11.6777 Y15.5838
G01 X11.7027 Y15.6053
G01 X11.7345 Y15.6355
G01 X11.7593 Y15.6614
G01 X11.7855 Y15.6915
G01 X11.8121 Y15.7253
G01 X11.8377 Y15.7619
G01 X11.8589 Y15.7957
G01 X11.8784 Y15.8305
G01 X11.8989 Y15.8724
G01 X11.9502 Y15.8724
G01 X15.7413 Y12.0813
G01 X15.7628 Y12.0616
G01 X15.7821 Y12.0465
G01 X15.8099 Y12.0284
G01 X15.8325 Y12.0164
G01 X15.8526 Y12.0074
G01 X15.8700 Y12.0008
G01 X15.9019 Y11.9916
G01 X15.9344 Y11.9855
G01 X15.9674 Y11.9827
G01 X17.1119 Y11.9824
G01 X17.1160 Y11.9681
G01 X17.1215 Y11.9540
G01 X17.1328 Y11.9330
G01 X17.1419 Y11.9200
G01 X17.1523 Y11.9079
G01 X17.1700 Y11.8919
G01 X17.1898 Y11.8787
G01 X17.2040 Y11.8715
G01 X17.2181 Y11.8660
G01 X17.2400 Y11.8603
G01 X17.2549 Y11.8582
G01 X17.2700 Y11.8575
G01 X19.2775 Y11.8577
G01 X19.3000 Y11.8603
G01 X19.3219 Y11.8660
G01 X19.3432 Y11.8749
G01 X19.3636 Y11.8872
G01 X19.3821 Y11.9023
G01 X19.3981 Y11.9200
G01 X19.4113 Y11.9398
G01 X19.4185 Y11.9540
G01 X19.4262 Y11.9753
G01 X19.4297 Y11.9900
G01 X19.4318 Y12.0049
G01 X19.4325 Y12.0200
G01 X19.4325 Y12.6200
G01 X19.4309 Y12.6426
G01 X19.4281 Y12.6574
G01 X19.4240 Y12.6719
G01 X19.4151 Y12.6932
G01 X19.4028 Y12.7136
G01 X19.3877 Y12.7321
G01 X19.3700 Y12.7481
G01 X19.3502 Y12.7613
G01 X19.3290 Y12.7714
G01 X19.3074 Y12.7781
G01 X19.2851 Y12.7818
G01 X19.2700 Y12.7825
G01 X17.2625 Y12.7823
G01 X17.2400 Y12.7797
G01 X17.2253 Y12.7762
G01 X17.2110 Y12.7714
G01 X17.1968 Y12.7651
G01 X17.1830 Y12.7572
G01 X17.1638 Y12.7430
G01 X17.1470 Y12.7262
G01 X17.1328 Y12.7070
G01 X17.1215 Y12.6860
G01 X17.1160 Y12.6719
G01 X17.1119 Y12.6576
G01 X16.1198 Y12.6576
G01 X12.3196 Y16.4574
G01 X12.3010 Y16.4735
G01 X12.2879 Y16.4835
G01 X12.2670 Y16.4975
G01 X12.2456 Y16.5096
G01 X12.2229 Y16.5203
G01 X12.2075 Y16.5265
G01 X12.1842 Y16.5342
G01 X12.1598 Y16.5403
G01 X12.1271 Y16.5455
G01 X12.1026 Y16.5473
G01 X11.8989 Y16.5476
G01 X11.8746 Y16.5965
G01 X11.8552 Y16.6304
G01 X11.8333 Y16.6647
G01 X11.8121 Y16.6947
G01 X11.7862 Y16.7277
G01 X11.7593 Y16.7586
G01 X11.7345 Y16.7845
G01 X11.7086 Y16.8093
G01 X11.6785 Y16.8355
G01 X11.6408 Y16.8649
G01 X11.6081 Y16.8877
G01 X11.5743 Y16.9089
G01 X11.5395 Y16.9284
G01 X11.5106 Y16.9429
G01 X11.4691 Y16.9614
G01 X11.4300 Y16.9763
G01 X11.3997 Y16.9863
G01 X11.3613 Y16.9971
G01 X11.3187 Y17.0069
G01 X11.2753 Y17.0142
G01 X11.2357 Y17.0189
G01 X11.2038 Y17.0213
G01 X11.1640 Y17.0225
G01 X11.1241 Y17.0217
G01 X11.0773 Y17.0183
G01 X11.0368 Y17.0131
G01 X11.0013 Y17.0069
G01 X10.9665 Y16.9991
G01 X10.9280 Y16.9886
G01 X10.8900 Y16.9763
G01 X10.8454 Y16.9591
G01 X10.8094 Y16.9429
G01 X10.7805 Y16.9284
G01 X10.7396 Y16.9052
G01 X10.7053 Y16.8833
G01 X10.6753 Y16.8621
G01 X10.6477 Y16.8406
G01 X10.6173 Y16.8147
G01 X10.5855 Y16.7845
G01 X10.5553 Y16.7527
G01 X10.5345 Y16.7285
G01 X10.5098 Y16.6972
G01 X10.4867 Y16.6647
G01 X10.4611 Y16.6243
G01 X10.4454 Y16.5965
G01 X10.4273 Y16.5610
G01 X10.4109 Y16.5246
G01 X10.3964 Y16.4875
G01 X10.3814 Y16.4420
G01 X10.3709 Y16.4035
G01 X10.3631 Y16.3687
G01 X10.3569 Y16.3332
G01 X10.3517 Y16.2927
G01 X10.3484 Y16.2459
G00 Z1.9990
G00 X10.4458 Y16.2435
G01 F80.00
G01 Z-0.0700
G01 F200.00
G01 X10.4450 Y16.2100
G01 X10.4458 Y16.1765
G01 X10.4486 Y16.1387
G01 X10.4525 Y16.1067
G01 X10.4588 Y16.0704
G01 X10.4661 Y16.0378
G01 X10.4763 Y16.0009
G01 X10.4874 Y15.9676
G01 X10.4991 Y15.9371
G01 X10.5130 Y15.9057
G01 X10.5287 Y15.8744
G01 X10.5474 Y15.8413
G01 X10.5646 Y15.8141
G01 X10.5859 Y15.7838
G01 X10.6063 Y15.7577
G01 X10.6313 Y15.7287
G01 X10.6544 Y15.7044
G01 X10.6810 Y15.6792
G01 X10.7077 Y15.6563
G01 X10.7338 Y15.6359
G01 X10.7615 Y15.6164
G01 X10.7911 Y15.5976
G01 X10.8216 Y15.5802
G01 X10.8530 Y15.5643
G01 X10.8871 Y15.5491
G01 X10.9176 Y15.5374
G01 X10.9509 Y15.5263
G01 X10.9847 Y15.5168
G01 X11.0221 Y15.5084
G01 X11.0567 Y15.5025
G01 X11.0915 Y15.4983
G01 X11.1233 Y15.4960
G01 X11.1584 Y15.4950
G01 X11.1967 Y15.4960
G01 X11.2313 Y15.4986
G01 X11.2633 Y15.5025
G01 X11.3011 Y15.5091
G01 X11.3322 Y15.5161
G01 X11.3660 Y15.5253
G01 X11.4024 Y15.5374
G01 X11.4329 Y15.5491
G01 X11.4670 Y15.5643
G01 X11.4984 Y15.5802
G01 X11.5287 Y15.5974
G01 X11.5585 Y15.6164
G01 X11.5862 Y15.6359
G01 X11.6145 Y15.6581
G01 X11.6413 Y15.6813
G01 X11.6656 Y15.7044
G01 X11.6908 Y15.7310
G01 X11.7137 Y15.7577
G01 X11.7341 Y15.7838
G01 X11.7554 Y15.8141
G01 X11.7741 Y15.8438
G01 X11.7913 Y15.8744
G01 X11.8070 Y15.9057
G01 X11.8209 Y15.9371
G01 X11.8335 Y15.9699
G01 X11.9906 Y15.9699
G01 X15.8102 Y12.1502
G01 X15.8265 Y12.1354
G01 X15.8383 Y12.1262
G01 X15.8579 Y12.1133
G01 X15.8761 Y12.1036
G01 X15.9006 Y12.0934
G01 X15.9232 Y12.0867
G01 X15.9549 Y12.0812
G01 X15.9784 Y12.0799
G01 X17.2050 Y12.0799
G01 X17.2053 Y12.0140
G01 X17.2075 Y12.0021
G01 X17.2120 Y11.9907
G01 X17.2208 Y11.9775
G01 X17.2275 Y11.9708
G01 X17.2352 Y11.9651
G01 X17.2492 Y11.9584
G01 X17.2580 Y11.9561
G01 X17.2670 Y11.9551
G01 X19.2700 Y11.9550
G01 X19.2790 Y11.9556
G01 X19.2879 Y11.9575
G01 X19.2964 Y11.9606
G01 X19.3048 Y11.9651
G01 X19.3171 Y11.9752
G01 X19.3231 Y11.9825
G01 X19.3280 Y11.9907
G01 X19.3333 Y12.0050
G01 X19.3350 Y12.0200
G01 X19.3349 Y12.6230
G01 X19.3339 Y12.6320
G01 X19.3306 Y12.6436
G01 X19.3249 Y12.6548
G01 X19.3192 Y12.6625
G01 X19.3125 Y12.6692
G01 X19.3021 Y12.6765
G01 X19.2936 Y12.6806
G01 X19.2820 Y12.6839
G01 X19.2700 Y12.6850
G01 X17.2670 Y12.6849
G01 X17.2580 Y12.6839
G01 X17.2492 Y12.6816
G01 X17.2352 Y12.6749
G01 X17.2229 Y12.6648
G01 X17.2169 Y12.6575
G01 X17.2120 Y12.6493
G01 X17.2075 Y12.6379
G01 X17.2053 Y12.6260
G01 X17.2050 Y12.5601
G01 X16.0794 Y12.5601
G01 X12.2524 Y16.3868
G01 X12.2411 Y16.3966
G01 X12.2247 Y16.4087
G01 X12.2121 Y16.4167
G01 X12.1939 Y16.4264
G01 X12.1811 Y16.4321
G01 X12.1612 Y16.4393
G01 X12.1468 Y16.4433
G01 X12.1268 Y16.4472
G01 X12.1119 Y16.4491
G01 X12.0900 Y16.4501
G01 X11.8335 Y16.4501
G01 X11.8209 Y16.4829
G01 X11.8057 Y16.5170
G01 X11.7898 Y16.5484
G01 X11.7726 Y16.5787
G01 X11.7536 Y16.6085
G01 X11.7341 Y16.6362
G01 X11.7119 Y16.6645
G01 X11.6908 Y16.6890
G01 X11.6656 Y16.7156
G01 X11.6413 Y16.7387
G01 X11.6148 Y16.7617
G01 X11.5862 Y16.7841
G01 X11.5585 Y16.8036
G01 X11.5289 Y16.8224
G01 X11.4984 Y16.8398
G01 X11.4670 Y16.8557
G01 X11.4329 Y16.8709
G01 X11.3994 Y16.8837
G01 X11.3691 Y16.8937
G01 X11.3353 Y16.9032
G01 X11.2996 Y16.9112
G01 X11.2633 Y16.9175
G01 X11.2285 Y16.9217
G01 X11.1967 Y16.9240
G01 X11.1616 Y16.9250
G01 X11.1265 Y16.9242
G01 X11.0887 Y16.9214
G01 X11.0535 Y16.9170
G01 X11.0204 Y16.9112
G01 X10.9878 Y16.9039
G01 X10.9540 Y16.8947
G01 X10.9206 Y16.8837
G01 X10.8849 Y16.8699
G01 X10.8530 Y16.8557
G01 X10.8244 Y16.8413
G01 X10.7913 Y16.8226
G01 X10.7615 Y16.8036
G01 X10.7338 Y16.7841
G01 X10.7077 Y16.7637
G01 X10.6810 Y16.7408
G01 X10.6544 Y16.7156
G01 X10.6292 Y16.6890
G01 X10.6083 Y16.6648
G01 X10.5867 Y16.6372
G01 X10.5664 Y16.6085
G01 X10.5459 Y16.5762
G01 X10.5302 Y16.5484
G01 X10.5143 Y16.5171
G01 X10.5001 Y16.4851
G01 X10.4874 Y16.4524
G01 X10.4753 Y16.4160
G01 X10.4661 Y16.3822
G01 X10.4588 Y16.3496
G01 X10.4530 Y16.3165
G01 X10.4486 Y16.2813
G01 X10.4458 Y16.2435
G00 Z1.9990
G00 X10.4458 Y14.3435
G01 F80.00
G01 Z-0.0700
G01 F200.00
G01 X10.4450 Y14.3100
G01 X10.4458 Y14.2765
G01 X10.4486 Y14.2387
G01 X10.4525 Y14.2067
G01 X10.4588 Y14.1704
G01 X10.4661 Y14.1378
G01 X10.4753 Y14.1040
G01 X10.4863 Y14.0706
G01 X10.4991 Y14.0371
G01 X10.5130 Y14.0057
G01 X10.5302 Y13.9716
G01 X10.5474 Y13.9413
G01 X10.5664 Y13.9115
G01 X10.5859 Y13.8838
G01 X10.6081 Y13.8555
G01 X10.6313 Y13.8287
G01 X10.6544 Y13.8044
G01 X10.6787 Y13.7813
G01 X10.7052 Y13.7583
G01 X10.7338 Y13.7359
G01 X10.7615 Y13.7164
G01 X10.7938 Y13.6959
G01 X10.8244 Y13.6787
G01 X10.8530 Y13.6643
G01 X10.8871 Y13.6491
G01 X10.9176 Y13.6374
G01 X10.9509 Y13.6263
G01 X10.9847 Y13.6168
G01 X11.0204 Y13.6088
G01 X11.0535 Y13.6030
G01 X11.0883 Y13.5986
G01 X11.1233 Y13.5960
G01 X11.1616 Y13.5950
G01 X11.1967 Y13.5960
G01 X11.2313 Y13.5986
G01 X11.2665 Y13.6030
G01 X11.2996 Y13.6088
G01 X11.3322 Y13.6161
G01 X11.3660 Y13.6253
G01 X11.3994 Y13.6363
G01 X11.4321 Y13.6488
G01 X11.4671 Y13.6643
G01 X11.4984 Y13.6802
G01 X11.5287 Y13.6974
G01 X11.5585 Y13.7164
G01 X11.5862 Y13.7359
G01 X11.6145 Y13.7581
G01 X11.6390 Y13.7792
G01 X11.6656 Y13.8044
G01 X11.6887 Y13.8287
G01 X11.7137 Y13.8577
G01 X11.7341 Y13.8838
G01 X11.7536 Y13.9115
G01 X11.7724 Y13.9411
G01 X11.7898 Y13.9716
G01 X11.8070 Y14.0057
G01 X11.8209 Y14.0371
G01 X11.8335 Y14.0699
G01 X12.1382 Y14.0699
G01 X15.3279 Y10.8802
G01 X15.3466 Y10.8634
G01 X15.3656 Y10.8495
G01 X15.3859 Y10.8375
G01 X15.4065 Y10.8279
G01 X15.4295 Y10.8198
G01 X15.4507 Y10.8145
G01 X15.4725 Y10.8112
G01 X15.4976 Y10.8099
G01 X17.2050 Y10.8099
G01 X17.2053 Y10.7440
G01 X17.2075 Y10.7321
G01 X17.2120 Y10.7207
G01 X17.2169 Y10.7125
G01 X17.2229 Y10.7052
G01 X17.2352 Y10.6951
G01 X17.2492 Y10.6884
G01 X17.2580 Y10.6861
G01 X17.2670 Y10.6851
G01 X19.2700 Y10.6850
G01 X19.2790 Y10.6856
G01 X19.2908 Y10.6884
G01 X19.2993 Y10.6920
G01 X19.3075 Y10.6969
G01 X19.3148 Y10.7029
G01 X19.3212 Y10.7100
G01 X19.3265 Y10.7179
G01 X19.3306 Y10.7264
G01 X19.3339 Y10.7380
G01 X19.3350 Y10.7500
G01 X19.3347 Y11.3560
G01 X19.3325 Y11.3679
G01 X19.3294 Y11.3764
G01 X19.3249 Y11.3848
G01 X19.3171 Y11.3948
G01 X19.3075 Y11.4031
G01 X19.2993 Y11.4080
G01 X19.2908 Y11.4116
G01 X19.2790 Y11.4144
G01 X19.2700 Y11.4150
G01 X17.2670 Y11.4149
G01 X17.2580 Y11.4139
G01 X17.2492 Y11.4116
G01 X17.2352 Y11.4049
G01 X17.2229 Y11.3948
G01 X17.2169 Y11.3875
G01 X17.2120 Y11.3793
G01 X17.2075 Y11.3679
G01 X17.2053 Y11.3560
G01 X17.2050 Y11.2901
G01 X15.5971 Y11.2901
G01 X12.3977 Y14.4889
G01 X12.3819 Y14.5019
G01 X12.3697 Y14.5105
G01 X12.3522 Y14.5210
G01 X12.3310 Y14.5312
G01 X12.3170 Y14.5366
G01 X12.2975 Y14.5425
G01 X12.2829 Y14.5458
G01 X12.2627 Y14.5488
G01 X12.2376 Y14.5501
G01 X11.8335 Y14.5501
G01 X11.8209 Y14.5829
G01 X11.8057 Y14.6170
G01 X11.7898 Y14.6484
G01 X11.7726 Y14.6787
G01 X11.7536 Y14.7085
G01 X11.7341 Y14.7362
G01 X11.7119 Y14.7645
G01 X11.6887 Y14.7913
G01 X11.6656 Y14.8156
G01 X11.6390 Y14.8408
G01 X11.6123 Y14.8637
G01 X11.5862 Y14.8841
G01 X11.5585 Y14.9036
G01 X11.5289 Y14.9224
G01 X11.4984 Y14.9398
G01 X11.4670 Y14.9557
G01 X11.4329 Y14.9709
G01 X11.3994 Y14.9837
G01 X11.3691 Y14.9937
G01 X11.3353 Y15.0032
G01 X11.2996 Y15.0112
G01 X11.2633 Y15.0175
G01 X11.2317 Y15.0214
G01 X11.1967 Y15.0240
G01 X11.1616 Y15.0250
G01 X11.1265 Y15.0242
G01 X11.0887 Y15.0214
G01 X11.0535 Y15.0170
G01 X11.0189 Y15.0109
G01 X10.9847 Y15.0032
G01 X10.9540 Y14.9947
G01 X10.9206 Y14.9837
G01 X10.8871 Y14.9709
G01 X10.8530 Y14.9557
G01 X10.8216 Y14.9398
G01 X10.7913 Y14.9226
G01 X10.7641 Y14.9054
G01 X10.7338 Y14.8841
G01 X10.7052 Y14.8617
G01 X10.6787 Y14.8387
G01 X10.6544 Y14.8156
G01 X10.6313 Y14.7913
G01 X10.6083 Y14.7648
G01 X10.5848 Y14.7346
G01 X10.5664 Y14.7085
G01 X10.5476 Y14.6789
G01 X10.5302 Y14.6484
G01 X10.5143 Y14.6170
G01 X10.4988 Y14.5821
G01 X10.4863 Y14.5494
G01 X10.4763 Y14.5191
G01 X10.4668 Y14.4853
G01 X10.4588 Y14.4496
G01 X10.4525 Y14.4133
G01 X10.4483 Y14.3785
G01 X10.4458 Y14.3435
G00 Z1.9990
G00 X10.3484 Y14.3459
G01 F80.00
G01 Z-0.0700
G01 F200.00
G01 X10.3475 Y14.3100
G01 X10.3483 Y14.2741
G01 X10.3511 Y14.2343
G01 X10.3558 Y14.1947
G01 X10.3631 Y14.1513
G01 X10.3709 Y14.1165
G01 X10.3837 Y14.0703
G01 X10.3964 Y14.0325
G01 X10.4086 Y14.0009
G01 X10.4238 Y13.9662
G01 X10.4416 Y13.9305
G01 X10.4611 Y13.8957
G01 X10.4823 Y13.8619
G01 X10.5098 Y13.8228
G01 X10.5338 Y13.7923
G01 X10.5553 Y13.7673
G01 X10.5855 Y13.7355
G01 X10.6114 Y13.7107
G01 X10.6415 Y13.6845
G01 X10.6728 Y13.6598
G01 X10.7119 Y13.6323
G01 X10.7457 Y13.6111
G01 X10.7805 Y13.5916
G01 X10.8162 Y13.5738
G01 X10.8509 Y13.5586
G01 X10.8825 Y13.5464
G01 X10.9203 Y13.5337
G01 X10.9587 Y13.5229
G01 X10.9976 Y13.5139
G01 X11.0447 Y13.5058
G01 X11.0764 Y13.5019
G01 X11.1162 Y13.4987
G01 X11.1640 Y13.4975
G01 X11.1959 Y13.4983
G01 X11.2357 Y13.5011
G01 X11.2832 Y13.5069
G01 X11.3187 Y13.5131
G01 X11.3535 Y13.5209
G01 X11.3997 Y13.5337
G01 X11.4375 Y13.5464
G01 X11.4691 Y13.5586
G01 X11.5038 Y13.5738
G01 X11.5395 Y13.5916
G01 X11.5743 Y13.6111
G01 X11.6081 Y13.6323
G01 X11.6447 Y13.6579
G01 X11.6723 Y13.6794
G01 X11.7027 Y13.7053
G01 X11.7317 Y13.7327
G01 X11.7593 Y13.7614
G01 X11.7855 Y13.7915
G01 X11.8121 Y13.8253
G01 X11.8333 Y13.8553
G01 X11.8548 Y13.8889
G01 X11.8746 Y13.9235
G01 X11.8989 Y13.9724
G01 X12.0978 Y13.9724
G01 X15.2589 Y10.8113
G01 X15.2866 Y10.7865
G01 X15.3134 Y10.7671
G01 X15.3420 Y10.7504
G01 X15.3703 Y10.7374
G01 X15.4035 Y10.7258
G01 X15.4316 Y10.7189
G01 X15.4606 Y10.7145
G01 X15.4936 Y10.7125
G01 X17.1119 Y10.7124
G01 X17.1160 Y10.6981
G01 X17.1215 Y10.6840
G01 X17.1328 Y10.6630
G01 X17.1419 Y10.6500
G01 X17.1523 Y10.6379
G01 X17.1700 Y10.6219
G01 X17.1898 Y10.6087
G01 X17.2040 Y10.6015
G01 X17.2181 Y10.5960
G01 X17.2400 Y10.5903
G01 X17.2549 Y10.5882
G01 X17.2700 Y10.5875
G01 X19.2775 Y10.5877
G01 X19.3000 Y10.5903
G01 X19.3219 Y10.5960
G01 X19.3432 Y10.6049
G01 X19.3636 Y10.6172
G01 X19.3821 Y10.6323
G01 X19.3981 Y10.6500
G01 X19.4113 Y10.6698
G01 X19.4214 Y10.6910
G01 X19.4262 Y10.7053
G01 X19.4297 Y10.7200
G01 X19.4318 Y10.7349
G01 X19.4325 Y10.7500
G01 X19.4325 Y11.3500
G01 X19.4309 Y11.3726
G01 X19.4281 Y11.3874
G01 X19.4240 Y11.4019
G01 X19.4151 Y11.4232
G01 X19.4028 Y11.4436
G01 X19.3877 Y11.4621
G01 X19.3700 Y11.4781
G01 X19.3502 Y11.4913
G01 X19.3290 Y11.5014
G01 X19.3147 Y11.5062
G01 X19.3000 Y11.5097
G01 X19.2851 Y11.5118
G01 X19.2700 Y11.5125
G01 X17.2625 Y11.5123
G01 X17.2400 Y11.5097
G01 X17.2253 Y11.5062
G01 X17.2110 Y11.5014
G01 X17.1968 Y11.4951
G01 X17.1830 Y11.4872
G01 X17.1638 Y11.4730
G01 X17.1470 Y11.4562
G01 X17.1328 Y11.4370
G01 X17.1215 Y11.4160
G01 X17.1160 Y11.4019
G01 X17.1119 Y11.3876
G01 X15.6375 Y11.3876
G01 X12.4763 Y14.5487
G01 X12.4614 Y14.5628
G01 X12.4394 Y14.5806
G01 X12.4218 Y14.5929
G01 X12.4003 Y14.6058
G01 X12.3852 Y14.6136
G01 X12.3650 Y14.6226
G01 X12.3394 Y14.6318
G01 X12.3158 Y14.6384
G01 X12.2911 Y14.6433
G01 X12.2667 Y14.6463
G01 X12.2376 Y14.6476
G01 X11.8989 Y14.6476
G01 X11.8746 Y14.6965
G01 X11.8552 Y14.7304
G01 X11.8333 Y14.7647
G01 X11.8121 Y14.7947
G01 X11.7862 Y14.8277
G01 X11.7593 Y14.8586
G01 X11.7317 Y14.8873
G01 X11.7027 Y14.9147
G01 X11.6723 Y14.9406
G01 X11.6447 Y14.9621
G01 X11.6081 Y14.9877
G01 X11.5743 Y15.0089
G01 X11.5395 Y15.0284
G01 X11.5038 Y15.0462
G01 X11.4691 Y15.0614
G01 X11.4300 Y15.0763
G01 X11.3997 Y15.0863
G01 X11.3613 Y15.0971
G01 X11.3187 Y15.1069
G01 X11.2753 Y15.1142
G01 X11.2436 Y15.1181
G01 X11.2038 Y15.1213
G01 X11.1640 Y15.1225
G01 X11.1241 Y15.1217
G01 X11.0773 Y15.1183
G01 X11.0368 Y15.1131
G01 X10.9976 Y15.1061
G01 X10.9587 Y15.0971
G01 X10.9280 Y15.0886
G01 X10.8900 Y15.0763
G01 X10.8509 Y15.0614
G01 X10.8094 Y15.0429
G01 X10.7735 Y15.0246
G01 X10.7396 Y15.0052
G01 X10.7119 Y14.9877
G01 X10.6753 Y14.9621
G01 X10.6423 Y14.9362
G01 X10.6114 Y14.9093
G01 X10.5855 Y14.8845
G01 X10.5607 Y14.8586
G01 X10.5345 Y14.8285
G01 X10.5051 Y14.7908
G01 X10.4867 Y14.7647
G01 X10.4652 Y14.7311
G01 X10.4454 Y14.6965
G01 X10.4271 Y14.6606
G01 X10.4079 Y14.6172
G01 X10.3937 Y14.5800
G01 X10.3837 Y14.5497
G01 X10.3729 Y14.5113
G01 X10.3631 Y14.4687
G01 X10.3558 Y14.4253
G01 X10.3511 Y14.3857
G01 X10.3484 Y14.3459
G00 Z1.9990
G00 X15.6370 Y16.6783
G01 F80.00
G01 Z-0.0700
G01 F200.00
G01 X15.6226 Y16.7049
G01 X15.6112 Y16.7303
G01 X15.6015 Y16.7571
G01 X15.5951 Y16.7796
G01 X15.5951 Y16.7202
G01 X15.6370 Y16.6783
G00 Z1.9990
G00 X17.2700 Y16.9375
G01 F80.00
G01 Z-0.0700
G01 F200.00
G01 X19.2700 Y16.9375
G01 X19.2851 Y16.9382
G01 X19.3000 Y16.9403
G01 X19.3147 Y16.9438
G01 X19.3290 Y16.9486
G01 X19.3502 Y16.9587
G01 X19.3700 Y16.9719
G01 X19.3877 Y16.9879
G01 X19.3981 Y17.0000
G01 X19.4113 Y17.0198
G01 X19.4214 Y17.0410
G01 X19.4281 Y17.0626
G01 X19.4318 Y17.0849
G01 X19.4325 Y17.1000
G01 X19.4325 Y17.7000
G01 X19.4318 Y17.7151
G01 X19.4297 Y17.7300
G01 X19.4262 Y17.7447
G01 X19.4214 Y17.7590
G01 X19.4113 Y17.7802
G01 X19.3981 Y17.8000
G01 X19.3821 Y17.8177
G01 X19.3636 Y17.8328
G01 X19.3432 Y17.8451
G01 X19.3219 Y17.8540
G01 X19.3000 Y17.8597
G01 X19.2775 Y17.8623
G01 X17.2700 Y17.8625
G01 X17.2549 Y17.8618
G01 X17.2400 Y17.8597
G01 X17.2253 Y17.8562
G01 X17.2110 Y17.8514
G01 X17.1898 Y17.8413
G01 X17.1700 Y17.8281
G01 X17.1579 Y17.8177
G01 X17.1419 Y17.8000
G01 X17.1287 Y17.7802
G01 X17.1215 Y17.7660
G01 X17.1138 Y17.7447
G01 X17.1091 Y17.7226
G01 X17.1075 Y17.7000
G01 X17.1077 Y17.0925
G01 X17.1091 Y17.0774
G01 X17.1119 Y17.0626
G01 X17.1160 Y17.0481
G01 X17.1215 Y17.0340
G01 X17.1287 Y17.0198
G01 X17.1372 Y17.0064
G01 X17.1470 Y16.9938
G01 X17.1579 Y16.9823
G01 X17.1700 Y16.9719
G01 X17.1830 Y16.9628
G01 X17.1968 Y16.9549
G01 X17.2110 Y16.9486
G01 X17.2253 Y16.9438
G01 X17.2400 Y16.9403
G01 X17.2549 Y16.9382
G01 X17.2700 Y16.9375
G00 Z1.9990
G00 X17.2700 Y17.0350
G01 F80.00
G01 Z-0.0700
G01 F200.00
G01 X19.2700 Y17.0350
G01 X19.2820 Y17.0361
G01 X19.2908 Y17.0384
G01 X19.2993 Y17.0420
G01 X19.3075 Y17.0469
G01 X19.3148 Y17.0529
G01 X19.3212 Y17.0600
G01 X19.3265 Y17.0679
G01 X19.3306 Y17.0764
G01 X19.3333 Y17.0850
G01 X19.3349 Y17.0970
G01 X19.3350 Y17.7000
G01 X19.3339 Y17.7120
G01 X19.3316 Y17.7208
G01 X19.3265 Y17.7321
G01 X19.3212 Y17.7400
G01 X19.3148 Y17.7471
G01 X19.3075 Y17.7531
G01 X19.2993 Y17.7580
G01 X19.2908 Y17.7616
G01 X19.2820 Y17.7639
G01 X19.2700 Y17.7650
G01 X17.2700 Y17.7650
G01 X17.2610 Y17.7644
G01 X17.2492 Y17.7616
G01 X17.2407 Y17.7580
G01 X17.2325 Y17.7531
G01 X17.2252 Y17.7471
G01 X17.2188 Y17.7400
G01 X17.2135 Y17.7321
G01 X17.2094 Y17.7236
G01 X17.2067 Y17.7150
G01 X17.2051 Y17.7030
G01 X17.2051 Y17.0970
G01 X17.2067 Y17.0850
G01 X17.2106 Y17.0736
G01 X17.2169 Y17.0625
G01 X17.2252 Y17.0529
G01 X17.2352 Y17.0451
G01 X17.2464 Y17.0394
G01 X17.2580 Y17.0361
G01 X17.2700 Y17.0350
G00 Z1.9990
G00 X17.2700 Y18.2075
G01 F80.00
G01 Z-0.0700
G01 F200.00
G01 X19.2700 Y18.2075
G01 X19.2851 Y18.2082
G01 X19.3000 Y18.2103
G01 X19.3147 Y18.2138
G01 X19.3290 Y18.2186
G01 X19.3502 Y18.2287
G01 X19.3700 Y18.2419
G01 X19.3877 Y18.2579
G01 X19.3981 Y18.2700
G01 X19.4113 Y18.2898
G01 X19.4214 Y18.3110
G01 X19.4281 Y18.3326
G01 X19.4318 Y18.3549
G01 X19.4325 Y18.3700
G01 X19.4325 Y18.9700
G01 X19.4318 Y18.9851
G01 X19.4297 Y19.0000
G01 X19.4262 Y19.0147
G01 X19.4214 Y19.0290
G01 X19.4113 Y19.0502
G01 X19.3981 Y19.0700
G01 X19.3821 Y19.0877
G01 X19.3636 Y19.1028
G01 X19.3432 Y19.1151
G01 X19.3219 Y19.1240
G01 X19.3000 Y19.1297
G01 X19.2775 Y19.1323
G01 X17.2700 Y19.1325
G01 X17.2549 Y19.1318
G01 X17.2400 Y19.1297
G01 X17.2253 Y19.1262
G01 X17.2110 Y19.1214
G01 X17.1898 Y19.1113
G01 X17.1700 Y19.0981
G01 X17.1579 Y19.0877
G01 X17.1419 Y19.0700
G01 X17.1287 Y19.0502
G01 X17.1215 Y19.0360
G01 X17.1138 Y19.0147
G01 X17.1091 Y18.9926
G01 X17.1075 Y18.9700
G01 X17.1077 Y18.3625
G01 X17.1091 Y18.3474
G01 X17.1119 Y18.3326
G01 X17.1160 Y18.3181
G01 X17.1215 Y18.3040
G01 X17.1287 Y18.2898
G01 X17.1372 Y18.2764
G01 X17.1470 Y18.2638
G01 X17.1579 Y18.2523
G01 X17.1700 Y18.2419
G01 X17.1830 Y18.2328
G01 X17.1968 Y18.2249
G01 X17.2110 Y18.2186
G01 X17.2253 Y18.2138
G01 X17.2400 Y18.2103
G01 X17.2549 Y18.2082
G01 X17.2700 Y18.2075
G00 Z1.9990
G00 X17.2700 Y18.3050
G01 F80.00
G01 Z-0.0700
G01 F200.00
G01 X19.2700 Y18.3050
G01 X19.2820 Y18.3061
G01 X19.2908 Y18.3084
G01 X19.2993 Y18.3120
G01 X19.3075 Y18.3169
G01 X19.3148 Y18.3229
G01 X19.3212 Y18.3300
G01 X19.3265 Y18.3379
G01 X19.3306 Y18.3464
G01 X19.3333 Y18.3550
G01 X19.3349 Y18.3670
G01 X19.3350 Y18.9700
G01 X19.3339 Y18.9820
G01 X19.3316 Y18.9908
G01 X19.3265 Y19.0021
G01 X19.3212 Y19.0100
G01 X19.3148 Y19.0171
G01 X19.3075 Y19.0231
G01 X19.2993 Y19.0280
G01 X19.2908 Y19.0316
G01 X19.2820 Y19.0339
G01 X19.2700 Y19.0350
G01 X17.2700 Y19.0350
G01 X17.2610 Y19.0344
G01 X17.2492 Y19.0316
G01 X17.2407 Y19.0280
G01 X17.2325 Y19.0231
G01 X17.2252 Y19.0171
G01 X17.2188 Y19.0100
G01 X17.2135 Y19.0021
G01 X17.2094 Y18.9936
G01 X17.2067 Y18.9850
G01 X17.2051 Y18.9730
G01 X17.2051 Y18.3670
G01 X17.2067 Y18.3550
G01 X17.2106 Y18.3436
G01 X17.2169 Y18.3325
G01 X17.2252 Y18.3229
G01 X17.2352 Y18.3151
G01 X17.2464 Y18.3094
G01 X17.2580 Y18.3061
G01 X17.2700 Y18.3050
G00 Z1.9990
G00 X17.2050 Y20.2400
G01 F80.00
G01 Z-0.0700
G01 F200.00
G01 X17.2053 Y19.6340
G01 X17.2075 Y19.6221
G01 X17.2106 Y19.6136
G01 X17.2151 Y19.6052
G01 X17.2208 Y19.5975
G01 X17.2275 Y19.5908
G01 X17.2352 Y19.5851
G01 X17.2436 Y19.5806
G01 X17.2521 Y19.5775
G01 X17.2610 Y19.5756
G01 X17.2700 Y19.5750
G01 X19.2700 Y19.5750
G01 X19.2820 Y19.5761
G01 X19.2908 Y19.5784
G01 X19.3021 Y19.5835
G01 X19.3100 Y19.5888
G01 X19.3171 Y19.5952
G01 X19.3231 Y19.6025
G01 X19.3280 Y19.6107
G01 X19.3325 Y19.6221
G01 X19.3344 Y19.6310
G01 X19.3350 Y19.6400
G01 X19.3349 Y20.2430
G01 X19.3333 Y20.2550
G01 X19.3306 Y20.2636
G01 X19.3265 Y20.2721
G01 X19.3212 Y20.2800
G01 X19.3148 Y20.2871
G01 X19.3075 Y20.2931
G01 X19.2993 Y20.2980
G01 X19.2879 Y20.3025
G01 X19.2790 Y20.3044
G01 X19.2700 Y20.3050
G01 X17.2670 Y20.3049
G01 X17.2550 Y20.3033
G01 X17.2436 Y20.2994
G01 X17.2325 Y20.2931
G01 X17.2229 Y20.2848
G01 X17.2151 Y20.2748
G01 X17.2094 Y20.2636
G01 X17.2061 Y20.2520
G01 X17.2050 Y20.2400
G00 Z1.9990
G00 X17.1075 Y20.2400
G01 F80.00
G01 Z-0.0700
G01 F200.00
G01 X17.1075 Y19.6400
G01 X17.1091 Y19.6174
G01 X17.1138 Y19.5953
G01 X17.1215 Y19.5740
G01 X17.1328 Y19.5530
G01 X17.1470 Y19.5338
G01 X17.1638 Y19.5170
G01 X17.1830 Y19.5028
G01 X17.2040 Y19.4915
G01 X17.2253 Y19.4838
G01 X17.2474 Y19.4791
G01 X17.2700 Y19.4775
G01 X19.2775 Y19.4777
G01 X19.2926 Y19.4791
G01 X19.3074 Y19.4819
G01 X19.3290 Y19.4886
G01 X19.3502 Y19.4987
G01 X19.3700 Y19.5119
G01 X19.3877 Y19.5279
G01 X19.4028 Y19.5464
G01 X19.4151 Y19.5668
G01 X19.4214 Y19.5810
G01 X19.4262 Y19.5953
G01 X19.4309 Y19.6174
G01 X19.4325 Y19.6400
G01 X19.4325 Y20.2400
G01 X19.4309 Y20.2626
G01 X19.4262 Y20.2847
G01 X19.4185 Y20.3060
G01 X19.4072 Y20.3270
G01 X19.3930 Y20.3462
G01 X19.3762 Y20.3630
G01 X19.3570 Y20.3772
G01 X19.3360 Y20.3885
G01 X19.3147 Y20.3962
G01 X19.2926 Y20.4009
G01 X19.2700 Y20.4025
G01 X17.2700 Y20.4025
G01 X17.2549 Y20.4018
G01 X17.2400 Y20.3997
G01 X17.2253 Y20.3962
G01 X17.2110 Y20.3914
G01 X17.1968 Y20.3851
G01 X17.1830 Y20.3772
G01 X17.1700 Y20.3681
G01 X17.1523 Y20.3521
G01 X17.1419 Y20.3400
G01 X17.1328 Y20.3270
G01 X17.1249 Y20.3132
G01 X17.1186 Y20.2990
G01 X17.1138 Y20.2847
G01 X17.1103 Y20.2700
G01 X17.1082 Y20.2551
G01 X17.1075 Y20.2400
G00 Z1.9990
G00 X17.0846 Y20.7278
G01 F80.00
G01 Z-0.0700
G01 F200.00
G01 X17.0975 Y20.6934
G01 X17.1029 Y20.6752
G01 X17.1086 Y20.6508
G01 X17.1137 Y20.6178
G01 X17.1152 Y20.6004
G01 X17.1161 Y20.5750
G01 X17.1152 Y20.5496
G01 X17.1135 Y20.5307
G01 X17.1086 Y20.4992
G01 X17.1029 Y20.4748
G01 X17.0975 Y20.4566
G01 X17.0846 Y20.4222
G01 X17.1001 Y20.4368
G01 X17.1202 Y20.4525
G01 X17.1417 Y20.4661
G01 X17.1644 Y20.4776
G01 X17.1869 Y20.4864
G01 X17.2101 Y20.4930
G01 X17.2339 Y20.4975
G01 X17.2579 Y20.4997
G01 X19.2821 Y20.4997
G01 X19.3061 Y20.4975
G01 X19.3181 Y20.4955
G01 X19.3299 Y20.4930
G01 X19.3531 Y20.4864
G01 X19.3756 Y20.4776
G01 X19.3871 Y20.4721
G01 X19.4092 Y20.4596
G01 X19.4198 Y20.4525
G01 X19.4399 Y20.4368
G01 X19.4493 Y20.4283
G01 X19.4668 Y20.4099
G01 X19.4825 Y20.3898
G01 X19.4896 Y20.3792
G01 X19.5021 Y20.3571
G01 X19.5122 Y20.3344
G01 X19.5200 Y20.3116
G01 X19.5255 Y20.2880
G01 X19.5275 Y20.2761
G01 X19.5297 Y20.2521
G01 X19.5300 Y19.6400
G01 X19.5297 Y19.6279
G01 X19.5275 Y19.6039
G01 X19.5230 Y19.5801
G01 X19.5200 Y19.5684
G01 X19.5122 Y19.5456
G01 X19.5076 Y19.5344
G01 X19.4961 Y19.5117
G01 X19.4825 Y19.4902
G01 X19.4749 Y19.4800
G01 X19.4668 Y19.4701
G01 X19.4493 Y19.4517
G01 X19.4300 Y19.4351
G01 X19.4198 Y19.4275
G01 X19.3983 Y19.4139
G01 X19.3871 Y19.4079
G01 X19.3644 Y19.3978
G01 X19.3416 Y19.3900
G01 X19.3181 Y19.3845
G01 X19.2941 Y19.3811
G01 X19.2700 Y19.3800
G01 X17.2579 Y19.3803
G01 X17.2339 Y19.3825
G01 X17.2101 Y19.3870
G01 X17.1869 Y19.3936
G01 X17.1644 Y19.4024
G01 X17.1417 Y19.4139
G01 X17.1202 Y19.4275
G01 X17.1001 Y19.4432
G01 X17.0846 Y19.4578
G01 X17.0975 Y19.4234
G01 X17.1029 Y19.4052
G01 X17.1086 Y19.3808
G01 X17.1137 Y19.3478
G01 X17.1152 Y19.3304
G01 X17.1161 Y19.3050
G01 X17.1152 Y19.2796
G01 X17.1135 Y19.2607
G01 X17.1086 Y19.2292
G01 X17.1029 Y19.2048
G01 X17.0975 Y19.1866
G01 X17.0846 Y19.1522
G01 X17.1001 Y19.1668
G01 X17.1202 Y19.1825
G01 X17.1417 Y19.1961
G01 X17.1644 Y19.2076
G01 X17.1869 Y19.2164
G01 X17.2101 Y19.2230
G01 X17.2339 Y19.2275
G01 X17.2579 Y19.2297
G01 X19.2700 Y19.2300
G01 X19.2821 Y19.2297
G01 X19.3061 Y19.2275
G01 X19.3299 Y19.2230
G01 X19.3531 Y19.2164
G01 X19.3756 Y19.2076
G01 X19.3983 Y19.1961
G01 X19.4198 Y19.1825
G01 X19.4399 Y19.1668
G01 X19.4583 Y19.1493
G01 X19.4749 Y19.1300
G01 X19.4825 Y19.1198
G01 X19.4961 Y19.0983
G01 X19.5076 Y19.0756
G01 X19.5122 Y19.0644
G01 X19.5200 Y19.0416
G01 X19.5255 Y19.0180
G01 X19.5289 Y18.9941
G01 X19.5300 Y18.9700
G01 X19.5300 Y18.3700
G01 X19.5289 Y18.3459
G01 X19.5275 Y18.3339
G01 X19.5230 Y18.3101
G01 X19.5164 Y18.2869
G01 X19.5122 Y18.2756
G01 X19.5021 Y18.2529
G01 X19.4961 Y18.2417
G01 X19.4825 Y18.2202
G01 X19.4668 Y18.2001
G01 X19.4493 Y18.1817
G01 X19.4399 Y18.1732
G01 X19.4300 Y18.1651
G01 X19.4092 Y18.1504
G01 X19.3871 Y18.1379
G01 X19.3644 Y18.1278
G01 X19.3531 Y18.1236
G01 X19.3299 Y18.1170
G01 X19.3061 Y18.1125
G01 X19.2941 Y18.1111
G01 X19.2700 Y18.1100
G01 X17.2700 Y18.1100
G01 X17.2579 Y18.1103
G01 X17.2339 Y18.1125
G01 X17.2101 Y18.1170
G01 X17.1869 Y18.1236
G01 X17.1644 Y18.1324
G01 X17.1417 Y18.1439
G01 X17.1202 Y18.1575
G01 X17.1001 Y18.1732
G01 X17.0846 Y18.1878
G01 X17.0975 Y18.1534
G01 X17.1029 Y18.1352
G01 X17.1086 Y18.1108
G01 X17.1137 Y18.0778
G01 X17.1152 Y18.0604
G01 X17.1161 Y18.0350
G01 X17.1152 Y18.0096
G01 X17.1135 Y17.9907
G01 X17.1086 Y17.9592
G01 X17.1029 Y17.9348
G01 X17.0975 Y17.9166
G01 X17.0846 Y17.8822
G01 X17.1001 Y17.8968
G01 X17.1202 Y17.9125
G01 X17.1417 Y17.9261
G01 X17.1644 Y17.9376
G01 X17.1869 Y17.9464
G01 X17.2101 Y17.9530
G01 X17.2339 Y17.9575
G01 X17.2579 Y17.9597
G01 X19.2700 Y17.9600
G01 X19.2941 Y17.9589
G01 X19.3181 Y17.9555
G01 X19.3416 Y17.9500
G01 X19.3644 Y17.9422
G01 X19.3871 Y17.9321
G01 X19.3983 Y17.9261
G01 X19.4198 Y17.9125
G01 X19.4300 Y17.9049
G01 X19.4493 Y17.8883
G01 X19.4668 Y17.8699
G01 X19.4749 Y17.8600
G01 X19.4825 Y17.8498
G01 X19.4961 Y17.8283
G01 X19.5076 Y17.8056
G01 X19.5122 Y17.7944
G01 X19.5200 Y17.7716
G01 X19.5230 Y17.7599
G01 X19.5275 Y17.7361
G01 X19.5297 Y17.7121
G01 X19.5300 Y17.7000
G01 X19.5297 Y17.0879
G01 X19.5275 Y17.0639
G01 X19.5255 Y17.0520
G01 X19.5230 Y17.0401
G01 X19.5164 Y17.0169
G01 X19.5076 Y16.9944
G01 X19.5021 Y16.9829
G01 X19.4896 Y16.9608
G01 X19.4749 Y16.9400
G01 X19.4668 Y16.9301
G01 X19.4493 Y16.9117
G01 X19.4300 Y16.8951
G01 X19.4092 Y16.8804
G01 X19.3983 Y16.8739
G01 X19.3756 Y16.8624
G01 X19.3644 Y16.8578
G01 X19.3416 Y16.8500
G01 X19.3299 Y16.8470
G01 X19.3061 Y16.8425
G01 X19.2941 Y16.8411
G01 X19.2700 Y16.8400
G01 X17.2579 Y16.8403
G01 X17.2339 Y16.8425
G01 X17.2101 Y16.8470
G01 X17.1869 Y16.8536
G01 X17.1644 Y16.8624
G01 X17.1417 Y16.8739
G01 X17.1202 Y16.8875
G01 X17.1001 Y16.9032
G01 X17.0846 Y16.9178
G01 X17.0975 Y16.8834
G01 X17.1029 Y16.8652
G01 X17.1086 Y16.8408
G01 X17.1137 Y16.8078
G01 X17.1152 Y16.7904
G01 X17.1161 Y16.7650
G01 X17.1152 Y16.7396
G01 X17.1135 Y16.7207
G01 X17.1086 Y16.6892
G01 X17.1029 Y16.6648
G01 X17.0975 Y16.6466
G01 X17.0846 Y16.6122
G01 X17.1001 Y16.6268
G01 X17.1202 Y16.6425
G01 X17.1417 Y16.6561
G01 X17.1644 Y16.6676
G01 X17.1869 Y16.6764
G01 X17.2101 Y16.6830
G01 X17.2339 Y16.6875
G01 X17.2579 Y16.6897
G01 X19.2700 Y16.6900
G01 X19.2941 Y16.6889
G01 X19.3180 Y16.6855
G01 X19.3299 Y16.6830
G01 X19.3531 Y16.6764
G01 X19.3756 Y16.6676
G01 X19.3871 Y16.6621
G01 X19.4092 Y16.6496
G01 X19.4198 Y16.6425
G01 X19.4399 Y16.6268
G01 X19.4583 Y16.6093
G01 X19.4668 Y16.5999
G01 X19.4825 Y16.5798
G01 X19.4896 Y16.5692
G01 X19.5021 Y16.5471
G01 X19.5076 Y16.5356
G01 X19.5164 Y16.5131
G01 X19.5230 Y16.4899
G01 X19.5255 Y16.4781
G01 X19.5289 Y16.4541
G01 X19.5300 Y16.4300
G01 X19.5300 Y15.8300
G01 X19.5297 Y15.8179
G01 X19.5275 Y15.7939
G01 X19.5230 Y15.7701
G01 X19.5164 Y15.7469
G01 X19.5076 Y15.7244
G01 X19.5021 Y15.7129
G01 X19.4896 Y15.6908
G01 X19.4749 Y15.6700
G01 X19.4668 Y15.6601
G01 X19.4493 Y15.6417
G01 X19.4300 Y15.6251
G01 X19.4092 Y15.6104
G01 X19.3983 Y15.6039
G01 X19.3756 Y15.5924
G01 X19.3644 Y15.5878
G01 X19.3416 Y15.5800
G01 X19.3181 Y15.5745
G01 X19.2941 Y15.5711
G01 X19.2700 Y15.5700
G01 X17.2579 Y15.5703
G01 X17.2459 Y15.5711
G01 X17.2220 Y15.5745
G01 X17.1984 Y15.5800
G01 X17.1869 Y15.5836
G01 X17.1644 Y15.5924
G01 X17.1529 Y15.5979
G01 X17.1308 Y15.6104
G01 X17.1202 Y15.6175
G01 X17.1001 Y15.6332
G01 X17.0817 Y15.6507
G01 X17.0732 Y15.6601
G01 X17.0651 Y15.6700
G01 X17.0504 Y15.6908
G01 X17.0439 Y15.7017
G01 X17.0324 Y15.7244
G01 X17.0236 Y15.7469
G01 X17.0170 Y15.7701
G01 X17.0125 Y15.7939
G01 X17.0103 Y15.8179
G01 X17.0100 Y16.1308
G01 X17.0041 Y16.1074
G01 X16.9984 Y16.0892
G01 X16.9907 Y16.0684
G01 X16.9793 Y16.0430
G01 X16.9702 Y16.0255
G01 X16.9572 Y16.0039
G01 X16.9420 Y15.9819
G01 X16.9270 Y15.9632
G01 X16.9144 Y15.9490
G01 X16.8965 Y15.9311
G01 X16.8811 Y15.9175
G01 X16.8636 Y15.9035
G01 X16.8416 Y15.8883
G01 X16.8254 Y15.8784
G01 X16.8087 Y15.8693
G01 X16.7859 Y15.8585
G01 X16.7563 Y15.8471
G01 X16.7382 Y15.8414
G01 X16.7137 Y15.8353
G01 X16.6950 Y15.8317
G01 X16.6573 Y15.8274
G01 X16.6319 Y15.8265
G01 X16.6066 Y15.8274
G01 X16.5815 Y15.8299
G01 X16.5561 Y15.8340
G01 X16.5317 Y15.8397
G01 X16.5135 Y15.8451
G01 X16.4955 Y15.8514
G01 X16.4722 Y15.8610
G01 X16.4551 Y15.8693
G01 X16.4347 Y15.8807
G01 X17.0202 Y15.2951
G01 X17.0479 Y15.2951
G01 X17.0651 Y15.3200
G01 X17.0817 Y15.3393
G01 X17.0907 Y15.3483
G01 X17.1100 Y15.3649
G01 X17.1202 Y15.3725
G01 X17.1308 Y15.3796
G01 X17.1529 Y15.3921
G01 X17.1756 Y15.4022
G01 X17.1984 Y15.4100
G01 X17.2219 Y15.4155
G01 X17.2339 Y15.4175
G01 X17.2579 Y15.4197
G01 X19.2700 Y15.4200
G01 X19.2941 Y15.4189
G01 X19.3180 Y15.4155
G01 X19.3299 Y15.4130
G01 X19.3531 Y15.4064
G01 X19.3644 Y15.4022
G01 X19.3871 Y15.3921
G01 X19.4092 Y15.3796
G01 X19.4198 Y15.3725
G01 X19.4300 Y15.3649
G01 X19.4493 Y15.3483
G01 X19.4583 Y15.3393
G01 X19.4749 Y15.3200
G01 X19.4896 Y15.2992
G01 X19.4961 Y15.2883
G01 X19.5076 Y15.2656
G01 X19.5122 Y15.2544
G01 X19.5200 Y15.2316
G01 X19.5230 Y15.2199
G01 X19.5275 Y15.1961
G01 X19.5297 Y15.1721
G01 X19.5300 Y15.1600
G01 X19.5300 Y14.5600
G01 X19.5289 Y14.5359
G01 X19.5255 Y14.5119
G01 X19.5200 Y14.4884
G01 X19.5122 Y14.4656
G01 X19.5076 Y14.4544
G01 X19.4961 Y14.4317
G01 X19.4896 Y14.4208
G01 X19.4749 Y14.4000
G01 X19.4668 Y14.3901
G01 X19.4493 Y14.3717
G01 X19.4300 Y14.3551
G01 X19.4092 Y14.3404
G01 X19.3871 Y14.3279
G01 X19.3644 Y14.3178
G01 X19.3531 Y14.3136
G01 X19.3299 Y14.3070
G01 X19.3061 Y14.3025
G01 X19.2941 Y14.3011
G01 X19.2700 Y14.3000
G01 X17.2700 Y14.3000
G01 X17.2459 Y14.3011
G01 X17.2220 Y14.3045
G01 X17.1984 Y14.3100
G01 X17.1869 Y14.3136
G01 X17.1644 Y14.3224
G01 X17.1529 Y14.3279
G01 X17.1308 Y14.3404
G01 X17.1202 Y14.3475
G01 X17.1001 Y14.3632
G01 X17.0817 Y14.3807
G01 X17.0651 Y14.4000
G01 X17.0479 Y14.4249
G01 X16.8250 Y14.4252
G01 X16.7910 Y14.4277
G01 X16.7549 Y14.4333
G01 X16.7281 Y14.4396
G01 X16.6995 Y14.4483
G01 X16.6764 Y14.4568
G01 X16.6489 Y14.4692
G01 X16.6293 Y14.4794
G01 X16.6036 Y14.4948
G01 X16.5797 Y14.5114
G01 X16.5591 Y14.5278
G01 X16.5323 Y14.5523
G01 X14.8523 Y16.2323
G01 X14.8334 Y16.2526
G01 X14.8114 Y16.2797
G01 X14.7948 Y16.3036
G01 X14.7794 Y16.3293
G01 X14.7692 Y16.3489
G01 X14.7568 Y16.3764
G01 X14.7483 Y16.3995
G01 X14.7419 Y16.4198
G01 X14.7365 Y16.4405
G01 X14.7306 Y16.4699
G01 X14.7275 Y16.4925
G01 X14.7252 Y16.5250
G01 X14.7249 Y17.8598
G01 X12.1798 Y20.4049
G01 X10.0402 Y20.4049
G01 X7.7951 Y18.1598
G01 X7.7951 Y15.8917
G01 X8.1107 Y15.5761
G01 X8.1299 Y15.6032
G01 X8.1526 Y15.6323
G01 X8.1815 Y15.6663
G01 X8.2165 Y15.7035
G01 X8.2442 Y15.7299
G01 X8.2790 Y15.7604
G01 X8.3168 Y15.7901
G01 X8.3492 Y15.8130
G01 X8.3878 Y15.8379
G01 X8.4254 Y15.8595
G01 X8.4658 Y15.8801
G01 X8.5059 Y15.8982
G01 X8.5474 Y15.9146
G01 X8.5898 Y15.9289
G01 X8.6327 Y15.9411
G01 X8.6822 Y15.9525
G01 X8.7202 Y15.9591
G01 X8.7660 Y15.9651
G01 X8.8090 Y15.9685
G01 X8.8600 Y15.9700
G01 X8.8983 Y15.9691
G01 X8.9428 Y15.9662
G01 X8.9872 Y15.9610
G01 X9.0378 Y15.9525
G01 X9.0749 Y15.9442
G01 X9.1180 Y15.9326
G01 X9.1605 Y15.9189
G01 X9.2053 Y15.9019
G01 X9.2433 Y15.8853
G01 X9.2833 Y15.8655
G01 X9.3223 Y15.8437
G01 X9.3602 Y15.8201
G01 X9.3999 Y15.7925
G01 X9.3999 Y16.2275
G01 X9.3708 Y16.2070
G01 X9.3322 Y16.1821
G01 X9.2833 Y16.1545
G01 X9.2433 Y16.1347
G01 X9.2053 Y16.1181
G01 X9.1726 Y16.1054
G01 X9.1302 Y16.0911
G01 X9.0749 Y16.0758
G01 X9.0378 Y16.0675
G01 X8.9998 Y16.0609
G01 X8.9540 Y16.0549
G01 X8.9110 Y16.0515
G01 X8.8536 Y16.0501
G01 X8.8090 Y16.0515
G01 X8.7645 Y16.0551
G01 X8.7202 Y16.0609
G01 X8.6887 Y16.0663
G01 X8.6327 Y16.0789
G01 X8.5898 Y16.0911
G01 X8.5595 Y16.1011
G01 X8.5147 Y16.1181
G01 X8.4767 Y16.1347
G01 X8.4254 Y16.1605
G01 X8.3867 Y16.1828
G01 X8.3492 Y16.2070
G01 X8.3168 Y16.2299
G01 X8.2877 Y16.2526
G01 X8.2537 Y16.2815
G01 X8.2165 Y16.3165
G01 X8.1815 Y16.3537
G01 X8.1526 Y16.3877
G01 X8.1299 Y16.4168
G01 X8.1070 Y16.4492
G01 X8.0828 Y16.4867
G01 X8.0605 Y16.5254
G01 X8.0399 Y16.5658
G01 X8.0181 Y16.6147
G01 X8.0011 Y16.6595
G01 X7.9874 Y16.7020
G01 X7.9789 Y16.7327
G01 X7.9688 Y16.7762
G01 X7.9609 Y16.8202
G01 X7.9549 Y16.8660
G01 X7.9509 Y16.9217
G01 X7.9501 Y16.9664
G01 X7.9515 Y17.0110
G01 X7.9549 Y17.0540
G01 X7.9590 Y17.0872
G01 X7.9675 Y17.1378
G01 X7.9789 Y17.1873
G01 X7.9911 Y17.2302
G01 X8.0011 Y17.2605
G01 X8.0181 Y17.3053
G01 X8.0399 Y17.3542
G01 X8.0545 Y17.3833
G01 X8.0763 Y17.4223
G01 X8.1070 Y17.4708
G01 X8.1329 Y17.5072
G01 X8.1607 Y17.5422
G01 X8.1815 Y17.5663
G01 X8.2211 Y17.6079
G01 X8.2537 Y17.6385
G01 X8.2778 Y17.6593
G01 X8.3168 Y17.6901
G01 X8.3598 Y17.7201
G01 X8.3878 Y17.7378
G01 X8.4249 Y17.7592
G01 X8.4249 Y18.4400
G01 X8.4258 Y18.4677
G01 X8.4288 Y18.4975
G01 X8.4321 Y18.5186
G01 X8.4365 Y18.5395
G01 X8.4419 Y18.5602
G01 X8.4483 Y18.5805
G01 X8.4568 Y18.6036
G01 X8.4692 Y18.6311
G01 X8.4794 Y18.6507
G01 X8.4948 Y18.6764
G01 X8.5114 Y18.7003
G01 X8.5334 Y18.7274
G01 X8.5523 Y18.7477
G01 X9.4523 Y19.6477
G01 X9.4726 Y19.6666
G01 X9.4997 Y19.6886
G01 X9.5319 Y19.7105
G01 X9.5493 Y19.7206
G01 X9.5689 Y19.7308
G01 X9.5876 Y19.7395
G01 X9.6074 Y19.7474
G01 X9.6276 Y19.7544
G01 X9.6481 Y19.7604
G01 X9.6814 Y19.7679
G01 X9.7025 Y19.7712
G01 X9.7237 Y19.7735
G01 X9.7600 Y19.7751
G01 X11.7750 Y19.7748
G01 X11.8090 Y19.7723
G01 X11.8386 Y19.7679
G01 X11.8719 Y19.7604
G01 X11.9005 Y19.7517
G01 X11.9324 Y19.7395
G01 X11.9594 Y19.7267
G01 X11.9891 Y19.7098
G01 X12.0140 Y19.6932
G01 X12.0409 Y19.6722
G01 X12.0677 Y19.6477
G01 X14.3677 Y17.3477
G01 X14.3866 Y17.3274
G01 X14.4003 Y17.3110
G01 X14.4182 Y17.2870
G01 X14.4364 Y17.2582
G01 X14.4508 Y17.2311
G01 X14.4643 Y17.2006
G01 X14.4744 Y17.1724
G01 X14.4835 Y17.1395
G01 X14.4894 Y17.1101
G01 X14.4925 Y17.0875
G01 X14.4942 Y17.0677
G01 X14.4951 Y17.0400
G01 X14.4951 Y16.0202
G01 X16.4902 Y14.0251
G01 X17.0479 Y14.0251
G01 X17.0651 Y14.0500
G01 X17.0817 Y14.0693
G01 X17.0907 Y14.0783
G01 X17.1100 Y14.0949
G01 X17.1308 Y14.1096
G01 X17.1417 Y14.1161
G01 X17.1644 Y14.1276
G01 X17.1756 Y14.1322
G01 X17.1984 Y14.1400
G01 X17.2220 Y14.1455
G01 X17.2459 Y14.1489
G01 X17.2579 Y14.1497
G01 X19.2700 Y14.1500
G01 X19.2941 Y14.1489
G01 X19.3061 Y14.1475
G01 X19.3180 Y14.1455
G01 X19.3416 Y14.1400
G01 X19.3531 Y14.1364
G01 X19.3756 Y14.1276
G01 X19.3871 Y14.1221
